P3
200 200
255
13 13 13 13 13 13 13 13 13 13 13 13 13 13 13 13 13 13 13 13 13 13 13 13 13 13 13 13 13 13 13 13 13 13 13 13 13 13 13 13 13 13 13 13 13 13 13 13 13 13 13 13 13 13 13 13 13 13 13 13 13 13 13 13 13 13 13 13 13 13 13 13 13 13 13 13 13 13 13 13 13 13 13 13 13 13 13 13 13 13 13 13 13 13 13 13 13 13 13 13 13 13 13 13 13 13 13 13 13 13 13 13 13 13 13 13 13 13 13 13 13 13 13 13 13 13 13 13 13 13 13 13 13 13 13 13 13 13 13 13 13 13 13 13 13 13 13 13 13 13 13 13 13 13 13 13 13 13 13 13 13 13 13 13 13 13 13 13 13 13 13 13 13 13 13 13 13 13 13 13 13 13 13 13 13 13 13 13 13 13 13 13 13 13 13 13 13 13 13 13 13 13 13 13 13 13 13 13 13 13 13 13 13 13 13 13 13 13 13 13 13 13 13 13 13 13 13 13 13 13 13 13 13 13 13 13 13 13 13 13 13 13 13 13 13 13 13 13 13 13 13 13 13 13 13 13 13 13 13 13 13 13 13 13 13 13 13 13 13 13 13 13 13 13 13 13 13 13 13 13 13 13 13 13 13 13 13 13 13 13 13 13 13 13 13 13 13 13 13 13 13 13 13 13 13 13 13 13 13 13 13 13 13 13 13 13 13 13 13 13 13 13 13 13 13 13 13 13 13 13 13 13 13 13 13 13 13 13 13 13 13 13 13 13 13 13 13 13 13 13 13 13 13 13 13 13 13 13 13 13 13 13 13 13 13 13 13 13 13 13 13 13 13 13 13 13 13 13 13 13 13 13 13 13 13 13 13 13 13 13 13 13 13 13 13 13 13 13 13 13 13 13 13 13 13 13 13 13 13 13 13 13 13 13 13 13 13 13 13 13 13 13 13 13 13 13 13 13 13 13 13 13 13 13 13 13 13 13 13 13 13 13 13 13 13 13 13 13 13 13 13 13 13 13 13 13 13 13 13 13 13 13 13 13 13 13 13 13 13 13 13 13 13 13 13 13 13 13 13 13 13 13 13 13 13 13 13 13 13 13 13 13 13 13 13 13 13 13 13 13 13 13 13 13 13 13 13 13 13 13 13 13 13 13 13 13 13 13 13 13 13 13 13 13 13 13 13 13 13 13 13 13 13 13 13 13 13 13 13 13 13 13 13 13 13 13 13 13 13 13 13 13 13 13 13 13 13 13 13 13 13 13 13 13 13 13 13 13 13 13 13 13 13 13 13 13 13 13 13 13 13 13 13 13 13 13 13 13 13 13 13 13 13 13 13 13 13 13 13 13 
13 13 13 13 13 13 13 13 13 13 13 13 13 13 13 13 13 13 13 13 13 13 13 13 13 13 13 13 13 13 13 13 13 13 13 13 13 13 13 13 13 13 13 13 13 13 13 13 13 13 13 13 13 13 13 13 13 13 13 13 13 13 13 13 13 13 13 13 13 13 13 13 13 13 13 13 13 13 13 13 13 13 13 13 13 13 13 13 13 13 13 13 13 13 13 13 13 13 13 13 13 13 13 13 13 13 13 13 13 13 13 13 13 13 13 13 13 13 13 13 13 13 13 13 13 13 13 13 13 13 13 13 13 13 13 13 13 13 13 13 13 13 13 13 13 13 13 13 13 13 13 13 13 13 13 13 13 13 13 13 13 13 13 13 13 13 13 13 13 13 13 13 13 13 13 13 13 13 13 13 13 13 13 13 13 13 13 13 13 13 13 13 13 13 13 13 13 13 13 13 13 13 13 13 13 13 13 13 13 13 13 13 13 13 13 13 13 13 13 13 13 13 13 13 13 13 13 13 13 13 13 13 13 13 13 13 13 13 13 13 13 13 13 13 13 13 13 13 13 13 13 13 13 13 13 13 13 13 13 13 13 13 13 13 13 13 13 13 13 13 13 13 13 13 13 13 13 13 13 13 13 13 13 13 13 13 13 13 13 13 13 13 13 13 13 13 13 13 13 13 13 13 13 13 13 13 13 13 13 13 13 13 13 13 13 13 13 13 13 13 13 13 13 13 13 13 13 13 13 13 13 13 13 13 13 13 13 13 13 13 13 13 13 13 13 13 13 13 13 13 13 13 13 13 13 13 13 13 13 13 13 13 13 13 13 13 13 13 13 13 13 13 13 13 13 13 13 13 13 13 13 13 13 13 13 13 13 13 13 13 13 13 13 13 13 13 13 13 13 13 13 13 13 13 13 13 13 13 13 13 13 13 13 13 13 13 13 13 13 13 13 13 13 13 13 13 13 13 13 13 13 13 13 13 13 13 13 13 13 13 13 13 13 13 13 13 13 13 13 13 13 13 13 13 13 13 13 13 13 13 13 13 13 13 13 13 13 13 13 13 13 13 13 13 13 13 13 13 13 13 13 13 13 13 13 13 13 13 13 13 13 13 13 13 13 13 13 13 13 13 13 13 13 13 13 13 13 13 13 13 13 13 13 13 13 13 13 13 13 13 13 13 13 13 13 13 13 13 13 13 13 13 13 13 13 13 13 13 13 13 13 13 13 13 13 13 13 13 13 13 13 13 13 13 13 13 13 13 13 13 13 13 13 13 13 13 13 13 13 13 13 13 13 13 13 13 13 13 13 13 13 13 13 13 13 13 13 13 13 13 13 13 13 13 13 13 13 13 13 13 
13 13 13 13 13 13 13 13 13 13 13 13 13 13 13 13 13 13 13 13 13 13 13 13 13 13 13 13 13 13 13 13 13 13 13 13 13 13 13 13 13 13 13 13 13 13 13 13 13 13 13 13 13 13 13 13 13 13 13 13 13 13 13 13 13 13 13 13 13 13 13 13 13 13 13 13 13 13 13 13 13 13 13 13 13 13 13 13 13 13 13 13 13 13 13 13 13 13 13 13 13 13 13 13 13 13 13 13 13 13 13 13 13 13 13 13 13 13 13 13 13 13 13 13 13 13 13 13 13 13 13 13 13 13 13 13 13 13 13 13 13 13 13 13 13 13 13 13 13 13 13 13 13 13 13 13 13 13 13 13 13 13 13 13 13 13 13 13 13 13 13 13 13 13 13 13 13 13 13 13 13 13 13 13 13 13 13 13 13 13 13 13 13 13 13 13 13 13 13 13 13 13 13 13 13 13 13 13 13 13 13 13 13 13 13 13 13 13 13 13 13 13 13 13 13 13 13 13 13 13 13 13 13 13 13 13 13 13 13 13 13 13 13 13 13 13 13 13 13 13 13 13 13 13 13 13 13 13 13 13 13 13 13 13 13 13 13 13 13 13 13 13 13 13 13 13 13 13 13 13 13 13 13 13 13 13 13 13 13 13 13 13 13 13 13 13 13 13 13 13 13 13 13 13 13 13 13 13 13 13 13 13 13 13 13 13 13 13 13 13 13 13 13 13 13 13 13 13 13 13 13 13 13 13 13 13 13 13 13 13 13 13 13 13 13 13 13 13 13 13 13 13 13 13 13 13 13 13 13 13 13 13 13 13 13 13 13 13 13 13 13 13 13 13 13 13 13 13 13 13 13 13 13 13 13 13 13 13 13 13 13 13 13 13 13 13 13 13 13 13 13 13 13 13 13 13 13 13 13 13 13 13 13 13 13 13 13 13 13 13 13 13 13 13 13 13 13 13 13 13 13 13 13 13 13 13 13 13 13 13 13 13 13 13 13 13 13 13 13 13 13 13 13 13 13 13 13 13 13 13 13 13 13 13 13 13 13 13 13 13 13 13 13 13 13 13 13 13 13 13 13 13 13 13 13 13 13 13 13 13 13 13 13 13 13 13 13 13 13 13 13 13 13 13 13 13 13 13 13 13 13 13 13 13 13 13 13 13 13 13 13 13 13 13 13 13 13 13 13 13 13 13 13 13 13 13 13 13 13 13 13 13 13 13 13 13 13 13 13 13 13 13 13 13 13 13 13 13 13 13 13 13 13 13 13 13 13 13 13 13 13 13 13 13 13 13 13 13 13 13 13 13 13 13 13 13 13 13 13 13 13 13 13 13 13 13 13 13 13 13 
13 13 13 13 13 13 13 13 13 13 13 13 13 13 13 13 13 13 13 13 13 13 13 13 13 13 13 13 13 13 13 13 13 13 13 13 13 13 13 13 13 13 13 13 13 13 13 13 13 13 13 13 13 13 13 13 13 13 13 13 13 13 13 13 13 13 13 13 13 13 13 13 13 13 13 13 13 13 13 13 13 13 13 13 13 13 13 13 13 13 13 13 13 13 13 13 13 13 13 13 13 13 13 13 13 13 13 13 13 13 13 13 13 13 13 13 13 13 13 13 13 13 13 13 13 13 13 13 13 13 13 13 13 13 13 13 13 13 13 13 13 13 13 13 13 13 13 13 13 13 13 13 13 13 13 13 13 13 13 13 13 13 13 13 13 13 13 13 13 13 13 13 13 13 13 13 13 13 13 13 13 13 13 13 13 13 13 13 13 13 13 13 13 13 13 13 13 13 13 13 13 13 13 13 13 13 13 13 13 13 13 13 13 13 13 13 13 13 13 13 13 13 13 13 13 13 13 13 13 13 13 13 13 13 13 13 13 13 13 13 13 13 13 13 13 13 13 13 13 13 13 13 13 13 13 13 13 13 13 13 13 13 13 13 13 13 13 13 13 13 13 13 13 13 13 13 13 13 13 13 13 13 13 13 13 13 13 13 13 13 13 13 13 13 13 13 13 13 13 13 13 13 13 13 13 13 13 13 13 13 13 13 13 13 13 13 13 13 13 13 13 13 13 13 13 13 13 13 13 13 13 13 13 13 13 13 13 13 13 13 13 13 13 13 13 13 13 13 13 13 13 13 13 13 13 13 13 13 13 13 13 13 13 13 13 13 13 13 13 13 13 13 13 13 13 13 13 13 13 13 13 13 13 13 13 13 13 13 13 13 13 13 13 13 13 13 13 13 13 13 13 13 13 13 13 13 13 13 13 13 13 13 13 13 13 13 13 13 13 13 13 13 13 13 13 13 13 13 13 13 13 13 13 13 13 13 13 13 13 13 13 13 13 13 13 13 13 13 13 13 13 13 13 13 13 13 13 13 13 13 13 13 13 13 13 13 13 13 13 13 13 13 13 13 13 13 13 13 13 13 13 13 13 13 13 13 13 13 13 13 13 13 13 13 13 13 13 13 13 13 13 13 13 13 13 13 13 13 13 13 13 13 13 13 13 13 13 13 13 13 13 13 13 13 13 13 13 13 13 13 13 13 13 13 13 13 13 13 13 13 13 13 13 13 13 13 13 13 13 13 13 13 13 13 13 13 13 13 13 13 13 13 13 13 13 13 13 13 13 13 13 13 13 13 13 13 13 13 13 13 13 13 13 13 13 13 13 13 13 13 13 13 13 13 13 13 13 13 13 13 
13 13 13 13 13 13 13 13 13 13 13 13 13 13 13 13 13 13 13 13 13 13 13 13 13 13 13 13 13 13 13 13 13 13 13 13 13 13 13 13 13 13 13 13 13 13 13 13 13 13 13 13 13 13 13 13 13 13 13 13 13 13 13 13 13 13 13 13 13 13 13 13 13 13 13 13 13 13 13 13 13 13 13 13 13 13 13 13 13 13 13 13 13 13 13 13 13 13 13 13 13 13 13 13 13 13 13 13 13 13 13 13 13 13 13 13 13 13 13 13 13 13 13 13 13 13 13 13 13 13 13 13 13 13 13 13 13 13 13 13 13 13 13 13 13 13 13 13 13 13 13 13 13 13 13 13 13 13 13 13 13 13 13 13 13 13 13 13 13 13 13 13 13 13 13 13 13 13 13 13 13 13 13 13 13 13 13 13 13 13 13 13 13 13 13 13 13 13 13 13 13 13 13 13 13 13 13 13 13 13 13 13 13 13 13 13 13 13 13 13 13 13 13 13 13 13 13 13 13 13 13 13 13 13 13 13 13 13 13 13 13 13 13 13 13 13 13 13 13 13 13 13 13 13 13 13 13 13 13 13 13 13 13 13 13 13 13 13 13 13 13 13 13 13 13 13 13 13 13 13 13 13 13 13 13 13 13 13 13 13 13 13 13 13 13 13 13 13 13 13 13 13 13 13 13 13 13 13 13 13 13 13 13 13 13 13 13 13 13 13 13 13 13 13 13 13 13 13 13 13 13 13 13 13 13 13 13 13 13 13 13 13 13 13 13 13 13 13 13 13 13 13 13 13 13 13 13 13 13 13 13 13 13 13 13 13 13 13 13 13 13 13 13 13 13 13 13 13 13 13 13 13 13 13 13 13 13 13 13 13 13 13 13 13 13 13 13 13 13 13 13 13 13 13 13 13 13 13 13 13 13 13 13 13 13 13 13 13 13 13 13 13 13 13 13 13 13 13 13 13 13 13 13 13 13 13 13 13 13 13 13 13 13 13 13 13 13 13 13 13 13 13 13 13 13 13 13 13 13 13 13 13 13 13 13 13 13 13 13 13 13 13 13 13 13 13 13 13 13 13 13 13 13 13 13 13 13 13 13 13 13 13 13 13 13 13 13 13 13 13 13 13 13 13 13 13 13 13 13 13 13 13 13 13 13 13 13 13 13 13 13 13 13 13 13 13 13 13 13 13 13 13 13 13 13 13 13 13 13 13 13 13 13 13 13 13 13 13 13 13 13 13 13 13 13 13 13 13 13 13 13 13 13 13 13 13 13 13 13 13 13 13 13 13 13 13 13 13 13 13 13 13 13 13 13 13 13 13 13 13 13 13 13 13 13 13 13 13 13 13 
13 13 13 13 13 13 13 13 13 13 13 13 13 13 13 13 13 13 13 13 13 13 13 13 13 13 13 13 13 13 13 13 13 13 13 13 13 13 13 13 13 13 13 13 13 13 13 13 13 13 13 13 13 13 13 13 13 13 13 13 13 13 13 13 13 13 13 13 13 13 13 13 13 13 13 13 13 13 13 13 13 13 13 13 13 13 13 13 13 13 13 13 13 13 13 13 13 13 13 13 13 13 13 13 13 13 13 13 13 13 13 13 13 13 13 13 13 13 13 13 13 13 13 13 13 13 13 13 13 13 13 13 13 13 13 13 13 13 13 13 13 13 13 13 13 13 13 13 13 13 13 13 13 13 13 13 13 13 13 13 13 13 13 13 13 13 13 13 13 13 13 13 13 13 13 13 13 13 13 13 13 13 13 13 13 13 13 13 13 13 13 13 13 13 13 13 13 13 13 13 13 13 13 13 13 13 13 13 13 13 13 13 13 13 13 13 13 13 13 13 13 13 13 13 13 13 13 13 13 13 13 13 13 13 13 13 13 13 13 13 13 13 13 13 13 13 13 13 13 13 13 13 13 13 13 13 13 13 13 13 13 13 13 13 13 13 13 13 13 13 13 13 13 13 13 13 13 13 13 13 13 13 13 13 13 13 13 13 13 13 13 13 13 13 13 13 13 13 13 13 13 13 13 13 13 13 13 13 13 13 13 13 13 13 13 13 13 13 13 13 13 13 13 13 13 13 13 13 13 13 13 13 13 13 13 13 13 13 13 13 13 13 13 13 13 13 13 13 13 13 13 13 13 13 13 13 13 13 13 13 13 13 13 13 13 13 13 13 13 13 13 13 13 13 13 13 13 13 13 13 13 13 13 13 13 13 13 13 13 13 13 13 13 13 13 13 13 13 13 13 13 13 13 13 13 13 13 13 13 13 13 13 13 13 13 13 13 13 13 13 13 13 13 13 13 13 13 13 13 13 13 13 13 13 13 13 13 13 13 13 13 13 13 13 13 13 13 13 13 13 13 13 13 13 13 13 13 13 13 13 13 13 13 13 13 13 13 13 13 13 13 13 13 13 13 13 13 13 13 13 13 13 13 13 13 13 13 13 13 13 13 13 13 13 13 13 13 13 13 13 13 13 13 13 13 13 13 13 13 13 13 13 13 13 13 13 13 13 13 13 13 13 13 13 13 13 13 13 13 13 13 13 13 13 13 13 13 13 13 13 13 13 13 13 13 13 13 13 13 13 13 13 13 13 13 13 13 13 13 13 13 13 13 13 13 13 13 13 13 13 13 13 13 13 13 13 13 13 13 13 13 13 13 13 13 13 13 13 13 13 13 13 13 13 13 13 13 13 13 13 
13 13 13 13 13 13 13 13 13 13 13 13 13 13 13 13 13 13 13 13 13 13 13 13 13 13 13 13 13 13 13 13 13 13 13 13 13 13 13 13 13 13 13 13 13 13 13 13 13 13 13 13 13 13 13 13 13 13 13 13 13 13 13 13 13 13 13 13 13 13 13 13 13 13 13 13 13 13 13 13 13 13 13 13 13 13 13 13 13 13 13 13 13 13 13 13 13 13 13 13 13 13 13 13 13 13 13 13 13 13 13 13 13 13 13 13 13 13 13 13 13 13 13 13 13 13 13 13 13 13 13 13 13 13 13 13 13 13 13 13 13 13 13 13 13 13 13 13 13 13 13 13 13 13 13 13 13 13 13 13 13 13 13 13 13 13 13 13 13 13 13 13 13 13 13 13 13 13 13 13 13 13 13 13 13 13 13 13 13 13 13 13 13 13 13 13 13 13 13 13 13 13 13 13 13 13 13 13 13 13 13 13 13 13 13 13 13 13 13 13 13 13 13 13 13 13 13 13 13 13 13 13 13 13 13 13 13 13 13 13 13 13 13 13 13 13 13 13 13 13 13 13 13 13 13 13 13 13 13 13 13 13 13 13 13 13 13 13 13 13 13 13 13 13 13 13 13 13 13 13 13 13 13 13 13 13 13 13 13 13 13 13 13 13 13 13 13 13 13 13 13 13 13 13 13 13 13 13 13 13 13 13 13 13 13 13 13 13 13 13 13 13 13 13 13 13 13 13 13 13 13 13 13 13 13 13 13 13 13 13 13 13 13 13 13 13 13 13 13 13 13 13 13 13 13 13 13 13 13 13 13 13 13 13 13 13 13 13 13 13 13 13 13 13 13 13 13 13 13 13 13 13 13 13 13 13 13 13 13 13 13 13 13 13 13 13 13 13 13 13 13 13 13 13 13 13 13 13 13 13 13 13 13 13 13 13 13 13 13 13 13 13 13 13 13 13 13 13 13 13 13 13 13 13 13 13 13 13 13 13 13 13 13 13 13 13 13 13 13 13 13 13 13 13 13 13 13 13 13 13 13 13 13 13 13 13 13 13 13 13 13 13 13 13 13 13 13 13 13 13 13 13 13 13 13 13 13 13 13 13 13 13 13 13 13 13 13 13 13 13 13 13 13 13 13 13 13 13 13 13 13 13 13 13 13 13 13 13 13 13 13 13 13 13 13 13 13 13 13 13 13 13 13 13 13 13 13 13 13 13 13 13 13 13 13 13 13 13 13 13 13 13 13 13 13 13 13 13 13 13 13 13 13 13 13 13 13 13 13 13 13 13 13 13 13 13 13 13 13 13 13 13 13 13 13 13 13 13 13 13 13 13 13 13 13 13 13 13 13 13 
13 13 13 13 13 13 13 13 13 13 13 13 13 13 13 13 13 13 13 13 13 13 13 13 13 13 13 13 13 13 13 13 13 13 13 13 13 13 13 13 13 13 13 13 13 13 13 13 13 13 13 13 13 13 13 13 13 13 13 13 13 13 13 13 13 13 13 13 13 13 13 13 13 13 13 13 13 13 13 13 13 13 13 13 13 13 13 13 13 13 13 13 13 13 13 13 13 13 13 13 13 13 13 13 13 13 13 13 13 13 13 13 13 13 13 13 13 13 13 13 13 13 13 13 13 13 13 13 13 13 13 13 13 13 13 13 13 13 13 13 13 13 13 13 13 13 13 13 13 13 13 13 13 13 13 13 13 13 13 13 13 13 13 13 13 13 13 13 13 13 13 13 13 13 13 13 13 13 13 13 13 13 13 13 13 13 13 13 13 13 13 13 13 13 13 13 13 13 13 13 13 13 13 13 13 13 13 13 13 13 13 13 13 13 13 13 13 13 13 0 26 255 13 13 13 13 13 13 13 13 13 13 13 13 13 13 13 13 13 13 13 13 13 13 13 13 13 13 13 13 13 13 13 13 13 13 13 13 13 13 13 13 13 13 13 13 13 13 13 13 13 13 13 13 13 13 13 13 13 13 13 13 13 13 13 0 26 255 13 13 13 13 13 13 13 13 13 13 13 13 13 13 13 13 13 13 13 13 13 13 13 13 13 13 13 13 13 13 13 13 13 13 13 13 13 13 13 13 13 13 13 13 13 13 13 13 13 13 13 13 13 13 13 13 13 13 13 13 13 13 13 13 13 13 13 13 13 13 13 13 13 13 13 13 13 13 13 13 13 13 13 13 13 13 13 13 13 13 13 13 13 13 13 13 13 13 13 13 13 13 13 13 13 13 13 13 13 13 13 13 13 13 13 13 13 13 13 13 13 13 13 13 13 13 13 13 13 13 13 13 13 13 13 13 13 13 13 13 13 13 13 13 13 13 13 13 13 13 13 13 13 13 13 13 13 13 13 13 13 13 13 13 13 13 13 13 13 13 13 13 13 13 13 13 13 13 13 13 13 13 13 13 13 13 13 13 13 13 13 13 13 13 13 13 13 13 13 13 13 13 13 13 13 13 13 13 13 13 13 13 13 13 13 13 13 13 13 13 13 13 13 13 13 13 13 13 13 13 13 13 13 13 13 13 13 13 13 13 13 13 13 13 13 13 13 13 13 13 13 13 13 13 13 13 13 13 13 13 13 13 13 13 13 13 13 13 13 13 13 13 13 13 13 13 13 13 13 13 13 13 13 13 13 13 13 13 13 13 13 13 13 13 13 13 13 13 13 13 13 13 13 13 13 13 13 13 13 13 13 13 
13 13 13 13 13 13 13 13 13 13 13 13 13 13 13 13 13 13 13 13 13 13 13 13 13 13 13 13 13 13 13 13 13 13 13 13 13 13 13 13 13 13 13 13 13 13 13 13 13 13 13 13 13 13 13 13 13 13 13 13 13 13 13 13 13 13 13 13 13 13 13 13 13 13 13 13 13 13 13 13 13 13 13 13 13 13 13 13 13 13 13 13 13 13 13 13 13 13 13 0 26 255 13 13 13 13 13 13 13 13 13 13 13 13 13 13 13 13 13 13 13 13 13 13 13 13 13 13 13 13 13 13 13 13 13 13 13 13 13 13 13 13 13 13 13 13 13 13 13 13 13 13 13 13 13 13 13 13 13 13 13 13 13 13 13 13 13 13 13 13 13 13 13 13 13 13 13 13 13 13 13 13 13 13 13 13 13 13 13 13 13 13 13 13 13 13 13 13 13 13 13 13 13 13 13 13 13 13 13 13 13 13 13 13 13 13 13 13 13 13 13 13 13 13 13 13 13 13 13 13 13 13 13 13 13 13 13 13 13 13 13 13 13 13 13 13 13 13 13 13 13 13 13 13 13 13 13 13 13 13 13 13 13 13 13 13 13 13 13 13 13 13 13 13 13 13 0 26 255 0 26 255 13 13 13 13 13 13 13 13 13 13 13 13 13 13 13 13 13 13 13 13 13 13 13 13 13 13 13 13 13 13 13 13 13 13 13 13 13 13 13 13 13 13 13 13 13 13 13 13 13 13 13 13 13 13 13 13 13 13 13 13 13 13 13 13 13 13 13 13 13 13 13 13 13 13 13 13 13 13 13 13 13 13 13 13 13 13 13 13 13 13 13 13 13 13 13 13 13 13 13 13 13 13 13 13 13 13 13 13 13 13 13 13 13 13 13 13 13 13 13 13 13 13 13 13 13 13 13 13 13 13 13 13 13 13 13 13 13 13 13 13 13 13 13 13 13 13 13 13 13 13 13 13 13 13 13 13 13 13 13 13 13 13 13 13 13 13 13 13 13 13 13 13 13 13 13 13 13 13 13 13 13 13 13 13 13 13 13 13 13 13 13 13 13 13 13 13 13 13 13 13 13 13 13 13 13 13 13 13 13 13 13 13 13 13 13 13 13 13 13 13 13 13 13 13 13 13 13 13 13 13 13 13 13 13 13 13 13 13 13 13 13 13 13 13 13 13 13 13 13 13 13 13 13 13 13 13 13 13 13 13 13 13 13 13 13 13 13 13 13 13 13 13 13 13 13 13 13 13 13 13 13 13 13 13 13 13 13 13 13 13 13 13 13 13 13 13 13 13 13 13 13 13 13 13 13 13 13 13 13 13 13 13 13 13 13 13 13 13 
13 13 13 13 13 13 13 13 13 13 13 13 13 13 13 13 13 13 13 13 13 13 13 13 13 13 13 13 13 13 13 13 13 13 13 13 13 13 13 13 13 13 13 13 13 13 13 13 13 13 13 13 13 13 13 13 13 13 13 13 13 13 13 13 13 13 13 13 13 13 13 13 13 13 13 13 13 13 13 13 13 13 13 13 13 13 13 13 13 13 13 13 13 13 13 13 13 13 13 13 13 13 13 13 13 13 13 13 13 13 13 13 13 13 13 13 13 13 13 13 13 13 13 13 13 13 13 13 13 13 13 13 13 13 13 13 13 13 13 13 13 13 13 13 13 13 13 13 13 13 13 13 13 13 13 13 13 13 13 13 13 13 13 13 13 13 13 13 13 13 13 0 26 255 13 13 13 13 13 13 13 13 13 13 13 13 13 13 13 13 13 13 13 13 13 13 13 13 13 13 13 13 13 13 13 13 13 13 13 13 13 13 13 13 13 13 13 13 13 13 13 13 13 13 13 13 13 13 0 26 255 13 13 13 13 13 13 13 13 13 13 13 13 13 13 13 13 13 13 13 13 13 13 13 13 13 13 13 13 13 13 0 26 255 13 13 13 13 13 13 0 26 255 0 26 255 0 26 255 0 26 255 0 26 255 13 13 13 13 13 13 13 13 13 13 13 13 13 13 13 13 13 13 13 13 13 13 13 13 13 13 13 13 13 13 13 13 13 13 13 13 13 13 13 13 13 13 13 13 13 13 13 13 13 13 13 13 13 13 13 13 13 13 13 13 13 13 13 13 13 13 13 13 13 13 13 13 13 13 13 13 13 13 13 13 13 13 13 13 13 13 13 13 13 13 13 13 13 13 13 13 13 13 13 13 13 13 13 13 13 13 13 13 13 13 13 13 13 13 13 13 13 13 13 13 13 13 13 13 13 13 13 13 13 13 13 13 13 13 13 13 13 13 13 13 13 13 13 13 13 13 13 13 13 13 13 13 13 13 13 13 13 13 13 13 13 13 13 13 13 13 13 13 13 13 13 13 13 13 13 13 13 13 13 13 13 13 13 13 13 13 13 13 13 13 13 13 13 13 13 13 13 13 13 13 13 13 13 13 13 13 13 13 13 13 13 13 13 13 13 13 13 13 13 13 13 13 13 13 13 13 13 13 13 13 13 13 13 13 13 13 13 13 13 13 13 13 13 13 13 13 13 13 13 13 13 13 13 13 13 13 13 13 13 13 13 13 13 13 13 13 13 13 13 13 13 13 13 13 13 13 13 13 13 13 13 13 13 13 13 13 13 13 13 13 13 13 13 13 13 13 13 13 13 13 13 13 13 13 13 13 13 13 13 13 13 13 13 13 13 
13 13 13 13 13 13 13 13 13 13 13 13 13 13 13 13 13 13 13 13 13 13 13 13 13 13 13 13 13 13 13 13 13 13 13 13 13 13 13 13 13 13 13 13 13 13 13 13 13 13 13 13 13 13 13 13 13 13 13 13 13 13 13 13 13 13 13 13 13 13 13 13 13 13 13 13 13 13 13 13 13 13 13 13 13 13 13 13 13 13 13 13 13 13 13 13 13 13 13 13 13 13 13 13 13 13 13 13 13 13 13 13 13 13 13 13 13 13 13 13 13 13 13 0 26 255 13 13 13 13 13 13 13 13 13 13 13 13 13 13 13 13 13 13 13 13 13 13 13 13 13 13 13 13 13 13 13 13 13 13 13 13 13 13 13 13 13 13 0 26 255 13 13 13 13 13 13 13 13 13 13 13 13 13 13 13 13 13 13 13 13 13 13 13 13 13 13 13 13 13 13 13 13 13 13 13 13 13 13 13 13 13 13 0 26 255 13 13 13 0 26 255 13 13 13 0 26 255 0 26 255 13 13 13 13 13 13 13 13 13 13 13 13 0 26 255 13 13 13 13 13 13 13 13 13 0 26 255 0 26 255 0 26 255 0 26 255 0 26 255 0 26 255 0 26 255 0 26 255 0 26 255 0 26 255 0 26 255 0 26 255 13 13 13 13 13 13 13 13 13 13 13 13 13 13 13 13 13 13 13 13 13 13 13 13 13 13 13 13 13 13 13 13 13 13 13 13 13 13 13 13 13 13 13 13 13 13 13 13 13 13 13 13 13 13 13 13 13 13 13 13 13 13 13 13 13 13 13 13 13 13 13 13 13 13 13 13 13 13 13 13 13 13 13 13 13 13 13 13 13 13 13 13 13 13 13 13 13 13 13 13 13 13 13 13 13 13 13 13 13 13 13 13 13 13 13 13 13 13 13 13 13 13 13 13 13 13 13 13 13 13 13 13 13 13 13 13 13 13 13 13 13 13 13 13 13 13 13 13 13 13 13 13 13 13 13 13 13 13 13 13 13 13 13 13 13 13 13 13 13 13 13 13 13 13 13 13 13 13 13 13 13 13 13 13 13 13 13 13 13 13 13 13 13 13 13 13 13 13 13 13 13 13 13 13 13 13 13 13 13 13 13 13 13 13 13 13 13 13 13 13 13 13 13 13 13 13 13 13 13 13 13 13 13 13 13 13 13 13 13 13 13 13 13 13 13 13 13 13 13 13 13 13 13 13 13 13 13 13 13 13 13 13 13 13 13 13 13 13 13 13 13 13 13 13 13 13 13 13 13 13 13 13 13 13 13 13 13 13 13 13 13 13 13 13 13 13 13 13 13 13 13 13 13 13 13 13 13 13 13 
13 13 13 13 13 13 13 13 13 13 13 13 13 13 13 13 13 13 13 13 13 13 13 13 13 13 13 13 13 13 13 13 13 13 13 13 13 13 13 13 13 13 13 13 13 13 13 13 13 13 13 13 13 13 13 13 13 13 13 13 13 13 13 13 13 13 13 13 13 13 13 13 13 13 13 13 13 13 13 13 13 13 13 13 13 13 13 13 13 13 13 13 13 13 13 13 13 13 13 13 13 13 0 26 255 0 26 255 13 13 13 13 13 13 13 13 13 13 13 13 13 13 13 13 13 13 13 13 13 0 26 255 0 26 255 13 13 13 13 13 13 13 13 13 13 13 13 13 13 13 13 13 13 13 13 13 0 26 255 13 13 13 13 13 13 13 13 13 13 13 13 13 13 13 13 13 13 13 13 13 13 13 13 13 13 13 0 26 255 0 26 255 0 26 255 0 26 255 0 26 255 0 26 255 13 13 13 13 13 13 13 13 13 0 26 255 0 26 255 13 13 13 0 26 255 0 26 255 0 26 255 13 13 13 13 13 13 13 13 13 1 28 253 13 13 13 13 13 13 13 13 13 0 26 255 0 26 255 0 26 255 0 26 255 0 26 255 0 26 255 0 26 255 0 26 255 0 26 255 0 26 255 0 26 255 0 26 255 0 26 255 13 13 13 13 13 13 13 13 13 13 13 13 13 13 13 13 13 13 13 13 13 13 13 13 13 13 13 13 13 13 13 13 13 13 13 13 13 13 13 13 13 13 13 13 13 13 13 13 13 13 13 13 13 13 13 13 13 13 13 13 13 13 13 13 13 13 13 13 13 13 13 13 13 13 13 13 13 13 13 13 13 13 13 13 13 13 13 13 13 13 13 13 13 13 13 13 13 13 13 13 13 13 13 13 13 13 13 13 13 13 13 13 13 13 13 13 13 13 13 13 13 13 13 13 13 13 13 13 13 13 13 13 13 13 13 13 13 13 13 13 13 13 13 13 13 13 13 13 13 13 13 13 13 13 13 13 13 13 13 13 13 13 13 13 13 13 13 13 13 13 13 13 13 13 13 13 13 13 13 13 13 13 13 13 13 13 13 13 13 13 13 13 13 13 13 13 13 13 13 13 13 13 13 13 13 13 13 13 13 13 13 13 13 13 13 13 13 13 13 13 13 13 13 13 13 13 13 13 13 13 13 13 13 13 13 13 13 13 13 13 13 13 13 13 13 13 13 13 13 13 13 13 13 13 13 13 13 13 13 13 13 13 13 13 13 13 13 13 13 13 13 13 13 13 13 13 13 13 13 13 13 13 13 13 13 13 13 13 13 13 13 13 13 13 13 13 13 13 13 13 13 13 13 13 13 13 13 13 13 
13 13 13 13 13 13 13 13 13 13 13 13 13 13 13 13 13 13 13 13 13 13 13 13 13 13 13 13 13 13 13 13 13 13 13 13 0 26 255 13 13 13 13 13 13 13 13 13 13 13 13 13 13 13 13 13 13 13 13 13 13 13 13 13 13 13 13 13 13 13 13 13 13 13 13 13 13 13 13 13 13 0 26 255 13 13 13 13 13 13 13 13 13 13 13 13 13 13 13 13 13 13 13 13 13 13 13 13 13 13 13 13 13 13 13 13 13 13 13 13 13 13 13 13 13 13 13 13 13 0 26 255 0 26 255 0 26 255 13 13 13 13 13 13 0 26 255 13 13 13 13 13 13 0 26 255 0 26 255 13 13 13 0 26 255 0 26 255 0 26 255 0 26 255 0 26 255 0 26 255 0 26 255 0 26 255 0 26 255 0 26 255 0 26 255 0 26 255 0 26 255 0 26 255 0 26 255 13 13 13 13 13 13 0 26 255 0 26 255 0 26 255 0 26 255 0 26 255 0 26 255 0 26 255 0 26 255 0 26 255 13 13 13 13 13 13 13 13 13 0 26 255 0 26 255 0 26 255 0 26 255 0 26 255 0 26 255 0 26 255 0 26 255 0 26 255 0 26 255 0 26 255 0 26 255 0 26 255 0 26 255 13 13 13 13 13 13 13 13 13 13 13 13 13 13 13 13 13 13 13 13 13 13 13 13 13 13 13 13 13 13 13 13 13 13 13 13 13 13 13 13 13 13 13 13 13 13 13 13 13 13 13 13 13 13 13 13 13 13 13 13 13 13 13 13 13 13 13 13 13 13 13 13 13 13 13 13 13 13 13 13 13 13 13 13 13 13 13 13 13 13 13 13 13 13 13 13 13 13 13 13 13 13 13 13 13 13 13 13 13 13 13 13 13 13 13 13 13 13 13 13 13 13 13 13 13 13 13 13 13 13 13 13 13 13 13 13 13 13 13 13 13 13 13 13 13 13 13 13 13 13 13 13 13 13 13 13 13 13 13 13 13 13 13 13 13 13 13 13 13 13 13 13 13 13 13 13 13 13 13 13 13 13 13 13 13 13 13 13 13 13 13 13 13 13 13 13 13 13 13 13 13 13 13 13 13 13 13 13 13 13 13 13 13 13 13 13 13 13 13 13 13 13 13 13 13 13 13 13 13 13 13 13 13 13 13 13 13 13 13 13 13 13 13 13 13 13 13 13 13 13 13 13 13 13 13 13 13 13 13 13 13 13 13 13 13 13 13 13 13 13 13 13 13 13 13 13 13 13 13 13 13 13 13 13 13 13 13 13 13 13 13 13 13 13 13 13 13 13 13 13 13 13 13 13 13 13 13 13 13 
13 13 13 13 13 13 13 13 13 13 13 13 13 13 13 13 13 13 13 13 13 13 13 13 13 13 13 13 13 13 13 13 13 13 13 13 13 13 13 13 13 13 13 13 13 13 13 13 13 13 13 13 13 13 0 26 255 13 13 13 13 13 13 13 13 13 13 13 13 13 13 13 13 13 13 13 13 13 13 13 13 13 13 13 0 26 255 0 26 255 0 26 255 0 26 255 13 13 13 13 13 13 13 13 13 13 13 13 0 26 255 13 13 13 13 13 13 13 13 13 13 13 13 0 26 255 0 26 255 0 26 255 0 26 255 0 26 255 0 26 255 0 26 255 0 26 255 0 26 255 0 26 255 0 26 255 0 26 254 13 13 13 0 26 255 0 26 255 0 26 255 0 26 255 0 26 255 0 26 255 0 26 255 0 26 255 0 26 255 0 26 255 0 26 255 0 26 255 0 26 255 0 26 255 13 13 13 13 13 13 0 26 255 0 26 255 0 26 255 0 26 255 0 26 255 0 26 255 0 26 255 0 26 255 0 26 255 0 26 255 0 26 255 13 13 13 0 26 255 0 26 255 0 26 255 0 26 255 0 26 255 0 26 255 0 26 255 0 26 255 0 26 255 0 26 255 0 26 255 0 26 255 0 26 255 0 26 255 0 26 255 13 13 13 13 13 13 13 13 13 13 13 13 13 13 13 13 13 13 13 13 13 13 13 13 13 13 13 13 13 13 13 13 13 13 13 13 13 13 13 13 13 13 13 13 13 13 13 13 13 13 13 13 13 13 13 13 13 13 13 13 13 13 13 13 13 13 13 13 13 13 13 13 13 13 13 13 13 13 13 13 13 13 13 13 13 13 13 13 13 13 13 13 13 13 13 13 13 13 13 13 13 13 13 13 13 13 13 13 13 13 13 13 13 13 13 13 13 13 13 13 13 13 13 13 13 13 13 13 13 13 13 13 13 13 13 13 13 13 13 13 13 13 13 13 13 13 13 13 13 13 13 13 13 13 13 13 13 13 13 13 13 13 13 13 13 13 13 13 13 13 13 13 13 13 13 13 13 13 13 13 13 13 13 13 13 13 13 13 13 13 13 13 13 13 13 13 13 13 13 13 13 13 13 13 13 13 13 13 13 13 13 13 13 13 13 13 13 13 13 13 13 13 13 13 13 13 13 13 13 13 13 13 13 13 13 13 13 13 13 13 13 13 13 13 13 13 13 13 13 13 13 13 13 13 13 13 13 13 13 13 13 13 13 13 13 13 13 13 13 13 13 13 13 13 13 13 13 13 13 13 13 13 13 13 13 13 13 13 13 13 13 13 13 13 13 13 13 13 13 13 13 13 13 13 13 13 13 13 13 
13 13 13 13 13 13 13 13 13 13 13 13 13 13 13 13 13 13 13 13 13 13 13 13 13 13 13 13 13 13 13 13 13 13 13 13 13 13 13 13 13 13 13 13 13 13 13 13 13 13 13 13 13 13 13 13 13 13 13 13 13 13 13 0 26 255 13 13 13 13 13 13 13 13 13 13 13 13 13 13 13 13 13 13 13 13 13 0 26 255 0 26 255 0 26 255 13 13 13 13 13 13 13 13 13 0 26 255 0 26 255 13 13 13 13 13 13 13 13 13 0 26 255 0 26 255 0 26 255 0 26 255 0 26 255 0 26 255 0 26 255 0 26 255 0 26 255 0 26 255 0 26 255 0 26 255 0 26 255 0 26 255 0 26 255 0 26 255 0 26 255 0 26 255 0 26 255 0 26 255 0 26 255 0 26 255 0 26 255 0 26 255 0 26 255 0 26 255 0 26 255 13 13 13 13 13 13 0 26 255 0 26 255 0 26 255 0 26 255 0 26 255 0 26 255 0 26 255 0 26 255 0 26 255 0 26 255 0 26 255 0 26 255 0 26 255 0 26 255 0 26 255 0 26 255 0 26 255 0 26 255 0 26 255 0 26 255 0 26 255 0 26 255 0 26 255 0 26 255 0 26 255 0 26 255 0 26 255 0 26 255 0 26 255 13 13 13 13 13 13 13 13 13 13 13 13 13 13 13 13 13 13 13 13 13 13 13 13 13 13 13 13 13 13 13 13 13 13 13 13 13 13 13 13 13 13 13 13 13 13 13 13 13 13 13 13 13 13 13 13 13 13 13 13 13 13 13 13 13 13 13 13 13 13 13 13 13 13 13 13 13 13 13 13 13 13 13 13 13 13 13 13 13 13 13 13 13 13 13 13 13 13 13 13 13 13 13 13 13 13 13 13 13 13 13 13 13 13 13 13 13 13 13 13 13 13 13 13 13 13 13 13 13 13 13 13 13 13 13 13 13 13 13 13 13 13 13 13 13 13 13 13 13 13 13 13 13 13 13 13 13 13 13 13 13 13 13 13 13 13 13 13 13 13 13 13 13 13 13 13 13 13 13 13 13 13 13 13 13 13 13 13 13 13 13 13 13 13 13 13 13 13 13 13 13 13 13 13 13 13 13 13 13 13 13 13 13 13 13 13 13 13 13 13 13 13 13 13 13 13 13 13 13 13 13 13 13 13 13 13 13 13 13 13 13 13 13 13 13 13 13 13 13 13 13 13 13 13 13 13 13 13 13 13 13 13 13 13 13 13 13 13 13 13 13 13 13 13 13 13 13 13 13 13 13 13 13 13 13 13 13 13 13 13 13 13 13 13 13 13 13 13 13 13 13 13 13 13 13 13 
13 13 13 13 13 13 13 13 13 13 13 13 13 13 13 13 13 13 13 13 13 13 13 13 13 13 13 13 13 13 13 13 13 13 13 13 13 13 13 13 13 13 13 13 13 13 13 13 13 13 13 13 13 13 0 26 255 0 26 255 0 26 255 0 26 255 13 13 13 13 13 13 0 26 255 0 26 255 13 13 13 13 13 13 13 13 13 13 13 13 13 13 13 13 13 13 0 26 255 13 13 13 0 26 255 0 26 255 0 26 255 13 13 13 0 26 255 0 26 255 0 26 255 0 26 255 0 26 255 0 26 255 0 26 255 0 26 255 0 26 255 0 26 255 0 26 255 0 26 255 0 26 255 0 26 255 0 26 255 0 26 255 0 26 255 0 26 255 0 26 255 0 26 255 0 26 255 0 26 255 0 26 255 0 26 255 0 26 255 0 26 255 0 26 255 0 26 255 0 26 255 0 26 255 0 26 255 0 26 255 0 26 255 0 26 255 0 26 255 0 26 255 0 26 255 0 26 255 0 26 255 0 26 255 0 26 255 0 26 255 0 26 255 0 26 255 0 26 255 0 26 255 0 26 255 0 26 255 0 26 255 0 26 255 0 26 255 0 26 255 0 26 255 0 26 255 0 26 255 0 26 255 0 26 255 0 26 255 0 26 255 0 26 255 0 26 254 13 13 13 13 13 13 13 13 13 13 13 13 13 13 13 13 13 13 13 13 13 13 13 13 13 13 13 13 13 13 1 28 253 13 13 13 13 13 13 13 13 13 13 13 13 13 13 13 13 13 13 13 13 13 13 13 13 13 13 13 13 13 13 13 13 13 13 13 13 13 13 13 13 13 13 13 13 13 13 13 13 13 13 13 13 13 13 13 13 13 13 13 13 13 13 13 13 13 13 13 13 13 13 13 13 13 13 13 13 13 13 13 13 13 13 13 13 13 13 13 13 13 13 13 13 13 13 13 13 13 13 13 13 13 13 13 13 13 13 13 13 13 13 13 13 13 13 13 13 13 13 13 13 13 13 13 13 13 13 13 13 13 13 13 13 13 13 13 13 13 13 13 13 13 13 13 13 13 13 13 13 13 13 13 13 13 13 13 13 13 13 13 13 13 13 13 13 13 13 13 13 13 13 13 13 13 13 13 13 13 13 13 13 13 13 13 13 13 13 13 13 13 13 13 13 13 13 13 13 13 13 13 13 13 13 13 13 13 13 13 13 13 13 13 13 13 13 13 13 13 13 13 13 13 13 13 13 13 13 13 13 13 13 13 13 13 13 13 13 13 13 13 13 13 13 13 13 13 13 13 13 13 13 13 13 13 13 13 13 13 13 13 13 13 13 13 13 13 13 13 13 13 13 
13 13 13 0 26 255 13 13 13 13 13 13 13 13 13 13 13 13 13 13 13 13 13 13 13 13 13 13 13 13 13 13 13 13 13 13 13 13 13 13 13 13 0 26 255 13 13 13 0 26 255 0 26 255 0 26 255 0 26 255 0 26 255 0 26 255 13 13 13 13 13 13 0 26 255 0 26 255 0 26 255 0 26 255 0 26 255 0 26 255 13 13 13 13 13 13 13 13 13 0 26 255 0 26 255 0 26 255 0 26 255 0 26 255 0 26 255 0 26 255 0 26 255 0 26 255 0 26 255 0 26 255 0 26 255 0 26 255 0 26 255 0 26 255 0 26 255 0 26 255 0 26 255 0 26 255 0 26 255 0 26 255 0 26 255 0 26 255 0 26 255 0 26 255 0 26 255 0 26 255 0 26 255 0 26 255 0 26 255 0 26 255 0 26 255 0 26 255 0 26 255 0 26 255 0 26 255 0 26 255 0 26 255 0 26 255 0 26 255 0 26 255 0 26 255 0 26 255 0 26 255 0 26 255 0 26 255 0 26 255 0 26 255 0 26 255 0 26 255 0 26 255 0 26 255 0 26 255 0 26 255 0 26 255 0 26 255 0 26 255 0 26 255 0 26 255 0 26 255 0 26 255 0 26 255 0 26 255 0 26 255 0 26 255 13 13 13 13 13 13 13 13 13 13 13 13 13 13 13 13 13 13 13 13 13 13 13 13 13 13 13 13 13 13 13 13 13 13 13 13 13 13 13 13 13 13 13 13 13 13 13 13 13 13 13 13 13 13 13 13 13 13 13 13 13 13 13 13 13 13 13 13 13 13 13 13 13 13 13 13 13 13 13 13 13 13 13 13 13 13 13 13 13 13 13 13 13 13 13 13 13 13 13 13 13 13 13 13 13 13 13 13 13 13 13 13 13 13 13 13 13 13 13 13 13 13 13 13 13 13 13 13 13 13 13 13 13 13 13 13 13 13 13 13 13 13 13 13 13 13 13 13 13 13 13 13 13 13 13 13 13 13 13 13 13 13 13 13 13 13 13 13 13 13 13 13 13 13 13 13 13 13 13 13 13 13 13 13 13 13 13 13 13 13 13 13 13 13 13 13 13 13 13 13 13 13 13 13 13 13 13 13 13 13 13 13 13 13 13 13 13 13 13 13 13 13 13 13 13 13 13 13 13 13 13 13 13 13 13 13 13 13 13 13 13 13 13 13 13 13 13 13 13 13 13 13 13 13 13 13 13 13 13 13 13 13 13 13 13 13 13 13 13 13 13 13 13 13 13 13 13 13 13 13 13 13 13 13 13 13 13 13 13 13 13 13 13 13 13 13 13 13 13 13 13 13 13 13 13 13 
13 13 13 13 13 13 13 13 13 13 13 13 13 13 13 13 13 13 13 13 13 13 13 13 13 13 13 13 13 13 13 13 13 13 13 13 0 26 255 0 26 255 0 26 255 0 26 255 13 13 13 0 26 255 0 26 255 0 26 255 0 26 255 0 26 255 13 13 13 13 13 13 0 26 255 0 26 255 0 26 255 0 26 255 0 26 255 0 26 255 0 26 255 0 26 255 0 26 255 0 26 255 0 26 255 0 26 255 0 26 255 0 26 255 0 26 255 0 26 255 0 26 255 0 26 255 0 26 255 0 26 255 0 26 255 0 26 255 0 26 255 0 26 255 0 26 255 0 26 255 0 26 255 0 26 255 0 26 255 0 26 255 0 26 255 0 26 255 0 26 255 0 26 255 0 26 255 0 26 255 0 26 255 0 26 255 0 26 255 0 26 255 0 26 255 0 26 255 0 26 255 0 26 255 0 26 255 0 26 255 0 26 255 0 26 255 0 26 255 0 26 255 0 26 255 0 26 255 0 26 255 0 26 255 0 26 255 0 26 255 0 26 255 0 26 255 0 26 255 0 26 255 0 26 255 0 26 255 0 26 255 0 26 255 0 26 255 0 26 255 0 26 255 0 26 255 0 26 255 0 26 255 0 26 255 0 26 255 0 26 255 0 26 255 0 26 255 13 13 13 2 30 251 13 13 13 13 13 13 13 13 13 13 13 13 13 13 13 13 13 13 13 13 13 13 13 13 13 13 13 13 13 13 13 13 13 13 13 13 13 13 13 13 13 13 13 13 13 13 13 13 13 13 13 13 13 13 13 13 13 13 13 13 13 13 13 13 13 13 13 13 13 13 13 13 13 13 13 13 13 13 13 13 13 13 13 13 13 13 13 13 13 13 13 13 13 13 13 13 13 13 13 13 13 13 13 13 13 13 13 13 13 13 13 13 13 13 13 13 13 13 13 13 13 13 13 13 13 13 13 13 13 13 13 13 13 13 13 13 13 13 13 13 13 13 13 13 13 13 13 13 13 13 13 13 13 13 13 13 13 13 13 13 13 13 13 13 13 13 13 13 13 13 13 13 13 13 13 13 13 13 13 13 13 13 13 13 13 13 13 13 13 13 13 13 13 13 13 13 13 13 13 13 13 13 13 13 13 13 13 13 13 13 13 13 13 13 13 13 13 13 13 13 13 13 13 13 13 13 13 13 13 13 13 13 13 13 13 13 13 13 13 13 13 13 13 13 13 13 13 13 13 13 13 13 13 13 13 13 13 13 13 13 13 13 13 13 13 13 13 13 13 13 13 13 13 13 13 13 13 13 13 13 13 13 13 13 13 13 13 13 13 13 13 13 13 13 13 13 13 
13 13 13 13 13 13 13 13 13 13 13 13 0 26 255 13 13 13 13 13 13 13 13 13 0 26 255 13 13 13 13 13 13 13 13 13 0 26 255 0 26 255 0 26 255 13 13 13 0 26 255 0 26 255 0 26 255 0 26 255 0 26 255 0 26 255 0 26 255 0 26 255 0 26 255 0 26 255 0 26 255 0 26 255 0 26 255 0 26 255 0 26 255 0 26 255 0 26 255 0 26 255 0 26 255 0 26 255 0 26 255 0 26 255 0 26 255 0 26 255 0 26 255 0 26 255 0 26 255 0 26 255 0 26 255 0 26 255 0 26 255 0 26 255 0 26 255 0 26 255 0 26 255 0 26 255 0 26 255 0 26 255 0 26 255 0 26 255 0 26 255 0 26 255 0 26 255 0 26 255 0 26 255 0 26 255 0 26 255 0 26 255 0 26 255 0 26 255 0 26 255 0 26 255 0 26 255 0 26 255 0 26 255 0 26 255 0 26 255 0 26 255 0 26 255 0 26 255 0 26 255 0 26 255 0 26 255 0 26 255 0 26 255 0 26 255 0 26 255 0 26 255 0 26 255 0 26 255 0 26 255 0 26 255 0 26 255 0 26 255 0 26 255 0 26 255 0 26 255 0 26 255 0 26 255 0 26 255 0 26 255 0 26 255 1 27 254 1 28 253 13 13 13 13 13 13 13 13 13 13 13 13 13 13 13 13 13 13 13 13 13 13 13 13 13 13 13 13 13 13 13 13 13 13 13 13 13 13 13 13 13 13 13 13 13 13 13 13 13 13 13 13 13 13 13 13 13 13 13 13 13 13 13 13 13 13 13 13 13 13 13 13 13 13 13 13 13 13 13 13 13 13 13 13 13 13 13 13 13 13 13 13 13 13 13 13 13 13 13 13 13 13 13 13 13 13 13 13 13 13 13 13 13 13 13 13 13 13 13 13 13 13 13 13 13 13 13 13 13 13 13 13 13 13 13 13 13 13 13 13 13 13 13 13 13 13 13 13 13 13 13 13 13 13 13 13 13 13 13 13 13 13 13 13 13 13 13 13 13 13 13 13 13 13 13 13 13 13 13 13 13 13 13 13 13 13 13 13 13 13 13 13 13 13 13 13 13 13 13 13 13 13 13 13 13 13 13 13 13 13 13 13 13 13 13 13 13 13 13 13 13 13 13 13 13 13 13 13 13 13 13 13 13 13 13 13 13 13 13 13 13 13 13 13 13 13 13 13 13 13 13 13 13 13 13 13 13 13 13 13 13 13 13 13 13 13 13 13 13 13 13 13 13 13 13 13 13 13 13 13 13 13 13 13 13 13 13 13 13 13 13 13 13 13 13 13 13 13 13 13 
13 13 13 13 13 13 13 13 13 0 26 255 13 13 13 13 13 13 13 13 13 13 13 13 13 13 13 13 13 13 0 26 255 13 13 13 13 13 13 0 26 255 0 26 255 0 26 255 0 26 255 0 26 255 0 26 255 0 26 255 0 26 255 0 26 255 0 26 255 0 26 255 0 26 255 0 26 255 0 26 255 0 26 255 0 26 255 0 26 255 0 26 255 0 26 255 0 26 255 0 26 255 0 26 255 0 26 255 0 26 255 0 26 255 0 26 255 0 26 255 0 26 255 0 26 255 0 26 255 0 26 255 0 26 255 0 26 255 0 26 255 0 26 255 0 26 255 0 26 255 0 26 255 0 26 255 0 26 255 0 26 255 0 26 255 0 26 255 0 26 255 0 26 255 0 26 255 0 26 255 0 26 255 0 26 255 0 26 255 0 26 255 0 26 255 0 26 255 0 26 255 0 26 255 0 26 255 0 26 255 0 26 255 0 26 255 0 26 255 0 26 255 0 26 255 0 26 255 0 26 255 0 26 255 0 26 255 0 26 255 0 26 255 0 26 255 0 26 255 0 26 255 0 26 255 0 26 255 0 26 255 0 26 255 0 26 255 0 26 255 0 26 255 0 26 255 0 26 255 0 26 255 0 26 255 0 26 255 0 26 255 13 13 13 1 28 253 1 29 252 13 13 13 13 13 13 1 27 254 13 13 13 13 13 13 13 13 13 13 13 13 13 13 13 13 13 13 13 13 13 13 13 13 13 13 13 13 13 13 13 13 13 13 13 13 13 13 13 13 13 13 13 13 13 13 13 13 13 13 13 13 13 13 13 13 13 13 13 13 13 13 13 13 13 13 13 13 13 13 13 13 13 13 13 13 13 13 13 13 13 13 13 13 13 13 13 13 13 13 13 13 13 13 13 13 13 13 13 13 13 13 13 13 13 13 13 13 13 13 13 13 13 13 13 13 13 13 13 13 13 13 13 13 13 13 13 13 13 13 13 13 13 13 13 13 13 13 13 13 13 13 13 13 13 13 13 13 13 13 13 13 13 13 13 13 13 13 13 13 13 13 13 13 13 13 13 13 13 13 13 13 13 13 13 13 13 13 13 13 13 13 13 13 13 13 13 13 13 13 13 13 13 13 13 13 13 13 13 13 13 13 13 13 13 13 13 13 13 13 13 13 13 13 13 13 13 13 13 13 13 13 13 13 13 13 13 13 13 13 13 13 13 13 13 13 13 13 13 13 13 13 13 13 13 13 13 13 13 13 13 13 13 13 13 13 13 13 13 13 13 13 13 13 13 13 13 13 13 13 13 13 13 13 13 13 13 13 13 13 13 13 13 13 13 13 13 13 13 13 13 
13 13 13 13 13 13 13 13 13 13 13 13 13 13 13 13 13 13 13 13 13 13 13 13 13 13 13 0 26 255 13 13 13 13 13 13 0 26 255 0 26 255 0 26 255 0 26 254 0 26 255 0 26 255 0 26 255 0 26 255 0 26 255 0 26 255 0 26 255 0 26 255 0 26 255 0 26 255 0 26 255 0 26 255 0 26 255 0 26 255 0 26 255 0 26 255 0 26 255 0 26 255 0 26 255 0 26 255 0 26 255 0 26 255 0 26 255 0 26 255 0 26 255 0 26 255 0 26 255 0 26 255 0 26 255 0 26 255 0 26 255 0 26 255 0 26 255 0 26 255 0 26 255 0 26 255 0 26 255 0 26 255 0 26 255 0 26 255 0 26 255 0 26 255 0 26 255 0 26 255 0 26 255 0 26 255 0 26 255 0 26 255 0 26 255 0 26 255 0 26 255 0 26 255 0 26 255 0 26 255 0 26 255 0 26 255 0 26 255 0 26 255 0 26 255 0 26 255 0 26 255 0 26 255 0 26 255 0 26 255 0 26 255 0 26 255 0 26 255 0 26 255 0 26 255 0 26 255 0 26 255 0 26 255 0 26 255 0 26 255 0 26 255 0 26 255 0 26 255 0 26 255 0 26 255 0 26 255 0 26 255 1 28 253 13 13 13 13 13 13 13 13 13 13 13 13 13 13 13 13 13 13 1 29 252 13 13 13 13 13 13 13 13 13 13 13 13 13 13 13 13 13 13 13 13 13 13 13 13 13 13 13 13 13 13 13 13 13 13 13 13 13 13 13 13 13 13 13 13 13 13 13 13 13 13 13 13 13 13 13 13 13 13 13 13 13 13 13 13 13 13 13 13 13 13 13 13 13 13 13 13 13 13 13 13 13 13 13 13 13 13 13 13 13 13 13 13 13 13 13 13 13 13 13 13 13 13 13 13 13 13 13 13 13 13 13 13 13 13 13 13 13 13 13 13 13 13 13 13 13 13 13 13 13 13 13 13 13 13 13 13 13 13 13 13 13 13 13 13 13 13 13 13 13 13 13 13 13 13 13 13 13 13 13 13 13 13 13 13 13 13 13 13 13 13 13 13 13 13 13 13 13 13 13 13 13 13 13 13 13 13 13 13 13 13 13 13 13 13 13 13 13 13 13 13 13 13 13 13 13 13 13 13 13 13 13 13 13 13 13 13 13 13 13 13 13 13 13 13 13 13 13 13 13 13 13 13 13 13 13 13 13 13 13 13 13 13 13 13 13 13 13 13 13 13 13 13 13 13 13 13 13 13 13 13 13 13 13 13 13 13 13 13 13 13 13 13 13 13 13 13 13 13 13 13 13 13 13 13 13 
13 13 13 0 26 255 13 13 13 13 13 13 13 13 13 13 13 13 0 26 255 0 26 255 13 13 13 13 13 13 0 26 255 0 26 255 0 26 255 0 26 255 0 26 255 0 26 255 0 26 255 0 26 255 0 26 255 0 26 255 0 26 255 0 26 255 0 26 255 0 26 255 0 26 255 0 26 255 0 26 255 0 26 255 0 26 255 0 26 255 0 26 255 0 26 255 0 26 255 0 26 255 0 26 255 0 26 255 0 26 255 0 26 255 0 26 255 0 26 255 0 26 255 0 26 255 0 26 255 0 26 255 0 26 255 0 26 255 0 26 255 0 26 255 0 26 255 0 26 255 0 26 255 0 26 255 0 26 255 0 26 255 0 26 255 0 26 255 0 26 255 0 26 255 0 26 255 0 26 255 0 26 255 0 26 255 0 26 255 0 26 255 0 26 255 0 26 255 0 26 255 0 26 255 0 26 255 0 26 255 0 26 255 0 26 255 0 26 255 0 26 255 0 26 255 0 26 255 0 26 255 0 26 255 0 26 255 0 26 255 0 26 255 0 26 255 0 26 255 0 26 255 0 26 255 0 26 255 0 26 255 0 26 255 0 26 255 0 26 255 0 26 255 0 26 255 0 26 255 0 26 255 0 26 255 0 26 255 0 26 255 13 13 13 13 13 13 13 13 13 13 13 13 13 13 13 13 13 13 13 13 13 13 13 13 13 13 13 13 13 13 13 13 13 13 13 13 13 13 13 13 13 13 13 13 13 13 13 13 13 13 13 13 13 13 13 13 13 13 13 13 13 13 13 13 13 13 13 13 13 13 13 13 13 13 13 13 13 13 13 13 13 13 13 13 13 13 13 13 13 13 13 13 13 13 13 13 13 13 13 13 13 13 13 13 13 13 13 13 13 13 13 13 13 13 13 13 13 13 13 13 13 13 13 13 13 13 13 13 13 13 13 13 13 13 13 13 13 13 13 13 13 13 13 13 13 13 13 13 13 13 13 13 13 13 13 13 13 13 13 13 13 13 13 13 13 13 13 13 13 13 13 13 13 13 13 13 13 13 13 13 13 13 13 13 13 13 13 13 13 13 13 13 13 13 13 13 13 13 13 13 13 13 13 13 13 13 13 13 13 13 13 13 13 13 13 13 13 13 13 13 13 13 13 13 13 13 13 13 13 13 13 13 13 13 13 13 13 13 13 13 13 13 13 13 13 13 13 13 13 13 13 13 13 13 13 13 13 13 13 13 13 13 13 13 13 13 13 13 13 13 13 13 13 13 13 13 13 13 13 13 13 13 13 13 13 13 13 13 13 13 13 13 13 13 13 13 13 13 13 13 13 13 13 13 13 13 13 13 13 
0 26 255 13 13 13 13 13 13 13 13 13 0 26 255 0 26 255 0 26 255 0 26 255 0 26 255 0 26 255 0 26 255 0 26 255 0 26 255 0 26 255 0 26 255 0 26 255 0 26 255 0 26 255 0 26 255 0 26 255 0 26 255 0 26 255 0 26 255 0 26 255 0 26 255 0 26 255 0 26 255 0 26 255 0 26 255 0 26 255 0 26 255 0 26 255 0 26 255 0 26 255 0 26 255 0 26 255 0 26 255 0 26 255 0 26 255 0 26 255 0 26 255 0 26 255 0 26 255 0 26 255 0 26 255 0 26 255 0 26 255 0 26 255 0 26 255 0 26 255 0 26 255 0 26 255 0 26 255 0 26 255 0 26 255 0 26 255 0 26 255 0 26 255 0 26 255 0 26 255 0 26 255 0 26 255 0 26 255 0 26 255 0 26 255 0 26 255 0 26 255 0 26 255 0 26 255 0 26 255 0 26 255 0 26 255 0 26 255 0 26 255 0 26 255 0 26 255 0 26 255 0 26 255 0 26 255 0 26 255 0 26 255 0 26 255 0 26 255 0 26 255 0 26 255 0 26 255 0 26 255 0 26 255 0 26 255 0 26 255 0 26 255 0 26 255 0 26 255 0 26 255 0 26 255 0 26 255 0 26 255 0 26 255 0 26 255 13 13 13 13 13 13 13 13 13 13 13 13 13 13 13 13 13 13 13 13 13 13 13 13 13 13 13 13 13 13 13 13 13 13 13 13 13 13 13 13 13 13 13 13 13 3 32 250 13 13 13 13 13 13 13 13 13 13 13 13 13 13 13 13 13 13 13 13 13 13 13 13 13 13 13 13 13 13 13 13 13 13 13 13 13 13 13 13 13 13 13 13 13 13 13 13 13 13 13 13 13 13 13 13 13 13 13 13 13 13 13 13 13 13 13 13 13 13 13 13 13 13 13 13 13 13 13 13 13 13 13 13 13 13 13 13 13 13 13 13 13 13 13 13 13 13 13 13 13 13 13 13 13 13 13 13 13 13 13 13 13 13 13 13 13 13 13 13 13 13 13 13 13 13 13 13 13 13 13 13 13 13 13 13 13 13 13 13 13 13 13 13 13 13 13 13 13 13 13 13 13 13 13 13 13 13 13 13 13 13 13 13 13 13 13 13 13 13 13 13 13 13 13 13 13 13 13 13 13 13 13 13 13 13 13 13 13 13 13 13 13 13 13 13 13 13 13 13 13 13 13 13 13 13 13 13 13 13 13 13 13 13 13 13 13 13 13 13 13 13 13 13 13 13 13 13 13 13 13 13 13 13 13 13 13 13 13 13 13 13 13 13 13 13 13 13 13 13 13 13 13 13 13 
0 26 255 0 26 255 13 13 13 0 26 255 0 26 255 0 26 255 0 26 255 0 26 255 0 26 255 0 26 255 0 26 255 0 26 255 0 26 255 0 26 255 0 26 255 0 26 255 0 26 255 0 26 255 0 26 255 0 26 255 0 26 255 0 26 255 0 26 255 0 26 255 0 26 255 0 26 255 0 26 255 0 26 255 0 26 255 0 26 255 0 26 255 0 26 255 0 26 255 0 26 255 0 26 255 0 26 255 0 26 255 0 26 255 0 26 255 0 26 255 0 26 255 0 26 255 0 26 255 0 26 255 0 26 255 0 26 255 0 26 255 0 26 255 0 26 255 0 26 255 0 26 255 0 26 255 0 26 255 0 26 255 0 26 255 0 26 255 0 26 255 0 26 255 0 26 255 0 26 255 0 26 255 0 26 255 0 26 255 0 26 255 0 26 255 0 26 255 0 26 255 0 26 255 0 26 255 0 26 255 0 26 255 0 26 255 0 26 255 0 26 255 0 26 255 0 26 255 0 26 255 0 26 255 0 26 255 0 26 255 0 26 255 0 26 255 0 26 255 0 26 255 0 26 255 0 26 255 0 26 255 0 26 255 0 26 255 0 26 255 0 26 255 0 26 255 0 26 255 0 26 255 0 26 255 0 26 255 0 26 255 0 26 255 13 13 13 13 13 13 13 13 13 13 13 13 13 13 13 13 13 13 13 13 13 13 13 13 13 13 13 13 13 13 13 13 13 13 13 13 13 13 13 13 13 13 13 13 13 13 13 13 13 13 13 13 13 13 13 13 13 13 13 13 13 13 13 13 13 13 13 13 13 13 13 13 13 13 13 13 13 13 13 13 13 13 13 13 13 13 13 13 13 13 13 13 13 13 13 13 13 13 13 13 13 13 13 13 13 13 13 13 13 13 13 13 13 13 13 13 13 13 13 13 13 13 13 13 13 13 13 13 13 13 13 13 13 13 13 13 13 13 13 13 13 13 13 13 13 13 13 13 13 13 13 13 13 13 13 13 13 13 13 13 13 13 13 13 13 13 13 13 13 13 13 13 13 13 13 13 13 13 13 13 13 13 13 13 13 13 13 13 13 13 13 13 13 13 13 13 13 13 13 13 13 13 13 13 13 13 13 13 13 13 13 13 13 13 13 13 13 13 13 13 13 13 13 13 13 13 13 13 13 13 13 13 13 13 13 13 13 13 13 13 13 13 13 13 13 13 13 13 13 13 13 13 13 13 13 13 13 13 13 13 13 13 13 13 13 13 13 13 13 13 13 13 13 13 13 13 13 13 13 13 13 13 13 13 13 13 13 13 13 13 13 13 13 13 13 13 13 13 13 13 13 13 13 13 13 13 
0 26 255 0 26 255 0 26 255 0 26 255 0 26 255 0 26 255 0 26 255 0 26 255 0 26 255 0 26 255 0 26 255 0 26 255 0 26 255 0 26 255 0 26 255 0 26 255 0 26 255 0 26 255 0 26 255 0 26 255 0 26 255 0 26 255 0 26 255 0 26 255 0 26 255 0 26 255 0 26 255 0 26 255 0 26 255 0 26 255 0 26 255 0 26 255 0 26 255 0 26 255 0 26 255 0 26 255 0 26 255 0 26 255 0 26 255 0 26 255 0 26 255 0 26 255 0 26 255 0 26 255 0 26 255 0 26 255 0 26 255 0 26 255 0 26 255 0 26 255 0 26 255 0 26 255 0 26 255 0 26 255 0 26 255 0 26 255 0 26 255 0 26 255 0 26 255 0 26 255 0 26 255 0 26 255 0 26 255 0 26 255 0 26 255 0 26 255 0 26 255 0 26 255 0 26 255 0 26 255 0 26 255 0 26 255 0 26 255 0 26 255 0 26 255 0 26 255 0 26 255 0 26 255 0 26 255 0 26 255 0 26 254 0 26 254 0 26 254 0 26 255 0 26 255 0 26 255 0 26 255 0 26 255 0 26 255 0 26 255 0 26 255 0 26 255 0 26 255 0 26 255 0 26 255 0 26 255 0 26 255 0 26 255 13 13 13 13 13 13 1 29 252 13 13 13 13 13 13 13 13 13 13 13 13 13 13 13 13 13 13 13 13 13 13 13 13 13 13 13 13 13 13 13 13 13 13 13 13 13 13 13 9 47 236 13 13 13 13 13 13 2 29 252 13 13 13 13 13 13 13 13 13 13 13 13 13 13 13 13 13 13 13 13 13 13 13 13 13 13 13 13 13 13 13 13 13 13 13 13 13 13 13 13 13 13 13 13 13 13 13 13 13 13 13 13 13 13 13 13 13 13 13 13 13 13 13 13 13 13 13 13 13 13 13 13 13 13 13 13 13 13 13 13 13 13 13 13 13 13 13 13 13 13 13 13 13 13 13 13 13 13 13 13 13 13 13 13 13 13 13 13 13 13 13 13 13 13 13 13 13 13 13 13 13 13 13 13 13 13 13 13 13 13 13 13 13 13 13 13 13 13 13 13 13 13 13 13 13 13 13 13 13 13 13 13 13 13 13 13 13 13 13 13 13 13 13 13 13 13 13 13 13 13 13 13 13 13 13 13 13 13 13 13 13 13 13 13 13 13 13 13 13 13 13 13 13 13 13 13 13 13 13 13 13 13 13 13 13 13 13 13 13 13 13 13 13 13 13 13 13 13 13 13 13 13 13 13 13 13 13 13 13 13 13 13 13 13 13 13 13 13 13 13 13 13 13 13 13 13 
0 26 255 0 26 255 0 26 255 0 26 255 0 26 255 0 26 255 0 26 255 13 13 13 0 26 255 13 13 13 0 26 255 0 26 255 0 26 255 0 26 255 0 26 255 0 26 255 0 26 255 0 26 255 0 26 255 0 26 255 0 26 255 0 26 255 0 26 255 0 26 255 0 26 255 0 26 255 0 26 255 0 26 255 0 26 255 0 26 255 0 26 255 0 26 255 0 26 255 0 26 255 0 26 255 0 26 255 0 26 255 0 26 255 0 26 255 0 26 255 0 26 255 0 26 255 0 26 255 0 26 255 0 26 255 0 26 255 0 26 255 0 26 255 0 26 255 0 26 255 0 26 255 0 26 255 0 26 255 0 26 255 0 26 255 0 26 255 0 26 255 0 26 255 0 26 255 0 26 255 0 26 255 0 26 255 0 26 255 0 26 255 0 26 255 0 26 255 0 26 255 0 26 255 0 26 255 0 26 255 0 26 255 0 26 255 0 26 255 0 26 255 0 26 255 0 26 255 0 26 255 0 26 255 0 26 255 0 26 255 0 26 255 0 26 254 0 26 255 0 26 255 0 26 255 0 26 255 0 26 255 0 26 255 0 26 255 0 26 255 0 26 255 0 26 255 0 26 255 0 26 255 0 26 255 13 13 13 0 26 255 0 26 255 0 27 254 13 13 13 13 13 13 1 27 254 13 13 13 13 13 13 13 13 13 13 13 13 13 13 13 13 13 13 13 13 13 13 13 13 13 13 13 13 13 13 13 13 13 13 13 13 13 13 13 13 13 13 13 13 13 13 13 13 13 13 13 13 13 13 13 13 13 13 13 13 13 13 13 13 13 13 13 13 13 13 13 13 13 13 13 13 13 13 13 13 13 13 13 13 13 13 13 13 13 13 13 13 13 13 13 13 13 13 13 13 13 13 13 13 13 13 13 13 13 13 13 13 13 13 13 13 13 13 13 13 13 13 13 13 13 13 13 13 13 13 13 13 13 13 13 13 13 13 13 13 13 13 13 13 13 13 13 13 13 13 13 13 13 13 13 13 13 13 13 13 13 13 13 13 13 13 13 13 13 13 13 13 13 13 13 13 13 13 13 13 13 13 13 13 13 13 13 13 13 13 13 13 13 13 13 13 13 13 13 13 13 13 13 13 13 13 13 13 13 13 13 13 13 13 13 13 13 13 13 13 13 13 13 13 13 13 13 13 13 13 13 13 13 13 13 13 13 13 13 13 13 13 13 13 13 13 13 13 13 13 13 13 13 13 13 13 13 13 13 13 13 13 13 13 13 13 13 13 13 13 13 13 13 13 13 13 13 13 13 13 13 13 13 13 13 13 13 13 13 13 13 13 13 13 
0 26 255 0 26 255 13 13 13 0 26 255 0 26 255 0 26 255 0 27 254 0 26 255 0 26 255 0 26 255 0 26 255 0 26 255 0 26 255 0 26 255 0 26 255 0 26 255 0 26 255 0 26 255 0 26 255 0 26 255 0 26 255 0 26 255 0 26 255 0 26 255 0 26 255 0 26 255 0 26 255 0 26 255 0 26 255 0 26 255 0 26 255 0 26 255 0 26 255 0 26 255 0 26 255 0 26 255 0 26 255 0 26 255 0 26 255 0 26 255 0 26 255 0 26 255 0 26 255 0 26 255 0 26 255 0 26 255 0 26 255 0 26 255 0 26 255 0 26 255 0 26 255 0 26 255 0 26 255 0 26 255 0 26 255 0 26 255 0 26 255 0 26 255 0 26 255 0 26 255 0 26 255 0 26 255 0 26 255 0 26 255 0 26 255 0 26 255 0 26 255 0 26 255 0 26 255 0 26 255 0 26 255 0 26 255 0 26 255 0 26 255 0 26 255 0 26 255 0 26 255 0 26 255 0 26 255 0 26 255 0 26 255 0 26 255 0 26 255 0 26 254 0 26 254 0 26 254 0 26 254 0 26 254 0 26 255 13 13 13 0 26 255 0 26 255 0 26 255 0 26 255 13 13 13 13 13 13 13 13 13 0 26 255 13 13 13 1 27 254 13 13 13 13 13 13 13 13 13 13 13 13 1 27 254 13 13 13 13 13 13 13 13 13 13 13 13 13 13 13 13 13 13 13 13 13 5 37 245 13 13 13 13 13 13 13 13 13 13 13 13 13 13 13 13 13 13 13 13 13 13 13 13 13 13 13 13 13 13 13 13 13 13 13 13 13 13 13 13 13 13 13 13 13 13 13 13 13 13 13 13 13 13 13 13 13 13 13 13 13 13 13 13 13 13 13 13 13 13 13 13 13 13 13 13 13 13 13 13 13 13 13 13 13 13 13 13 13 13 13 13 13 13 13 13 13 13 13 13 13 13 13 13 13 13 13 13 13 13 13 13 13 13 13 13 13 13 13 13 13 13 13 13 13 13 13 13 13 13 13 13 13 13 13 13 13 13 13 13 13 13 13 13 13 13 13 13 13 13 13 13 13 13 13 13 13 13 13 13 13 13 13 13 13 13 13 13 13 13 13 13 13 13 13 13 13 13 13 13 13 13 13 13 13 13 13 13 13 13 13 13 13 13 13 13 13 13 13 13 13 13 13 13 13 13 13 13 13 13 13 13 13 13 13 13 13 13 13 13 13 13 13 13 13 13 13 13 13 13 13 13 13 13 13 13 13 13 13 13 13 13 13 13 13 13 13 13 13 13 13 13 13 13 13 13 13 13 13 13 13 
0 26 255 13 13 13 13 13 13 0 26 255 0 26 255 0 26 255 0 26 255 0 26 255 0 26 255 0 26 255 0 26 255 0 26 255 0 26 255 0 26 255 0 26 255 0 26 255 0 26 255 0 26 255 0 26 255 0 26 255 0 26 255 0 26 255 0 26 255 0 26 255 0 26 255 0 26 255 0 26 255 0 26 255 0 26 255 0 26 255 0 26 255 0 26 255 0 26 255 0 26 255 0 26 255 0 26 255 0 26 255 0 26 255 0 26 255 0 26 255 0 26 255 0 26 255 0 26 255 0 26 255 0 26 255 0 26 255 0 26 255 0 26 255 0 26 255 0 26 255 0 26 255 0 26 255 0 26 255 0 26 255 0 26 255 0 26 255 0 26 255 0 26 255 0 26 255 0 26 255 0 26 255 0 26 255 0 26 255 0 26 255 0 26 255 0 26 255 0 26 255 0 26 255 0 26 255 0 26 255 0 26 255 0 26 255 0 26 255 0 26 255 0 26 255 0 26 255 0 26 255 0 26 255 0 26 255 0 26 255 0 26 255 0 26 255 0 26 255 0 26 255 0 26 254 0 26 254 0 26 255 0 26 255 0 26 255 0 26 254 0 26 254 0 26 255 0 26 255 0 26 255 0 26 255 0 26 255 0 26 255 13 13 13 13 13 13 13 13 13 13 13 13 13 13 13 13 13 13 13 13 13 13 13 13 13 13 13 13 13 13 13 13 13 13 13 13 3 32 249 13 13 13 13 13 13 13 13 13 13 13 13 13 13 13 13 13 13 13 13 13 13 13 13 13 13 13 13 13 13 13 13 13 13 13 13 13 13 13 13 13 13 13 13 13 13 13 13 13 13 13 13 13 13 13 13 13 13 13 13 13 13 13 13 13 13 13 13 13 13 13 13 13 13 13 13 13 13 13 13 13 13 13 13 13 13 13 13 13 13 13 13 13 13 13 13 13 13 13 13 13 13 13 13 13 13 13 13 13 13 13 13 13 13 13 13 13 13 13 13 13 13 13 13 13 13 13 13 13 13 13 13 13 13 13 13 13 13 13 13 13 13 13 13 13 13 13 13 13 13 13 13 13 13 13 13 13 13 13 13 13 13 13 13 13 13 13 13 13 13 13 13 13 13 13 13 13 13 13 13 13 13 13 13 13 13 13 13 13 13 13 13 13 13 13 13 13 13 13 13 13 13 13 13 13 13 13 13 13 13 13 13 13 13 13 13 13 13 13 13 13 13 13 13 13 13 13 13 13 13 13 13 13 13 13 13 13 13 13 13 13 13 13 13 13 13 13 13 13 13 13 13 13 13 13 13 13 13 13 13 13 13 13 13 13 13 13 13 13 13 
0 26 255 0 26 255 13 13 13 0 26 255 0 26 255 13 13 13 0 26 255 0 26 255 0 26 255 0 26 255 0 26 255 0 26 255 0 26 255 0 26 255 0 26 255 0 26 255 0 26 255 0 26 255 0 26 255 0 26 255 0 26 255 0 26 255 0 26 255 0 26 255 0 26 255 0 26 255 0 26 255 0 26 255 0 26 255 0 26 255 0 26 255 0 26 255 0 26 255 0 26 255 0 26 255 0 26 255 0 26 255 0 26 255 0 26 255 0 26 255 0 26 255 0 26 255 0 26 255 0 26 255 0 26 255 0 26 255 0 26 255 0 26 255 0 26 255 0 26 255 0 26 255 0 26 255 0 26 255 0 26 255 0 26 255 0 26 255 0 26 255 0 26 255 0 26 255 0 26 255 0 26 255 0 26 255 0 26 255 0 26 255 0 26 255 0 26 255 0 26 255 0 26 255 0 26 255 0 26 255 0 26 255 0 26 255 0 26 255 0 26 255 0 26 255 0 26 255 0 26 255 0 26 255 0 26 255 0 26 254 0 26 255 0 26 255 0 26 255 0 26 255 13 13 13 13 13 13 0 26 254 0 26 255 0 26 255 0 26 254 0 27 254 0 27 254 13 13 13 0 26 255 0 26 255 0 26 255 13 13 13 13 13 13 0 26 255 13 13 13 13 13 13 13 13 13 13 13 13 13 13 13 13 13 13 13 13 13 13 13 13 13 13 13 13 13 13 13 13 13 13 13 13 13 13 13 13 13 13 13 13 13 13 13 13 13 13 13 13 13 13 13 13 13 13 13 13 13 13 13 13 13 13 13 13 13 13 13 13 13 13 13 13 13 13 13 13 13 13 13 13 13 13 13 13 13 13 13 13 13 13 13 13 13 13 13 13 13 13 13 13 13 13 13 13 13 13 13 13 13 13 13 13 13 13 13 13 13 13 13 13 13 13 13 13 13 13 13 13 13 13 13 13 13 13 13 13 13 13 13 13 13 13 13 13 13 13 13 13 13 13 13 13 13 13 13 13 13 13 13 13 13 13 13 13 13 13 13 13 13 13 13 13 13 13 13 13 13 13 13 13 13 13 13 13 13 13 13 13 13 13 13 13 13 13 13 13 13 13 13 13 13 13 13 13 13 13 13 13 13 5 38 244 13 13 13 13 13 13 13 13 13 13 13 13 13 13 13 13 13 13 13 13 13 13 13 13 13 13 13 13 13 13 13 13 13 13 13 13 13 13 13 13 13 13 13 13 13 13 13 13 13 13 13 13 13 13 13 13 13 13 13 13 13 13 13 13 13 13 13 13 13 13 13 13 13 13 13 13 13 13 13 13 13 13 13 13 13 13 13 
0 26 255 0 26 255 13 13 13 13 13 13 0 26 255 0 26 255 0 26 255 0 26 255 0 26 255 0 26 255 0 26 255 0 26 255 0 26 255 0 26 255 0 26 255 0 26 255 0 26 255 0 26 255 0 26 255 0 26 255 0 26 255 0 26 255 0 26 255 0 26 255 0 26 255 0 26 255 0 26 255 0 26 255 0 26 255 0 26 255 0 26 255 0 26 255 0 26 255 1 27 254 0 26 255 0 26 255 0 26 255 0 26 255 0 26 255 0 26 255 0 26 255 0 26 255 0 26 255 0 26 255 0 26 255 0 26 255 0 26 255 0 26 255 0 26 255 0 26 255 0 26 255 0 26 255 0 26 255 0 26 255 0 26 255 0 26 255 0 26 255 0 26 255 0 26 255 0 26 255 0 26 255 0 26 255 0 26 255 0 26 255 0 26 255 0 26 255 0 26 255 0 26 255 0 26 255 0 26 254 0 26 255 0 26 255 0 26 255 0 26 255 13 13 13 13 13 13 0 26 255 0 26 255 0 26 254 0 26 254 0 26 254 0 26 255 0 26 255 13 13 13 13 13 13 13 13 13 1 28 253 0 26 254 0 26 255 0 26 254 0 27 254 0 27 254 1 27 254 1 27 254 0 26 255 13 13 13 13 13 13 13 13 13 13 13 13 13 13 13 13 13 13 13 13 13 13 13 13 13 13 13 13 13 13 13 13 13 13 13 13 13 13 13 13 13 13 13 13 13 13 13 13 13 13 13 13 13 13 4 34 248 13 13 13 13 13 13 13 13 13 13 13 13 13 13 13 13 13 13 13 13 13 13 13 13 13 13 13 13 13 13 13 13 13 13 13 13 13 13 13 13 13 13 13 13 13 13 13 13 13 13 13 13 13 13 13 13 13 13 13 13 13 13 13 13 13 13 13 13 13 13 13 13 13 13 13 13 13 13 13 13 13 13 13 13 13 13 13 13 13 13 13 13 13 13 13 13 13 13 13 13 13 13 13 13 13 13 13 13 13 13 13 13 13 13 13 13 13 13 13 13 13 13 13 13 13 13 13 13 13 13 13 13 13 13 13 13 13 13 13 13 13 13 13 13 13 13 13 13 13 13 13 13 13 13 13 13 13 13 13 13 13 13 13 13 13 13 13 13 13 13 13 13 13 13 13 13 13 13 13 13 13 13 13 13 13 13 13 13 13 13 13 13 13 13 13 13 13 13 13 13 13 13 13 13 13 13 13 13 13 13 13 13 13 13 13 13 13 13 13 13 13 13 13 13 13 13 13 13 13 13 13 13 13 13 13 13 13 13 13 13 13 13 13 13 13 13 13 13 13 13 13 13 13 13 13 13 13 13 
4 35 247 0 26 255 13 13 13 13 13 13 1 27 254 0 26 255 0 26 255 0 26 255 13 13 13 0 26 255 0 26 255 0 26 255 0 26 255 0 26 255 0 26 255 0 26 255 0 26 255 0 26 255 0 26 255 0 26 255 0 26 255 0 26 255 0 26 255 0 26 255 0 26 255 0 26 255 0 26 255 0 26 255 0 26 255 0 26 255 0 26 255 0 26 255 0 26 255 0 27 254 0 26 255 0 26 255 0 26 255 0 26 254 0 26 255 0 26 255 0 26 255 0 26 255 0 26 255 0 26 255 0 26 255 0 26 255 0 26 255 0 26 255 0 26 255 0 26 255 0 26 255 0 26 255 0 26 255 0 26 255 0 26 255 0 26 255 0 26 255 0 26 255 0 26 255 0 26 255 0 26 255 0 26 255 0 26 255 0 26 255 0 26 255 0 26 255 0 26 255 0 26 254 0 26 254 0 26 254 0 26 255 0 26 255 0 26 255 0 26 255 0 26 255 0 26 255 0 26 254 0 26 254 0 26 254 1 27 254 0 27 254 0 27 254 0 26 255 13 13 13 13 13 13 13 13 13 13 13 13 0 26 254 0 26 254 0 26 254 0 26 254 0 27 254 1 27 254 1 28 253 2 29 252 13 13 13 13 13 13 13 13 13 0 26 255 13 13 13 1 27 253 13 13 13 13 13 13 13 13 13 13 13 13 13 13 13 13 13 13 13 13 13 13 13 13 13 13 13 13 13 13 13 13 13 13 13 13 13 13 13 13 13 13 13 13 13 13 13 13 13 13 13 13 13 13 13 13 13 13 13 13 13 13 13 13 13 13 13 13 13 13 13 13 13 13 13 13 13 13 13 13 13 13 13 13 13 13 13 13 13 13 13 13 13 13 13 13 13 13 13 13 13 13 13 13 13 13 13 13 13 13 13 13 13 13 13 13 13 13 13 13 13 13 13 13 13 13 13 13 13 13 13 13 13 13 13 13 13 13 13 13 13 13 13 13 13 13 13 13 13 13 13 13 13 13 13 13 13 13 13 13 13 13 13 13 13 13 13 13 13 13 13 13 13 13 13 13 13 13 13 13 13 13 13 13 13 13 13 13 13 13 13 13 13 13 13 13 13 13 13 13 13 13 13 13 13 13 13 13 13 13 13 13 13 13 13 13 13 13 13 13 13 13 13 13 13 13 13 13 13 13 13 13 13 13 13 13 13 13 13 13 13 13 13 13 13 13 13 13 13 13 13 13 13 13 13 13 13 13 13 13 13 13 13 13 13 13 13 13 13 13 13 13 13 13 13 13 13 13 13 13 13 13 13 13 13 13 13 13 13 13 13 13 13 13 13 13 13 
0 26 255 0 26 255 13 13 13 13 13 13 13 13 13 0 26 255 0 26 255 0 26 255 0 26 255 0 26 255 0 26 255 0 26 255 0 26 255 13 13 13 0 26 255 0 26 255 0 26 255 0 26 255 0 26 255 0 26 255 0 26 255 0 26 255 0 26 255 0 26 255 0 26 255 0 26 255 0 26 255 0 26 255 0 26 255 0 26 255 0 26 255 0 26 255 0 26 255 0 26 255 0 26 255 0 26 255 0 26 255 0 26 255 0 26 255 0 26 255 0 26 255 0 26 255 0 26 255 0 26 255 0 26 255 13 13 13 0 26 255 0 26 255 0 26 255 0 26 255 0 26 255 0 26 255 0 26 255 0 26 255 0 26 255 0 26 255 0 26 255 0 26 255 0 26 255 0 26 255 0 26 255 0 26 255 0 26 254 0 26 254 0 26 255 0 26 255 0 26 255 0 26 255 0 26 254 0 26 254 0 26 255 0 26 255 0 26 255 0 26 255 0 26 254 0 26 254 0 26 254 0 26 254 0 26 254 0 27 254 0 27 254 0 26 255 13 13 13 13 13 13 13 13 13 13 13 13 13 13 13 0 26 254 13 13 13 0 27 254 0 26 254 0 26 254 0 27 254 1 27 254 0 26 255 13 13 13 13 13 13 0 26 255 13 13 13 0 26 254 13 13 13 13 13 13 13 13 13 13 13 13 13 13 13 13 13 13 13 56 229 13 13 13 2 29 252 13 13 13 13 13 13 13 13 13 13 13 13 13 13 13 13 13 13 13 13 13 13 13 13 13 13 13 13 13 13 13 13 13 13 13 13 3 31 250 13 13 13 13 13 13 13 13 13 13 13 13 13 13 13 13 13 13 13 13 13 13 13 13 13 13 13 13 13 13 13 13 13 13 13 13 13 13 13 13 13 13 13 13 13 13 13 13 13 13 13 13 13 13 13 13 13 13 13 13 13 13 13 13 13 13 13 13 13 13 13 13 13 13 13 13 13 13 13 13 13 13 13 13 13 13 13 13 13 13 13 13 13 13 13 13 13 13 13 13 13 13 13 13 13 13 13 13 13 13 13 13 13 13 13 13 13 13 13 13 13 13 13 13 13 13 13 13 13 13 13 13 13 13 13 13 13 13 13 13 13 13 13 13 13 13 13 13 13 13 13 13 13 13 13 13 13 13 13 13 13 13 13 13 13 13 13 13 13 13 13 13 13 13 13 13 13 13 13 13 13 13 13 13 13 13 13 13 13 13 13 13 13 13 13 13 13 13 13 13 13 13 13 13 13 13 13 13 13 13 13 13 13 13 13 13 13 13 13 13 13 13 13 13 13 13 13 13 13 13 13 13 13 13 
0 26 255 0 26 255 13 13 13 13 13 13 0 26 255 13 13 13 0 26 255 0 26 255 0 26 255 0 26 255 0 26 255 0 26 255 13 13 13 13 13 13 13 13 13 13 13 13 0 26 255 0 26 255 0 26 255 0 26 254 0 26 255 0 26 255 0 26 255 0 26 255 0 26 255 0 26 255 0 26 255 0 26 255 0 26 255 0 26 255 0 26 255 0 26 255 0 26 255 0 26 255 0 26 255 0 26 255 0 26 255 0 26 254 0 26 254 0 26 254 0 26 255 0 26 255 0 26 255 0 26 255 13 13 13 13 13 13 13 13 13 0 26 255 0 26 255 0 26 255 0 26 255 0 26 255 0 26 255 0 26 255 0 26 255 0 26 255 0 26 255 0 26 255 0 26 255 0 26 255 0 26 255 0 26 255 0 26 254 0 26 254 0 26 255 0 26 255 0 26 254 0 26 254 0 26 254 13 13 13 0 26 255 0 26 255 0 26 255 0 26 254 0 27 254 0 26 254 0 26 254 0 26 254 0 27 254 0 26 254 1 27 254 13 13 13 13 13 13 13 13 13 13 13 13 13 13 13 13 13 13 13 13 13 13 13 13 13 13 13 13 13 13 0 26 254 0 26 254 13 13 13 13 13 13 13 13 13 13 13 13 13 13 13 0 26 255 1 27 254 1 28 253 13 13 13 13 13 13 13 13 13 13 13 13 13 13 13 13 13 13 13 13 13 13 13 13 13 13 13 13 13 13 13 13 13 13 13 13 13 13 13 13 13 13 13 13 13 13 13 13 13 13 13 13 13 13 13 13 13 13 13 13 13 13 13 13 13 13 13 13 13 13 13 13 13 13 13 13 13 13 4 34 247 13 13 13 4 35 247 13 13 13 13 13 13 13 13 13 13 13 13 13 13 13 13 13 13 13 13 13 13 13 13 13 13 13 13 13 13 13 13 13 13 13 13 13 13 13 13 13 13 13 13 13 13 13 13 13 13 13 13 13 13 13 13 13 13 13 13 13 13 13 13 13 13 13 13 13 13 13 13 13 13 13 13 13 13 13 13 13 13 13 13 13 13 13 13 13 13 13 13 13 13 13 13 13 13 13 13 13 13 13 13 13 13 13 13 13 13 13 13 13 13 13 13 13 13 13 13 13 13 13 13 13 13 13 13 13 13 13 13 13 13 13 13 13 13 13 13 13 13 13 13 13 13 13 13 13 13 13 13 13 13 13 13 13 13 13 13 13 13 13 13 13 13 13 13 13 13 13 13 13 13 13 13 13 13 13 13 13 13 13 13 13 13 13 13 13 13 13 13 13 13 13 13 13 13 13 13 13 13 13 13 13 13 13 13 13 13 
0 26 255 0 26 255 0 26 255 0 26 255 13 13 13 13 13 13 13 13 13 0 26 255 0 26 255 0 26 255 0 26 255 0 26 255 0 27 254 13 13 13 13 13 13 13 13 13 0 26 255 0 26 255 0 26 255 0 26 255 0 26 255 0 26 255 0 26 255 0 26 255 0 26 255 0 26 255 0 26 255 0 26 255 0 26 255 0 26 255 0 26 254 0 26 255 0 26 255 0 26 255 0 26 255 0 26 255 0 26 255 0 26 255 0 26 255 0 26 254 0 26 255 0 26 255 0 26 255 0 26 255 0 26 255 13 13 13 0 27 254 0 26 255 0 26 254 0 26 254 0 26 255 0 26 255 0 26 255 0 26 255 0 26 255 0 26 255 0 26 255 0 26 255 0 26 255 0 26 255 0 26 255 0 26 255 0 26 254 0 26 254 0 26 254 0 26 255 0 26 255 0 26 255 13 13 13 13 13 13 13 13 13 0 26 255 13 13 13 13 13 13 13 13 13 13 13 13 0 26 254 0 26 254 0 27 254 0 26 255 0 26 255 13 13 13 13 13 13 0 26 254 0 26 254 0 26 254 0 26 254 13 13 13 13 13 13 13 13 13 0 27 254 0 26 254 0 26 254 13 13 13 13 13 13 13 13 13 13 13 13 13 13 13 0 26 255 0 26 255 13 13 13 13 13 13 13 13 13 13 13 13 13 13 13 13 13 13 13 13 13 13 13 13 13 13 13 13 13 13 13 13 13 13 13 13 13 13 13 13 13 13 13 13 13 13 13 13 4 34 248 13 13 13 13 13 13 13 13 13 13 13 13 13 13 13 13 13 13 13 13 13 13 13 13 13 13 13 13 13 13 13 13 13 13 13 13 13 13 13 13 13 13 13 13 13 13 13 13 13 13 13 13 13 13 13 13 13 13 13 13 13 13 13 13 13 13 13 13 13 13 13 13 13 13 13 13 13 13 13 13 13 13 13 13 13 13 13 13 13 13 13 13 13 13 13 13 13 13 13 13 13 13 13 13 13 13 13 13 13 13 13 13 13 13 13 13 13 13 13 13 13 13 13 13 13 13 13 13 13 13 13 13 13 13 13 13 13 13 13 13 13 13 13 13 13 13 13 13 13 13 13 13 13 13 13 13 13 13 13 13 13 13 13 13 13 13 13 13 13 13 13 13 13 13 13 13 13 13 13 13 13 13 13 13 13 13 13 13 13 13 13 13 13 13 13 13 13 13 13 13 13 13 13 13 13 13 13 13 13 13 13 13 13 13 13 13 13 13 13 13 13 13 13 13 13 13 13 13 13 13 13 13 13 13 13 13 13 13 13 13 13 13 13 13 13 13 13 13 13 
0 26 255 0 26 255 13 13 13 13 13 13 13 13 13 13 13 13 13 13 13 0 26 255 0 26 255 13 13 13 13 13 13 13 13 13 0 26 254 0 26 254 13 13 13 13 13 13 13 13 13 0 26 255 0 26 255 0 26 254 0 26 255 0 26 255 0 26 255 13 13 13 13 13 13 5 38 244 0 26 255 0 26 255 0 26 255 13 13 13 2 30 251 1 27 254 0 26 254 0 26 255 0 26 255 0 26 255 0 26 255 0 26 255 0 26 255 0 26 255 0 26 255 0 26 254 0 26 255 0 26 255 0 26 255 0 26 254 1 27 254 0 26 255 0 26 254 0 26 254 0 26 254 0 26 255 0 26 255 0 26 255 0 26 255 13 13 13 0 26 255 0 26 255 0 26 254 0 26 255 0 26 254 0 26 255 0 26 255 0 26 254 0 26 254 0 26 254 0 26 254 0 26 254 13 13 13 13 13 13 13 13 13 1 27 254 13 13 13 13 13 13 13 13 13 0 26 254 0 26 254 0 26 254 1 28 253 1 28 253 13 13 13 13 13 13 13 13 13 0 26 254 0 26 254 0 26 254 0 26 254 0 26 254 1 29 252 13 13 13 0 27 254 0 27 254 0 26 254 13 13 13 13 13 13 13 13 13 13 13 13 13 13 13 0 26 255 0 26 255 13 13 13 13 13 13 13 13 13 13 57 228 3 32 249 13 13 13 13 13 13 13 13 13 13 13 13 13 13 13 13 13 13 13 13 13 13 13 13 13 13 13 13 13 13 13 13 13 13 13 13 13 13 13 13 13 13 13 13 13 13 13 13 13 13 13 13 13 13 13 13 13 13 13 13 13 13 13 13 13 13 13 13 13 13 13 13 13 13 13 13 13 13 13 13 13 13 13 13 13 13 13 13 13 13 13 13 13 13 13 13 13 13 13 13 13 13 13 13 13 13 13 13 13 13 13 13 13 13 13 13 13 13 13 13 13 13 13 13 13 13 13 13 13 13 13 13 13 13 13 13 13 13 13 13 13 13 13 13 13 13 13 13 13 13 13 13 13 13 13 13 13 13 13 13 13 13 13 13 13 13 13 13 13 13 13 13 13 13 13 13 13 13 13 13 13 13 13 13 13 13 13 13 13 13 13 13 13 13 13 13 13 13 13 13 13 13 13 13 13 13 13 13 13 13 13 13 13 13 13 13 13 13 13 13 13 13 13 13 13 13 13 13 13 13 13 13 13 13 13 13 13 13 13 13 13 13 13 13 13 13 13 13 13 13 13 13 13 13 13 13 13 13 13 13 13 13 13 13 13 13 13 13 13 13 13 13 13 13 13 13 13 13 13 13 13 13 13 13 13 
0 26 255 13 13 13 13 13 13 13 13 13 0 26 255 13 13 13 13 13 13 0 26 255 13 13 13 13 13 13 13 13 13 13 13 13 13 13 13 0 26 255 13 13 13 13 13 13 13 13 13 13 13 13 13 13 13 0 26 255 0 26 255 0 26 255 0 26 255 13 13 13 13 13 13 13 13 13 0 26 255 0 26 255 0 26 255 13 13 13 13 13 13 13 13 13 13 13 13 0 26 255 0 26 255 0 26 255 0 26 254 0 26 255 0 26 255 0 26 255 0 26 255 0 26 254 0 26 255 13 13 13 0 26 255 0 26 254 0 26 254 0 26 255 0 26 255 0 26 255 0 27 254 0 26 255 0 26 254 0 26 255 0 26 255 13 13 13 13 13 13 13 13 13 0 26 255 0 26 254 1 27 254 0 26 254 0 26 254 1 27 254 13 13 13 0 27 254 0 26 254 13 13 13 13 13 13 13 13 13 1 27 254 1 27 254 0 26 255 0 26 254 0 26 254 0 26 254 0 26 254 0 26 254 1 28 253 2 30 251 13 13 13 13 13 13 13 13 13 13 13 13 0 26 254 0 26 254 0 26 254 0 26 255 13 13 13 0 26 255 0 27 254 0 27 254 0 26 255 13 13 13 13 13 13 2 29 252 13 13 13 13 13 13 0 26 255 13 13 13 13 13 13 13 13 13 13 13 13 13 13 13 13 13 13 13 13 13 13 13 13 13 13 13 13 13 13 13 13 13 13 13 13 13 13 13 13 13 13 13 13 13 13 13 13 13 13 13 13 13 13 13 13 13 13 13 13 13 13 13 13 13 13 13 13 13 13 13 13 13 13 13 13 13 13 13 13 13 13 13 13 13 13 13 13 13 13 13 13 13 13 13 13 13 13 13 13 13 13 13 13 13 13 13 13 13 13 13 13 13 13 13 13 13 13 13 13 13 13 13 13 13 13 13 13 13 13 13 13 13 13 13 13 13 13 13 13 13 13 13 13 13 13 13 13 13 13 13 13 13 13 13 13 13 13 13 13 13 13 13 13 13 13 13 13 13 13 13 13 13 13 13 13 13 13 13 13 13 13 13 13 13 13 13 13 13 13 13 13 13 13 13 13 13 13 13 13 13 13 13 13 13 13 13 13 13 13 13 13 13 13 13 13 13 13 13 13 13 13 13 13 13 13 13 13 13 13 13 13 13 13 13 13 13 13 13 13 13 13 13 13 13 13 13 13 13 13 13 13 6 40 243 13 13 13 13 13 13 13 13 13 13 13 13 13 13 13 13 13 13 13 13 13 13 13 13 13 13 13 13 13 13 13 13 13 13 13 13 13 13 13 13 13 13 13 13 13 13 13 13 
13 13 13 13 13 13 13 13 13 13 13 13 13 13 13 13 13 13 13 13 13 13 13 13 13 13 13 13 13 13 1 27 254 0 26 254 13 13 13 13 13 13 13 13 13 13 13 13 13 13 13 13 13 13 13 13 13 13 13 13 1 27 254 1 27 254 13 13 13 0 26 255 13 13 13 13 13 13 13 13 13 0 26 255 0 26 254 13 13 13 13 13 13 13 13 13 13 13 13 13 13 13 13 13 13 13 13 13 0 26 254 0 26 254 0 26 254 0 26 255 0 26 255 0 26 254 0 26 255 0 26 255 0 26 255 0 26 254 0 26 255 0 26 255 0 26 255 0 26 255 0 27 254 0 27 254 0 27 254 0 26 254 0 26 254 0 26 255 13 13 13 0 26 255 0 26 254 13 13 13 1 27 254 1 27 254 0 26 254 1 27 254 2 31 250 13 13 13 13 13 13 0 26 254 13 13 13 1 29 252 1 27 254 1 27 254 0 26 255 0 26 254 0 26 254 0 26 254 0 26 254 13 13 13 1 28 253 0 26 254 13 13 13 13 13 13 13 13 13 13 13 13 13 13 13 0 26 255 13 13 13 13 13 13 13 13 13 13 13 13 13 13 13 13 13 13 0 27 254 13 13 13 13 13 13 13 13 13 13 13 13 13 13 13 13 13 13 13 13 13 13 13 13 13 13 13 13 13 13 13 13 13 13 13 13 13 13 13 13 13 13 13 13 13 13 13 13 13 13 13 13 13 13 13 13 13 13 13 13 13 13 13 13 13 13 13 13 13 13 13 13 13 13 13 13 13 13 13 13 13 13 13 13 13 13 13 13 13 13 13 13 13 13 13 13 13 13 13 13 13 13 13 13 13 13 13 13 13 13 13 13 13 13 13 13 13 13 13 13 13 13 13 13 13 13 13 13 13 13 13 13 4 34 247 13 13 13 13 13 13 13 13 13 13 13 13 13 13 13 13 13 13 13 13 13 13 13 13 13 13 13 13 13 13 13 13 13 13 13 13 13 13 13 13 13 13 13 13 13 13 13 13 13 13 13 13 13 13 13 13 13 13 13 13 13 13 13 13 13 13 13 13 13 13 13 13 13 13 13 13 13 13 13 13 13 13 13 13 13 13 13 13 13 13 13 13 13 13 13 13 13 13 13 13 13 13 13 13 13 13 13 13 13 13 13 13 13 13 13 13 13 13 13 13 13 13 13 13 13 13 13 13 13 13 13 13 13 13 13 13 13 13 13 13 13 13 13 13 13 13 13 13 13 13 13 13 13 13 13 13 13 13 13 13 13 13 13 13 13 13 13 13 13 13 13 13 13 13 13 13 13 13 13 13 13 13 13 13 13 13 
0 27 254 13 13 13 13 13 13 13 13 13 13 13 13 13 13 13 13 13 13 13 13 13 13 13 13 13 13 13 13 13 13 13 13 13 13 13 13 0 26 255 13 13 13 13 13 13 13 13 13 13 13 13 13 13 13 13 13 13 0 26 255 0 26 255 0 26 255 13 13 13 0 26 255 13 13 13 13 13 13 0 26 255 0 26 255 0 26 255 13 13 13 13 13 13 13 13 13 13 13 13 13 13 13 13 13 13 13 13 13 0 27 254 0 26 255 0 26 255 0 26 255 0 26 254 13 13 13 0 26 254 13 13 13 13 13 13 0 26 255 0 26 255 0 26 255 0 26 255 0 26 255 0 27 254 0 27 254 0 26 255 0 26 255 13 13 13 13 13 13 0 26 254 0 26 254 0 27 254 0 27 254 0 27 254 0 26 255 1 27 254 13 13 13 0 26 254 0 26 254 0 26 254 0 27 254 1 28 253 1 27 254 1 27 254 0 26 254 13 13 13 13 13 13 13 13 13 13 13 13 13 13 13 0 26 254 13 13 13 13 13 13 0 26 254 1 27 254 13 13 13 13 13 13 13 13 13 13 13 13 13 13 13 13 13 13 13 13 13 13 13 13 1 27 254 13 13 13 0 27 254 0 26 255 13 13 13 13 13 13 13 13 13 13 13 13 13 13 13 13 13 13 1 27 253 13 13 13 13 13 13 13 13 13 13 13 13 13 13 13 13 13 13 13 13 13 13 13 13 13 13 13 13 13 13 13 13 13 13 13 13 13 13 13 2 29 252 13 13 13 13 13 13 13 13 13 13 13 13 13 13 13 13 13 13 13 13 13 13 13 13 13 13 13 13 13 13 13 13 13 13 13 13 13 13 13 13 13 13 13 13 13 13 13 13 13 13 13 13 13 13 13 13 13 13 13 13 13 13 13 13 13 13 13 13 13 13 13 13 13 13 13 13 13 13 13 13 13 13 13 13 13 13 13 13 13 13 13 13 13 13 13 13 13 13 13 13 13 13 13 13 13 13 13 13 13 13 13 13 13 13 13 13 13 13 13 13 13 13 13 13 13 13 13 13 13 13 13 13 13 13 13 13 13 13 13 13 13 13 13 13 13 13 13 13 13 13 13 13 13 13 13 13 13 13 13 13 13 13 13 13 13 13 13 13 13 13 13 13 13 13 13 13 13 13 13 13 13 13 13 13 13 13 13 13 13 13 13 13 13 13 13 13 13 13 13 13 13 13 13 13 13 13 13 13 13 13 13 13 13 13 13 13 13 13 13 13 13 13 13 13 13 13 13 13 13 13 13 13 13 13 13 13 13 13 13 13 13 13 13 13 13 13 13 13 13 13 13 13 
1 28 253 0 26 255 13 13 13 13 13 13 13 13 13 13 13 13 0 26 255 13 13 13 0 26 255 13 13 13 0 27 254 13 13 13 13 13 13 0 26 254 13 13 13 13 13 13 13 13 13 13 13 13 13 13 13 0 26 254 13 13 13 13 13 13 13 13 13 0 26 255 13 13 13 0 26 254 0 26 254 0 26 254 0 27 254 0 26 255 0 26 255 13 13 13 13 13 13 1 27 254 13 13 13 13 13 13 13 13 13 13 13 13 0 26 254 0 26 254 0 26 254 13 13 13 13 13 13 13 13 13 13 13 13 13 13 13 13 13 13 0 26 255 13 13 13 13 13 13 0 27 254 0 27 254 1 27 254 0 26 255 13 13 13 13 13 13 13 13 13 13 13 13 0 27 254 1 27 254 1 27 254 1 27 254 13 13 13 0 27 254 0 26 255 0 26 254 0 27 254 0 27 254 1 28 253 2 29 252 13 13 13 13 13 13 13 13 13 13 13 13 13 13 13 13 13 13 13 13 13 13 13 13 13 13 13 13 13 13 0 26 255 13 13 13 13 13 13 13 13 13 13 13 13 13 13 13 13 13 13 13 13 13 0 26 255 0 26 255 0 26 255 13 13 13 13 13 13 13 13 13 13 13 13 13 13 13 13 13 13 13 13 13 13 13 13 13 13 13 1 27 253 1 27 253 5 38 245 13 13 13 13 13 13 13 13 13 13 13 13 13 13 13 13 13 13 13 13 13 13 13 13 13 13 13 13 13 13 13 13 13 13 13 13 13 13 13 13 13 13 13 13 13 13 13 13 13 13 13 13 13 13 13 13 13 11 50 234 13 13 13 13 13 13 13 13 13 13 13 13 13 13 13 13 13 13 13 13 13 13 13 13 13 13 13 13 13 13 13 13 13 13 13 13 13 13 13 13 13 13 13 13 13 13 13 13 13 13 13 13 13 13 13 13 13 13 13 13 13 13 13 13 13 13 13 13 13 13 13 13 13 13 13 13 13 13 13 13 13 13 13 13 13 13 13 13 13 13 13 13 13 13 13 13 13 13 13 13 13 13 13 13 13 13 13 13 13 13 13 13 13 13 13 13 13 13 13 13 13 13 13 13 13 13 13 13 13 13 13 13 13 13 13 13 13 13 13 13 13 13 13 13 13 13 13 13 13 13 13 13 13 13 13 13 13 13 13 13 13 13 13 13 13 13 13 13 13 13 13 13 13 13 13 13 13 13 13 13 13 13 13 13 13 13 13 13 13 13 13 13 13 13 13 13 13 13 13 13 13 13 13 13 13 13 13 13 13 13 13 13 13 13 13 13 13 13 13 13 13 13 13 13 13 13 13 13 13 13 13 
13 13 13 0 26 254 13 13 13 13 13 13 13 13 13 13 13 13 13 13 13 13 13 13 13 13 13 13 13 13 0 26 254 13 13 13 13 13 13 13 13 13 0 26 255 13 13 13 13 13 13 13 13 13 0 26 255 0 26 254 0 26 254 13 13 13 1 27 254 13 13 13 0 26 254 13 13 13 0 26 254 0 26 255 0 26 255 0 26 255 0 26 255 13 13 13 0 26 255 0 26 255 0 26 254 13 13 13 13 13 13 0 26 254 13 13 13 0 26 254 1 27 254 1 27 254 13 13 13 0 26 255 13 13 13 13 13 13 1 27 254 1 27 254 13 13 13 13 13 13 0 27 254 1 27 254 1 27 254 13 13 13 13 13 13 13 13 13 13 13 13 0 27 254 0 27 254 1 27 254 1 27 254 1 27 254 1 27 254 1 27 254 2 29 252 1 27 254 1 27 254 0 27 254 1 28 253 2 29 252 13 13 13 13 13 13 0 26 254 13 13 13 13 13 13 13 13 13 13 13 13 13 13 13 1 29 252 1 28 253 13 13 13 13 13 13 13 13 13 13 13 13 13 13 13 13 13 13 13 13 13 13 13 13 13 13 13 0 26 255 0 26 255 13 13 13 13 13 13 13 13 13 13 13 13 13 13 13 13 13 13 0 26 255 13 13 13 13 13 13 13 13 13 13 13 13 13 13 13 9 48 236 3 32 250 13 13 13 13 13 13 13 13 13 13 13 13 13 13 13 13 13 13 13 13 13 13 13 13 13 13 13 13 13 13 13 13 13 13 13 13 13 13 13 13 13 13 13 13 13 13 13 13 13 13 13 13 13 13 13 13 13 13 13 13 13 13 13 13 13 13 13 13 13 13 13 13 13 13 13 13 13 13 13 13 13 13 13 13 13 13 13 13 13 13 13 13 13 13 13 13 13 13 13 13 13 13 13 13 13 13 13 13 13 13 13 13 13 13 13 13 13 13 13 13 13 13 13 13 13 13 14 58 227 13 13 13 13 13 13 13 13 13 13 13 13 13 13 13 13 13 13 13 13 13 13 13 13 13 13 13 13 13 13 13 13 13 13 13 13 13 13 13 13 13 13 13 13 13 13 13 13 13 13 13 13 13 13 13 13 13 13 13 13 13 13 13 13 13 13 13 13 13 13 13 13 13 13 13 13 13 13 13 13 13 13 13 13 13 13 13 13 13 13 13 13 13 13 13 13 13 13 13 13 13 13 13 13 13 13 13 13 13 13 13 13 13 13 13 13 13 13 13 13 13 13 13 13 13 13 13 13 13 13 13 13 13 13 13 13 13 13 13 13 13 13 13 13 13 13 13 13 13 13 13 13 13 13 13 13 
0 26 254 0 26 254 13 13 13 13 13 13 13 13 13 0 26 255 13 13 13 0 26 254 13 13 13 13 13 13 13 13 13 13 13 13 0 26 255 13 13 13 13 13 13 13 13 13 8 44 239 13 13 13 0 26 254 0 26 254 13 13 13 0 26 254 13 13 13 13 13 13 13 13 13 13 13 13 13 13 13 0 26 255 13 13 13 4 35 247 0 27 254 0 26 255 13 13 13 0 26 255 0 26 254 0 26 254 13 13 13 13 13 13 13 13 13 13 13 13 1 27 254 1 27 254 13 13 13 13 13 13 13 13 13 1 27 254 1 27 254 1 27 254 1 27 254 0 26 254 0 27 254 0 27 254 1 28 253 0 26 254 1 28 253 2 30 251 13 13 13 13 13 13 13 13 13 13 13 13 1 27 253 1 27 254 1 27 254 1 27 254 1 27 254 1 27 254 1 27 254 1 27 254 0 26 255 13 13 13 3 33 249 13 13 13 13 13 13 13 13 13 13 13 13 13 13 13 13 13 13 1 28 253 1 28 253 1 27 254 13 13 13 13 13 13 13 13 13 2 30 251 13 13 13 13 13 13 13 13 13 27 88 202 13 13 13 13 13 13 13 13 13 13 13 13 13 13 13 13 13 13 13 13 13 13 13 13 13 13 13 13 13 13 13 13 13 13 13 13 13 13 13 13 13 13 13 13 13 13 13 13 13 13 13 13 13 13 13 13 13 13 13 13 13 13 13 13 13 13 13 13 13 13 13 13 13 13 13 13 13 13 13 13 13 13 13 13 13 13 13 13 13 13 13 13 13 13 13 13 13 13 13 13 13 13 13 13 13 13 13 13 13 13 13 13 13 13 13 13 13 13 13 13 13 13 13 13 13 13 13 13 13 13 13 13 13 13 13 13 13 13 13 13 13 13 13 13 13 13 13 13 13 13 13 13 13 13 13 13 13 13 13 13 13 13 13 13 13 13 13 13 13 13 13 13 13 13 13 13 13 13 13 13 13 13 13 13 13 13 13 13 13 13 13 13 13 13 13 13 13 13 13 13 13 13 13 13 13 13 13 13 13 13 13 13 13 13 13 13 13 13 13 13 13 13 13 13 13 13 13 13 13 13 13 13 13 13 13 13 13 13 13 13 13 13 13 13 13 13 13 13 13 13 13 13 13 13 13 13 13 13 13 13 13 13 13 13 13 13 13 13 13 13 13 13 13 13 13 13 13 13 13 13 13 13 13 13 13 13 13 13 13 13 13 13 13 13 13 13 13 13 13 13 13 13 13 13 13 13 13 13 13 13 13 13 13 13 13 13 13 13 13 13 13 13 13 13 13 13 13 13 13 13 13 13 13 13 13 13 
0 26 255 0 26 254 13 13 13 13 13 13 13 13 13 13 13 13 1 27 254 13 13 13 0 26 255 13 13 13 13 13 13 13 13 13 13 13 13 13 13 13 13 13 13 13 13 13 13 13 13 1 27 254 13 13 13 0 26 254 13 13 13 13 13 13 0 26 255 13 13 13 13 13 13 13 13 13 13 13 13 13 13 13 0 26 254 0 27 254 0 26 254 0 26 255 13 13 13 13 13 13 1 28 252 13 13 13 13 13 13 13 13 13 13 13 13 13 13 13 13 13 13 13 13 13 13 13 13 13 13 13 2 30 251 1 27 254 1 27 254 1 27 254 13 13 13 0 27 254 0 27 254 0 27 254 1 27 254 0 26 254 1 28 253 1 28 253 13 13 13 0 26 255 13 13 13 13 13 13 13 13 13 1 27 254 1 27 254 1 27 254 0 27 254 1 27 254 1 27 254 1 27 254 13 13 13 13 13 13 13 13 13 13 13 13 13 13 13 13 13 13 13 13 13 0 27 254 3 33 249 1 27 254 1 27 254 1 27 254 1 27 254 13 13 13 2 31 250 13 13 13 13 13 13 13 13 13 13 13 13 1 28 253 13 13 13 13 13 13 13 13 13 13 13 13 13 13 13 13 13 13 13 13 13 1 27 253 13 13 13 13 13 13 13 13 13 13 13 13 13 13 13 13 13 13 13 13 13 13 13 13 13 13 13 13 13 13 13 13 13 13 13 13 13 13 13 13 13 13 13 13 13 13 13 13 13 13 13 13 13 13 13 13 13 13 13 13 13 13 13 13 13 13 13 13 13 13 13 13 13 13 13 13 13 13 13 13 13 13 13 13 13 13 13 13 13 13 13 13 13 13 13 13 13 13 13 13 13 13 13 13 13 13 13 13 13 13 13 13 13 13 13 13 13 4 34 248 13 13 13 13 13 13 13 13 13 13 13 13 13 13 13 13 13 13 13 13 13 13 13 13 13 13 13 13 13 13 13 13 13 13 13 13 13 13 13 13 13 13 13 13 13 13 13 13 13 13 13 13 13 13 13 13 13 13 13 13 13 13 13 13 13 13 13 13 13 13 13 13 13 13 13 13 13 13 13 13 13 13 13 13 13 13 13 13 13 13 13 13 13 13 13 13 13 13 13 13 13 13 13 13 13 13 13 13 13 13 13 13 13 13 13 13 13 13 13 13 13 13 13 13 13 13 13 13 13 13 13 13 13 13 13 13 13 13 13 13 13 13 13 13 13 13 13 13 13 13 13 13 13 13 13 13 13 13 13 13 13 13 13 13 13 13 13 13 13 13 13 13 13 13 13 13 13 13 13 13 13 13 13 13 13 13 13 13 13 13 13 13 
0 26 255 13 13 13 13 13 13 13 13 13 13 13 13 1 28 253 13 13 13 13 13 13 13 13 13 13 13 13 13 13 13 13 13 13 13 13 13 13 13 13 13 13 13 13 13 13 1 27 254 13 13 13 1 27 254 13 13 13 13 13 13 13 13 13 13 13 13 0 26 254 1 27 254 13 13 13 13 13 13 13 13 13 0 26 254 0 26 254 0 26 255 0 26 255 13 13 13 13 13 13 13 13 13 13 13 13 13 13 13 0 27 254 1 27 254 13 13 13 1 27 254 13 13 13 13 13 13 13 13 13 13 13 13 1 27 254 0 27 254 0 26 254 13 13 13 0 26 254 0 26 254 0 26 254 1 27 254 0 26 254 1 28 253 13 13 13 0 26 255 13 13 13 13 13 13 13 13 13 0 26 254 13 13 13 13 13 13 13 13 13 0 26 254 0 27 254 0 27 254 1 27 254 13 13 13 13 13 13 13 13 13 13 13 13 13 13 13 13 13 13 1 27 254 1 29 252 13 13 13 13 13 13 13 13 13 0 27 254 13 13 13 1 27 254 12 53 231 3 32 249 13 13 13 0 27 254 13 13 13 13 13 13 13 13 13 1 28 253 0 26 255 13 13 13 13 13 13 13 13 13 13 13 13 13 13 13 13 13 13 13 13 13 13 13 13 1 28 253 13 13 13 13 13 13 13 13 13 13 13 13 13 13 13 13 13 13 13 13 13 13 13 13 13 13 13 13 13 13 13 13 13 13 13 13 13 13 13 13 13 13 13 13 13 13 13 13 13 13 13 13 13 13 13 13 13 13 13 13 13 13 13 13 13 13 13 13 13 13 13 13 3 33 249 13 13 13 13 13 13 13 13 13 13 13 13 13 13 13 13 13 13 13 13 13 13 13 13 13 13 13 13 13 13 13 13 13 13 13 13 13 13 13 13 13 13 13 13 13 13 13 13 13 13 13 13 13 13 13 13 13 13 13 13 13 13 13 13 13 13 13 13 13 13 13 13 13 13 13 13 13 13 13 13 13 13 13 13 13 13 13 13 13 13 13 13 13 13 13 13 13 13 13 13 13 13 13 13 13 4 36 246 13 13 13 13 13 13 13 13 13 13 13 13 13 13 13 13 13 13 13 13 13 13 13 13 13 13 13 13 13 13 13 13 13 13 13 13 13 13 13 13 13 13 13 13 13 13 13 13 13 13 13 13 13 13 13 13 13 13 13 13 13 13 13 13 13 13 13 13 13 13 13 13 13 13 13 13 13 13 13 13 13 13 13 13 13 13 13 13 13 13 13 13 13 13 13 13 13 13 13 13 13 13 13 13 13 13 13 13 13 13 13 13 13 13 13 13 13 
0 26 255 13 13 13 13 13 13 13 13 13 13 13 13 13 13 13 13 13 13 13 13 13 13 13 13 13 13 13 13 13 13 13 13 13 0 27 254 13 13 13 13 13 13 13 13 13 13 13 13 13 13 13 13 13 13 1 27 254 13 13 13 13 13 13 13 13 13 0 26 254 0 26 254 13 13 13 13 13 13 13 13 13 13 13 13 0 26 255 0 26 255 0 26 255 0 26 254 4 36 246 13 13 13 13 13 13 13 13 13 13 13 13 13 13 13 13 13 13 1 27 254 1 27 254 13 13 13 13 13 13 13 13 13 0 26 254 0 26 254 0 26 255 13 13 13 0 26 254 0 26 254 0 26 254 0 26 255 0 26 255 13 13 13 13 13 13 13 13 13 0 27 254 13 13 13 13 13 13 13 13 13 2 29 252 13 13 13 2 29 252 0 27 254 0 27 254 0 27 254 0 27 254 0 27 254 1 28 253 13 13 13 13 13 13 13 13 13 1 27 254 1 27 254 13 13 13 13 13 13 13 13 13 13 13 13 13 13 13 13 13 13 13 13 13 13 13 13 13 13 13 13 13 13 13 13 13 2 31 251 2 31 250 13 13 13 13 13 13 13 13 13 13 13 13 5 38 244 13 13 13 13 13 13 13 13 13 13 13 13 9 47 237 13 13 13 13 55 229 13 13 13 13 13 13 13 13 13 13 13 13 13 13 13 13 13 13 13 13 13 13 13 13 13 13 13 13 13 13 13 13 13 13 13 13 13 13 13 13 13 13 13 13 13 13 13 13 13 13 13 13 13 13 13 13 13 13 13 13 13 13 13 13 13 13 13 13 13 13 13 13 13 13 13 13 13 13 13 13 13 13 13 13 13 13 13 13 13 13 13 13 13 13 13 13 13 13 13 13 13 13 13 13 13 13 13 13 13 13 13 13 13 13 13 13 13 13 13 13 13 13 13 13 13 13 13 13 13 13 13 13 13 13 13 13 13 13 13 13 13 13 13 13 13 13 13 13 13 13 13 13 13 13 13 13 13 13 13 13 13 13 13 13 13 13 13 13 13 13 13 13 13 13 13 13 13 13 13 13 13 13 13 13 13 13 13 13 13 13 13 13 13 13 13 13 13 13 13 13 13 13 13 13 13 13 13 13 13 13 13 13 13 13 13 13 13 13 13 13 13 13 13 13 13 13 13 13 13 13 13 13 13 13 13 13 13 13 13 13 13 13 13 13 13 13 13 13 13 13 13 13 13 13 13 13 13 13 13 13 13 13 13 13 13 13 13 13 13 13 13 13 13 13 13 13 13 13 13 13 13 13 13 13 13 13 13 13 13 13 13 13 13 13 13 13 13 13 13 13 
13 13 13 13 13 13 13 13 13 13 13 13 13 13 13 13 13 13 13 13 13 1 27 254 13 13 13 13 13 13 13 13 13 13 13 13 1 28 253 13 13 13 13 13 13 0 27 254 13 13 13 13 13 13 13 13 13 1 27 254 1 27 254 13 13 13 13 13 13 0 26 255 0 26 254 13 13 13 13 13 13 13 13 13 13 13 13 13 13 13 13 13 13 13 13 13 1 27 254 13 13 13 0 26 255 13 13 13 13 13 13 13 13 13 13 13 13 13 13 13 0 26 254 1 27 254 13 13 13 13 13 13 1 27 254 13 13 13 0 26 255 0 26 254 13 13 13 13 13 13 0 26 255 0 26 255 0 26 255 0 26 255 13 13 13 13 13 13 1 27 254 1 27 254 1 27 253 13 13 13 3 31 250 1 27 254 3 32 249 2 29 252 3 32 250 0 27 254 0 27 254 0 27 254 0 27 254 1 28 253 13 13 13 13 13 13 13 13 13 1 27 254 1 27 254 13 13 13 13 13 13 13 13 13 4 36 246 13 13 13 13 13 13 13 13 13 13 13 13 13 13 13 13 13 13 4 36 246 2 31 251 13 13 13 13 13 13 13 13 13 13 13 13 13 13 13 13 13 13 13 13 13 13 13 13 13 13 13 13 13 13 13 13 13 13 13 13 13 13 13 13 13 13 13 13 13 2 30 251 13 13 13 13 13 13 13 13 13 13 13 13 13 13 13 13 13 13 13 13 13 13 13 13 13 13 13 13 13 13 13 13 13 13 13 13 13 13 13 13 13 13 13 13 13 13 13 13 13 13 13 13 13 13 13 13 13 5 38 244 13 13 13 13 13 13 7 43 240 13 13 13 13 13 13 13 13 13 13 13 13 13 13 13 13 13 13 13 13 13 13 13 13 13 13 13 13 13 13 13 13 13 13 13 13 13 13 13 13 13 13 13 13 13 13 13 13 13 13 13 13 13 13 13 13 13 13 13 13 13 13 13 13 13 13 13 13 13 13 13 13 13 13 13 13 13 13 13 13 13 6 39 244 13 13 13 13 13 13 13 13 13 13 13 13 13 13 13 13 13 13 13 13 13 13 13 13 13 13 13 13 13 13 13 13 13 13 13 13 13 13 13 13 13 13 13 13 13 13 13 13 13 13 13 13 13 13 13 13 13 13 13 13 13 13 13 13 13 13 13 13 13 13 13 13 13 13 13 13 13 13 13 13 13 13 13 13 13 13 13 13 13 13 13 13 13 13 13 13 13 13 13 13 13 13 13 13 13 13 13 13 13 13 13 13 13 13 13 13 13 13 13 13 13 13 13 13 13 13 13 13 13 13 13 13 13 13 13 13 13 13 
13 13 13 13 13 13 13 13 13 13 13 13 13 13 13 13 13 13 13 13 13 13 13 13 13 13 13 13 13 13 13 13 13 13 13 13 13 13 13 13 13 13 13 13 13 13 13 13 13 13 13 13 13 13 13 13 13 0 27 254 0 27 254 13 13 13 13 13 13 13 13 13 1 27 254 0 27 254 13 13 13 13 13 13 13 13 13 13 13 13 13 13 13 13 13 13 13 13 13 13 13 13 13 13 13 13 13 13 13 13 13 13 13 13 13 13 13 0 26 255 13 13 13 13 13 13 13 13 13 13 13 13 13 13 13 1 27 254 15 61 224 0 27 254 13 13 13 13 13 13 13 13 13 13 13 13 0 27 254 13 13 13 13 13 13 1 27 254 1 27 254 1 27 254 1 27 253 1 29 252 13 13 13 13 13 13 2 30 252 3 32 249 13 13 13 13 13 13 13 13 13 13 13 13 13 13 13 3 33 248 1 27 253 13 13 13 13 13 13 13 13 13 13 13 13 13 13 13 13 13 13 13 13 13 0 26 255 13 13 13 2 29 252 13 13 13 13 13 13 13 13 13 13 13 13 1 29 252 1 29 252 13 13 13 13 13 13 13 13 13 13 13 13 13 13 13 13 13 13 8 45 238 13 13 13 13 13 13 13 13 13 13 13 13 13 13 13 13 13 13 13 13 13 13 13 13 13 13 13 13 13 13 13 13 13 13 13 13 13 13 13 13 13 13 13 13 13 13 13 13 13 13 13 13 13 13 13 13 13 13 13 13 9 47 236 13 13 13 13 13 13 13 13 13 13 13 13 13 13 13 13 13 13 11 51 234 13 13 13 13 13 13 13 13 13 13 13 13 13 13 13 13 13 13 13 13 13 13 13 13 13 13 13 13 13 13 13 13 13 13 13 13 13 13 13 13 13 13 13 13 13 13 13 13 13 13 13 13 13 13 13 13 13 13 13 13 13 13 13 13 13 13 13 13 13 13 13 13 13 13 13 13 13 13 13 13 13 13 13 13 13 13 13 13 13 13 13 13 13 13 13 13 13 13 13 13 13 13 13 13 13 13 13 13 13 13 13 13 13 13 13 13 13 13 13 13 13 13 13 13 13 13 13 13 13 13 13 13 13 13 13 13 13 13 13 13 13 13 13 13 13 13 13 13 13 13 13 13 13 13 13 13 13 13 13 13 13 13 13 13 13 13 13 13 13 13 13 13 13 13 13 13 13 13 13 13 13 13 13 13 13 13 13 13 13 13 13 13 13 13 13 13 13 13 13 13 13 13 13 13 13 13 13 13 13 13 13 13 13 13 13 13 13 13 13 13 13 13 13 13 13 13 13 13 13 13 13 13 13 13 
0 26 255 13 13 13 13 13 13 13 13 13 13 13 13 13 13 13 13 13 13 13 13 13 13 13 13 13 13 13 13 13 13 13 13 13 13 13 13 13 13 13 13 13 13 13 13 13 0 26 255 13 13 13 13 13 13 0 26 255 0 27 254 0 26 255 13 13 13 13 13 13 13 13 13 13 13 13 13 13 13 13 13 13 13 13 13 13 13 13 13 13 13 13 13 13 2 31 250 13 13 13 13 13 13 13 13 13 13 13 13 13 13 13 0 26 255 13 13 13 0 26 254 13 13 13 13 13 13 1 28 253 0 27 254 13 13 13 13 13 13 13 13 13 1 27 254 13 13 13 13 13 13 13 13 13 13 13 13 13 13 13 13 13 13 13 13 13 13 13 13 1 27 254 1 27 254 13 13 13 13 13 13 13 13 13 13 13 13 4 34 248 13 13 13 13 13 13 13 13 13 13 13 13 13 13 13 13 13 13 13 13 13 13 13 13 13 13 13 13 13 13 13 13 13 13 13 13 13 13 13 13 13 13 13 13 13 13 13 13 13 13 13 13 13 13 13 13 13 13 13 13 13 13 13 0 26 254 13 13 13 13 13 13 13 13 13 13 13 13 13 13 13 13 13 13 13 13 13 13 13 13 13 13 13 1 29 252 13 13 13 13 13 13 13 13 13 2 30 251 13 13 13 13 13 13 13 13 13 13 13 13 13 13 13 2 30 251 13 13 13 13 13 13 13 13 13 13 13 13 13 13 13 13 13 13 14 59 227 13 13 13 13 13 13 13 13 13 13 13 13 13 13 13 13 13 13 13 13 13 13 13 13 13 13 13 13 13 13 13 13 13 13 13 13 13 13 13 13 13 13 13 13 13 13 13 13 13 13 13 13 13 13 13 13 13 13 13 13 13 13 13 13 13 13 13 13 13 13 13 13 13 13 13 13 13 13 13 13 13 13 13 13 13 13 13 13 13 13 13 13 13 13 13 13 13 13 13 13 13 13 13 13 13 13 13 13 13 13 13 13 13 13 13 13 13 13 13 13 13 13 13 13 13 13 13 13 13 13 13 13 13 13 13 13 13 13 13 13 13 13 13 13 13 13 13 13 13 13 13 13 13 13 13 13 13 13 13 13 13 13 13 13 13 13 13 13 13 13 13 13 13 13 13 13 13 13 13 13 13 13 13 13 13 13 13 13 13 13 13 13 13 13 13 13 13 13 13 13 13 13 13 13 13 13 13 13 13 13 13 13 13 13 13 13 13 13 13 13 13 13 13 13 13 13 13 13 13 13 13 13 13 13 13 13 13 13 13 13 13 13 13 13 13 13 13 13 13 13 13 13 13 13 13 13 13 13 13 13 13 
1 27 254 13 13 13 13 13 13 13 13 13 13 13 13 13 13 13 13 13 13 13 13 13 13 13 13 13 13 13 13 13 13 13 13 13 13 13 13 13 13 13 13 13 13 13 13 13 13 13 13 13 13 13 13 13 13 13 13 13 13 13 13 1 27 254 13 13 13 13 13 13 13 13 13 13 13 13 13 13 13 0 26 255 1 27 253 13 13 13 13 13 13 13 13 13 13 13 13 13 13 13 0 26 255 0 26 255 13 13 13 13 13 13 13 13 13 13 13 13 13 13 13 13 13 13 1 27 254 13 13 13 13 13 13 13 13 13 13 13 13 0 26 255 13 13 13 13 13 13 13 13 13 13 13 13 13 13 13 13 13 13 13 13 13 13 13 13 13 13 13 1 27 254 2 30 251 13 13 13 13 13 13 13 13 13 13 13 13 13 13 13 0 26 255 13 13 13 13 13 13 13 13 13 13 13 13 13 13 13 13 13 13 13 13 13 13 13 13 13 13 13 5 37 245 3 32 250 11 51 233 1 27 254 13 13 13 13 13 13 13 13 13 13 13 13 13 13 13 13 13 13 13 13 13 13 13 13 13 13 13 13 13 13 13 13 13 13 13 13 13 13 13 13 13 13 13 13 13 13 13 13 13 13 13 13 13 13 13 13 13 13 13 13 13 13 13 13 13 13 13 13 13 13 13 13 13 13 13 13 13 13 13 13 13 13 13 13 13 13 13 13 13 13 13 13 13 13 13 13 13 13 13 13 13 13 13 13 13 13 13 13 13 13 13 5 38 245 13 13 13 13 13 13 13 13 13 3 33 248 13 13 13 13 13 13 2 31 250 13 13 13 13 13 13 13 13 13 13 13 13 13 13 13 13 13 13 13 13 13 13 13 13 13 13 13 13 13 13 13 13 13 13 13 13 13 13 13 13 13 13 13 13 13 13 13 13 13 13 13 13 13 13 13 13 13 13 13 13 13 13 13 13 13 13 13 13 13 13 13 13 13 13 13 13 13 13 13 13 13 13 13 13 13 13 13 13 13 13 13 13 13 13 13 13 13 13 13 13 13 13 13 13 13 13 13 13 13 13 13 13 13 13 13 13 13 13 13 13 13 13 13 13 13 13 13 13 13 13 13 13 13 13 13 13 13 13 13 13 13 13 13 13 13 13 13 13 13 13 13 13 13 13 13 13 13 13 13 13 13 13 13 13 13 13 13 13 13 13 13 13 13 13 13 13 13 13 13 13 13 13 13 13 13 13 13 13 13 13 13 13 13 13 13 13 13 13 13 13 13 13 13 13 13 13 13 13 13 13 13 13 13 13 13 13 13 13 13 13 13 13 13 13 13 13 13 13 13 13 13 
0 26 255 13 13 13 13 13 13 13 13 13 13 13 13 13 13 13 13 13 13 13 13 13 13 13 13 13 13 13 13 13 13 13 13 13 13 13 13 13 13 13 13 13 13 13 13 13 13 13 13 13 13 13 1 27 254 13 13 13 13 13 13 13 13 13 13 13 13 13 13 13 1 29 252 13 13 13 13 13 13 0 26 255 0 26 255 13 13 13 13 13 13 13 13 13 13 13 13 13 13 13 13 13 13 0 26 255 0 26 255 13 13 13 13 13 13 13 13 13 13 13 13 1 27 254 13 13 13 13 13 13 13 13 13 13 13 13 1 27 253 1 27 253 13 13 13 13 13 13 13 13 13 1 28 253 13 13 13 3 32 250 1 27 254 13 13 13 1 27 254 1 27 254 13 13 13 13 13 13 13 13 13 13 13 13 13 13 13 13 13 13 13 13 13 13 13 13 13 13 13 13 13 13 13 13 13 13 13 13 13 13 13 1 28 253 13 13 13 13 13 13 0 26 254 3 31 250 0 26 255 13 13 13 13 13 13 1 27 254 0 26 255 1 28 252 13 13 13 13 13 13 13 13 13 13 13 13 13 13 13 13 13 13 13 13 13 13 13 13 13 13 13 13 13 13 13 13 13 13 13 13 13 13 13 13 13 13 13 13 13 13 13 13 52 146 152 13 13 13 13 13 13 13 13 13 13 13 13 13 13 13 13 13 13 13 13 13 13 13 13 13 13 13 13 13 13 13 13 13 13 13 13 13 13 13 13 13 13 13 13 13 13 13 13 13 13 13 13 13 13 13 13 13 13 13 13 13 13 13 13 13 13 13 13 13 13 13 13 13 13 13 13 13 13 13 13 13 13 13 13 13 13 13 13 13 13 13 13 13 13 13 13 13 13 13 13 13 13 13 13 13 13 13 13 13 13 13 13 13 13 13 13 13 13 13 13 13 13 13 13 13 13 13 13 13 13 13 13 13 13 13 13 13 13 13 13 13 13 13 13 13 13 13 13 13 13 13 13 13 13 13 13 13 13 13 13 13 13 13 13 13 13 13 13 13 13 13 4 34 248 13 13 13 13 13 13 13 13 13 13 13 13 13 13 13 13 13 13 13 13 13 13 13 13 13 13 13 13 13 13 13 13 13 13 13 13 13 13 13 13 13 13 13 13 13 13 13 13 13 13 13 13 13 13 13 13 13 13 13 13 13 13 13 13 13 13 13 13 13 13 13 13 13 13 13 13 13 13 13 13 13 13 13 13 13 13 13 13 13 13 13 13 13 13 13 13 13 13 13 13 13 13 13 13 13 13 13 13 13 13 13 13 13 13 13 13 13 13 13 13 13 13 13 13 13 13 13 13 13 
13 13 13 13 13 13 13 13 13 13 13 13 13 13 13 13 13 13 13 13 13 13 13 13 13 13 13 13 13 13 13 13 13 13 13 13 13 13 13 13 13 13 13 13 13 13 13 13 13 13 13 13 13 13 11 51 233 13 13 13 13 13 13 13 13 13 13 13 13 13 13 13 13 13 13 13 13 13 13 13 13 0 26 255 0 26 255 13 13 13 13 13 13 13 13 13 13 13 13 13 13 13 0 27 254 0 26 254 1 28 252 1 28 252 13 13 13 13 13 13 13 13 13 13 13 13 13 13 13 13 13 13 13 13 13 13 13 13 1 28 253 1 29 252 13 13 13 13 13 13 13 13 13 13 13 13 0 27 254 0 26 254 13 13 13 13 13 13 1 27 254 0 26 255 13 13 13 13 13 13 13 13 13 13 13 13 13 13 13 1 27 254 13 13 13 13 13 13 28 90 199 13 13 13 13 13 13 13 13 13 13 13 13 13 13 13 13 13 13 13 13 13 1 28 253 0 26 255 13 13 13 13 13 13 13 13 13 13 13 13 13 13 13 13 13 13 13 13 13 13 13 13 13 13 13 13 13 13 13 13 13 13 13 13 13 13 13 13 13 13 13 13 13 13 13 13 13 13 13 2 31 250 7 41 241 13 13 13 11 52 232 13 13 13 13 13 13 13 13 13 13 13 13 13 13 13 13 13 13 13 13 13 13 13 13 13 13 13 13 13 13 13 13 13 13 13 13 13 13 13 13 13 13 13 13 13 13 13 13 13 13 13 13 13 13 13 13 13 8 44 239 13 13 13 13 13 13 13 13 13 13 13 13 13 13 13 13 13 13 13 13 13 13 13 13 13 13 13 13 13 13 13 13 13 13 13 13 13 13 13 13 13 13 13 13 13 13 13 13 13 13 13 13 13 13 13 13 13 13 13 13 13 13 13 13 13 13 13 13 13 13 13 13 13 13 13 13 13 13 13 13 13 3 33 248 13 13 13 13 13 13 13 13 13 13 13 13 13 13 13 13 13 13 13 13 13 13 13 13 13 13 13 13 13 13 13 13 13 13 13 13 13 13 13 13 13 13 13 13 13 13 13 13 13 13 13 13 13 13 13 13 13 13 13 13 13 13 13 13 13 13 13 13 13 13 13 13 13 13 13 13 13 13 13 13 13 13 13 13 13 13 13 13 13 13 13 13 13 13 13 13 13 13 13 13 13 13 13 13 13 13 13 13 13 13 13 13 13 13 13 13 13 13 13 13 13 13 13 13 13 13 13 13 13 13 13 13 13 13 13 13 13 13 13 13 13 13 13 13 13 13 13 13 13 13 13 13 13 13 13 13 13 13 13 13 13 13 13 13 13 
13 13 13 0 26 254 13 13 13 13 13 13 13 13 13 13 13 13 13 13 13 13 13 13 13 13 13 13 13 13 1 27 254 13 13 13 13 13 13 1 27 254 13 13 13 13 13 13 13 13 13 13 13 13 13 13 13 13 13 13 0 27 254 13 13 13 13 13 13 13 13 13 13 13 13 13 13 13 1 27 254 13 13 13 13 13 13 13 13 13 13 13 13 13 13 13 13 13 13 13 13 13 13 13 13 13 13 13 7 43 240 13 13 13 13 13 13 13 13 13 13 13 13 13 13 13 13 13 13 13 13 13 1 27 254 1 27 254 13 13 13 1 28 253 13 13 13 13 13 13 13 13 13 13 13 13 0 26 255 13 13 13 13 13 13 1 27 254 13 13 13 13 13 13 13 13 13 13 13 13 13 13 13 13 13 13 13 13 13 13 13 13 13 13 13 14 57 228 13 13 13 13 13 13 13 13 13 13 13 13 0 27 254 13 13 13 13 13 13 2 29 252 2 30 251 0 26 255 13 13 13 13 13 13 13 13 13 13 13 13 13 13 13 13 13 13 0 26 255 13 13 13 6 39 244 13 13 13 13 13 13 13 13 13 13 13 13 13 13 13 13 13 13 13 13 13 13 13 13 4 35 247 3 33 248 5 37 245 13 13 13 13 13 13 13 13 13 13 13 13 13 13 13 13 13 13 13 13 13 13 13 13 13 13 13 13 13 13 13 13 13 10 48 236 13 13 13 13 13 13 13 13 13 13 13 13 13 13 13 13 13 13 13 13 13 13 13 13 13 13 13 13 13 13 13 13 13 13 13 13 13 13 13 13 13 13 13 13 13 3 33 248 13 13 13 13 13 13 13 13 13 13 13 13 13 13 13 13 13 13 12 55 230 13 13 13 13 13 13 13 13 13 13 13 13 13 13 13 13 13 13 13 13 13 13 13 13 13 13 13 13 13 13 13 13 13 13 13 13 13 13 13 13 13 13 13 13 13 13 13 13 13 13 13 13 13 13 13 13 13 13 13 13 13 13 13 13 13 13 13 13 13 13 13 13 13 13 13 13 13 13 13 13 13 13 13 13 13 13 13 13 13 13 13 13 13 13 13 13 13 13 13 13 13 13 13 13 13 13 13 13 13 13 13 13 13 13 13 13 13 13 13 13 13 13 13 13 13 13 13 13 13 13 13 13 13 13 13 13 13 13 13 13 13 13 13 13 13 13 13 13 13 13 13 13 13 13 13 13 13 13 13 13 13 13 13 13 13 13 13 13 13 13 13 13 13 13 13 13 13 13 13 13 13 13 13 13 13 13 13 13 13 13 13 13 13 13 13 13 13 13 13 13 13 13 13 13 13 13 13 
13 13 13 13 13 13 13 13 13 13 13 13 13 13 13 13 13 13 13 13 13 13 13 13 13 13 13 13 13 13 13 13 13 13 13 13 13 13 13 13 13 13 0 26 254 13 13 13 0 26 255 13 13 13 13 13 13 13 13 13 13 13 13 13 13 13 13 13 13 13 13 13 13 13 13 3 34 248 13 13 13 13 13 13 13 13 13 13 13 13 13 13 13 13 13 13 13 13 13 13 13 13 13 13 13 13 13 13 13 13 13 13 13 13 13 13 13 13 13 13 13 13 13 13 13 13 13 13 13 13 13 13 0 26 255 0 27 254 1 28 253 13 13 13 0 26 254 13 13 13 13 13 13 13 13 13 13 13 13 13 13 13 13 13 13 13 13 13 13 13 13 13 13 13 1 28 253 1 29 252 13 13 13 13 13 13 13 13 13 13 13 13 13 13 13 13 13 13 13 13 13 13 13 13 1 27 254 13 13 13 13 13 13 3 33 248 13 13 13 13 13 13 1 28 253 13 13 13 13 13 13 13 13 13 13 13 13 13 13 13 13 13 13 13 13 13 7 42 241 9 47 236 13 13 13 13 13 13 13 13 13 13 13 13 13 13 13 13 13 13 13 13 13 13 13 13 13 13 13 13 13 13 13 13 13 0 26 255 3 33 248 13 13 13 13 13 13 1 28 252 13 13 13 13 13 13 13 13 13 13 13 13 13 13 13 13 13 13 13 13 13 13 13 13 13 13 13 13 13 13 13 13 13 13 13 13 1 27 253 13 13 13 13 13 13 10 49 235 13 13 13 13 13 13 13 13 13 13 13 13 13 13 13 13 13 13 13 13 13 13 13 13 13 13 13 13 13 13 13 13 13 13 13 13 13 13 13 13 13 13 13 13 13 13 13 13 13 13 13 13 13 13 13 13 13 13 13 13 13 13 13 13 13 13 13 13 13 13 13 13 13 13 13 13 13 13 13 13 13 13 13 13 13 13 13 13 13 13 13 13 13 13 13 13 13 13 13 13 13 13 13 13 13 13 13 13 13 13 13 13 13 13 13 13 13 13 13 13 13 13 13 13 13 13 13 13 13 13 13 13 13 13 13 13 13 13 13 13 13 13 13 13 13 13 13 13 13 13 13 13 13 13 13 13 13 13 13 13 13 13 13 13 13 13 13 13 13 13 13 13 13 13 13 13 13 13 13 13 13 13 13 13 13 13 13 13 13 13 13 13 13 13 13 13 13 13 13 13 13 13 13 13 13 13 13 13 13 13 13 13 13 13 13 13 13 13 13 13 13 13 13 13 13 13 13 13 13 13 13 13 13 13 13 13 13 13 13 13 13 13 13 13 13 13 13 13 13 13 13 13 
1 27 254 13 13 13 13 13 13 13 13 13 13 13 13 13 13 13 13 13 13 13 13 13 13 13 13 13 13 13 13 13 13 13 13 13 13 13 13 13 13 13 13 13 13 13 13 13 13 13 13 13 13 13 13 13 13 13 13 13 13 13 13 13 13 13 13 13 13 13 13 13 13 13 13 13 13 13 13 13 13 13 13 13 13 13 13 13 13 13 13 13 13 13 13 13 13 13 13 13 13 13 13 13 13 13 13 13 13 13 13 13 13 13 13 13 13 13 13 13 13 13 13 13 13 13 13 13 13 13 13 13 13 13 13 1 27 254 0 26 254 13 13 13 13 13 13 13 13 13 13 13 13 13 13 13 13 13 13 13 13 13 13 13 13 2 29 252 13 13 13 13 13 13 13 13 13 1 27 254 0 26 254 13 13 13 1 27 253 13 13 13 13 13 13 13 13 13 13 13 13 13 13 13 13 13 13 1 28 253 13 13 13 13 13 13 13 13 13 13 13 13 13 13 13 0 26 255 13 13 13 13 13 13 13 13 13 13 13 13 0 26 255 1 29 252 13 13 13 14 57 228 13 13 13 13 13 13 8 43 240 13 13 13 13 13 13 13 13 13 13 13 13 13 13 13 13 13 13 13 13 13 13 13 13 13 13 13 13 13 13 13 13 13 5 38 244 13 13 13 1 27 254 6 41 242 13 13 13 13 13 13 13 13 13 13 13 13 13 13 13 13 13 13 13 13 13 13 13 13 13 13 13 13 13 13 13 13 13 13 13 13 13 13 13 13 13 13 13 13 13 13 13 13 13 13 13 13 13 13 13 13 13 13 13 13 13 13 13 13 13 13 13 13 13 13 13 13 13 13 13 13 13 13 16 64 222 13 13 13 5 36 246 13 13 13 13 13 13 13 13 13 13 13 13 13 13 13 13 13 13 13 13 13 13 13 13 13 13 13 13 13 13 13 13 13 13 13 13 13 13 13 13 13 13 13 13 13 13 13 13 13 13 13 13 13 13 13 13 13 13 13 13 13 13 13 13 13 13 13 13 13 13 13 13 13 13 13 13 13 13 13 13 13 13 13 13 13 13 13 13 13 13 13 13 13 13 13 13 13 13 13 13 13 13 13 13 13 13 13 13 13 13 13 13 13 13 13 13 13 13 13 13 13 13 13 13 13 13 13 13 13 13 13 13 13 13 13 13 13 13 13 13 13 13 13 13 13 13 13 13 13 13 13 13 13 13 13 13 13 13 13 13 13 13 13 13 13 13 13 13 13 13 13 13 13 13 13 13 13 13 13 13 13 13 13 13 13 13 13 13 13 13 13 13 13 13 13 13 13 13 13 13 13 13 13 13 13 13 13 
13 13 13 13 13 13 13 13 13 13 13 13 13 13 13 13 13 13 13 13 13 13 13 13 13 13 13 13 13 13 13 13 13 13 13 13 13 13 13 13 13 13 13 13 13 13 13 13 13 13 13 13 13 13 13 13 13 13 13 13 13 13 13 13 13 13 13 13 13 13 13 13 13 13 13 1 27 253 13 13 13 13 13 13 13 13 13 13 13 13 13 13 13 0 26 255 13 13 13 13 13 13 13 13 13 13 13 13 0 27 254 1 28 253 13 13 13 13 13 13 13 13 13 13 13 13 13 13 13 13 13 13 13 13 13 1 28 253 13 13 13 13 13 13 13 13 13 13 13 13 13 13 13 11 51 233 13 13 13 13 13 13 13 13 13 0 27 254 13 13 13 13 13 13 13 13 13 13 13 13 0 26 255 1 27 254 13 13 13 13 13 13 13 13 13 13 13 13 13 13 13 4 34 248 13 13 13 13 13 13 13 13 13 24 82 207 13 13 13 13 13 13 13 13 13 13 13 13 13 13 13 13 13 13 0 26 255 13 13 13 13 13 13 13 13 13 13 13 13 13 13 13 13 13 13 13 13 13 13 13 13 13 13 13 13 13 13 13 13 13 13 13 13 13 13 13 0 26 255 13 13 13 13 13 13 13 13 13 13 13 13 13 13 13 13 13 13 13 13 13 0 26 255 0 26 255 13 13 13 13 13 13 13 13 13 13 13 13 13 13 13 13 13 13 13 13 13 13 13 13 13 13 13 13 13 13 13 13 13 13 13 13 13 13 13 13 13 13 13 13 13 13 13 13 7 42 241 13 13 13 13 13 13 13 13 13 13 13 13 13 13 13 13 13 13 13 13 13 13 13 13 13 13 13 13 13 13 13 13 13 13 13 13 13 13 13 2 31 250 13 13 13 13 13 13 13 13 13 7 42 241 13 13 13 13 13 13 13 13 13 13 13 13 13 13 13 13 13 13 13 13 13 13 13 13 13 13 13 13 13 13 13 13 13 13 13 13 13 13 13 13 13 13 13 13 13 13 13 13 13 13 13 13 13 13 13 13 13 13 13 13 13 13 13 13 13 13 13 13 13 13 13 13 13 13 13 13 13 13 13 13 13 13 13 13 13 13 13 13 13 13 13 13 13 13 13 13 13 13 13 13 13 13 13 13 13 13 13 13 13 13 13 13 13 13 13 13 13 13 13 13 13 13 13 13 13 13 13 13 13 13 13 13 13 13 13 13 13 13 13 13 13 13 13 13 13 13 13 13 13 13 13 13 13 13 13 13 13 13 13 13 13 13 13 13 13 13 13 13 13 13 13 13 13 13 13 13 13 13 13 13 13 13 13 13 13 13 13 13 13 
2 30 251 13 13 13 13 13 13 13 13 13 13 13 13 13 13 13 13 13 13 13 13 13 1 27 254 13 13 13 13 13 13 1 27 254 13 13 13 13 13 13 13 13 13 13 13 13 13 13 13 13 13 13 13 13 13 13 13 13 7 42 240 13 13 13 13 13 13 13 13 13 13 13 13 13 13 13 1 28 253 13 13 13 13 13 13 13 13 13 13 13 13 2 30 251 13 13 13 13 13 13 0 26 255 0 26 255 0 27 254 1 28 253 3 33 249 13 13 13 13 13 13 13 13 13 1 27 253 1 27 254 13 13 13 13 13 13 0 26 255 13 13 13 13 13 13 13 13 13 13 13 13 13 13 13 13 13 13 13 13 13 13 13 13 13 13 13 13 13 13 13 13 13 13 13 13 13 13 13 13 13 13 13 13 13 13 13 13 13 13 13 13 13 13 13 13 13 13 13 13 13 13 13 13 13 13 13 13 13 13 13 13 13 13 13 13 13 13 13 13 13 13 13 13 1 27 253 13 13 13 13 13 13 13 13 13 13 13 13 13 13 13 13 13 13 13 13 13 13 13 13 13 13 13 13 13 13 13 13 13 13 13 13 13 13 13 13 13 13 13 13 13 13 13 13 3 33 249 13 13 13 13 13 13 13 13 13 13 13 13 13 13 13 13 13 13 13 13 13 13 13 13 13 13 13 13 13 13 13 13 13 13 13 13 13 13 13 13 13 13 13 13 13 13 13 13 13 13 13 13 13 13 13 13 13 13 13 13 13 13 13 13 13 13 13 13 13 13 13 13 13 13 13 13 13 13 13 13 13 13 13 13 13 13 13 13 13 13 13 13 13 13 13 13 13 13 13 13 13 13 13 13 13 13 13 13 13 13 13 13 13 13 13 13 13 13 13 13 13 13 13 13 13 13 13 13 13 13 13 13 13 13 13 13 13 13 13 13 13 13 13 13 13 13 13 13 13 13 13 13 13 13 13 13 13 13 13 13 13 13 13 13 13 13 13 13 13 13 13 13 13 13 13 13 13 13 13 13 13 13 13 13 13 13 13 13 13 13 13 13 13 13 13 13 13 13 13 13 13 13 13 13 13 13 13 13 13 13 13 13 13 13 13 13 13 13 13 13 13 13 13 13 13 13 13 13 13 13 13 13 13 13 13 13 13 13 13 13 13 13 13 13 13 13 13 13 13 13 13 13 13 13 13 13 13 13 13 13 13 13 13 13 13 13 13 13 13 13 13 13 13 13 13 13 13 13 13 13 13 13 13 13 13 13 13 13 13 13 13 13 13 13 13 13 13 13 13 13 13 13 13 13 13 13 13 13 13 13 13 13 13 13 13 13 13 13 13 13 13 
0 27 254 13 13 13 13 13 13 13 13 13 13 13 13 13 13 13 13 13 13 13 13 13 1 27 254 13 13 13 13 13 13 13 13 13 13 13 13 13 13 13 13 13 13 13 13 13 13 13 13 13 13 13 8 45 239 13 13 13 13 13 13 13 13 13 13 13 13 13 13 13 13 13 13 13 13 13 13 13 13 13 13 13 13 13 13 13 13 13 13 13 13 13 13 13 1 27 254 13 13 13 13 13 13 13 13 13 13 13 13 1 28 253 13 13 13 13 13 13 13 13 13 13 13 13 13 13 13 13 13 13 13 13 13 0 27 254 13 13 13 0 26 255 13 13 13 13 13 13 13 13 13 13 13 13 13 13 13 13 13 13 13 13 13 0 26 255 13 13 13 13 13 13 13 13 13 13 13 13 13 13 13 13 13 13 13 13 13 13 13 13 13 13 13 13 13 13 13 13 13 13 13 13 13 13 13 13 13 13 13 13 13 13 13 13 13 13 13 13 13 13 13 13 13 13 13 13 13 13 13 13 13 13 13 13 13 13 13 13 13 13 13 13 13 13 9 46 238 13 13 13 1 28 253 0 27 254 13 13 13 13 13 13 2 30 251 1 28 253 13 13 13 13 13 13 13 13 13 13 13 13 13 13 13 13 13 13 0 26 255 13 13 13 13 13 13 13 13 13 13 13 13 5 38 244 13 13 13 13 13 13 13 13 13 13 13 13 13 13 13 13 13 13 13 13 13 7 41 242 3 32 250 13 13 13 13 13 13 13 13 13 13 13 13 13 13 13 13 13 13 13 13 13 13 13 13 13 13 13 13 13 13 13 13 13 13 13 13 13 13 13 13 13 13 13 13 13 13 13 13 13 13 13 13 13 13 13 13 13 13 13 13 13 13 13 13 13 13 13 13 13 13 13 13 13 13 13 13 13 13 13 13 13 13 13 13 13 13 13 13 13 13 13 13 13 13 13 13 13 13 13 13 13 13 13 13 13 13 13 13 13 13 13 13 13 13 13 13 13 13 13 13 13 13 13 13 13 13 13 13 13 13 13 13 13 13 13 13 13 13 13 13 13 13 13 13 13 13 13 13 13 13 13 13 13 13 13 13 13 13 13 13 13 13 13 13 13 13 13 13 13 13 13 13 13 13 13 13 13 13 13 13 13 13 13 13 13 13 13 13 13 13 13 13 13 13 13 13 13 13 13 13 13 13 13 13 13 13 13 13 13 13 13 13 13 13 13 13 13 13 13 13 13 13 13 13 13 13 13 13 13 13 13 13 13 13 13 13 13 13 13 13 13 13 13 13 13 13 13 13 13 13 13 13 13 13 13 13 13 13 13 13 13 13 13 13 13 13 13 
32 101 191 13 13 13 13 13 13 13 13 13 13 13 13 13 13 13 13 13 13 13 13 13 13 13 13 13 13 13 13 13 13 13 13 13 13 13 13 13 13 13 13 13 13 13 13 13 13 13 13 13 13 13 13 13 13 13 13 13 13 13 13 13 13 13 13 13 13 3 32 250 13 13 13 13 13 13 13 13 13 13 13 13 13 13 13 13 13 13 13 13 13 0 26 255 1 27 254 1 27 254 13 13 13 13 13 13 13 13 13 13 13 13 1 28 253 13 13 13 13 13 13 0 26 255 13 13 13 13 13 13 13 13 13 13 13 13 13 13 13 13 13 13 13 13 13 13 13 13 13 13 13 13 13 13 13 13 13 13 13 13 2 31 250 1 28 253 5 36 246 13 13 13 13 13 13 13 13 13 13 13 13 1 28 253 13 13 13 13 13 13 13 13 13 5 38 244 13 13 13 13 13 13 13 13 13 13 13 13 1 27 254 13 13 13 13 13 13 13 13 13 13 13 13 5 38 244 13 13 13 13 13 13 13 13 13 13 13 13 12 53 231 13 13 13 13 13 13 2 31 250 1 28 253 1 28 253 13 13 13 13 13 13 13 13 13 13 13 13 13 13 13 14 59 226 13 13 13 13 13 13 13 13 13 13 13 13 13 13 13 13 13 13 13 13 13 13 13 13 13 13 13 13 13 13 13 13 13 13 13 13 13 13 13 13 13 13 13 13 13 13 13 13 13 13 13 13 13 13 13 13 13 13 13 13 12 53 232 13 13 13 13 13 13 13 13 13 13 13 13 13 13 13 13 13 13 13 13 13 13 13 13 13 13 13 13 13 13 13 13 13 13 13 13 13 13 13 13 13 13 13 13 13 13 13 13 13 13 13 4 35 247 13 13 13 13 13 13 5 38 244 13 13 13 13 13 13 13 13 13 13 13 13 13 13 13 13 13 13 13 13 13 13 13 13 13 13 13 13 13 13 13 13 13 13 13 13 13 13 13 13 13 13 13 13 13 13 13 13 13 13 13 13 13 13 13 13 13 13 13 13 13 13 13 13 13 13 13 13 13 13 13 13 13 13 13 13 13 13 13 13 13 13 13 13 13 13 13 13 13 13 13 13 13 13 13 13 13 13 13 13 13 13 13 13 13 13 13 13 13 13 13 13 13 13 13 13 13 13 13 13 13 13 13 13 13 13 13 13 13 13 13 13 13 13 13 13 13 13 13 13 13 13 13 13 13 13 13 13 13 13 13 13 13 13 13 13 13 13 13 13 13 13 13 13 13 13 13 13 13 13 13 13 13 13 13 13 13 13 13 13 13 13 13 13 13 13 13 13 13 13 13 13 13 13 13 13 13 13 
9 46 238 13 13 13 13 13 13 13 13 13 13 13 13 13 13 13 13 13 13 13 13 13 13 13 13 13 13 13 13 13 13 13 13 13 13 13 13 13 13 13 13 13 13 13 13 13 13 13 13 13 13 13 1 28 253 13 13 13 13 13 13 13 13 13 13 13 13 13 13 13 1 28 253 13 13 13 13 13 13 13 13 13 13 13 13 13 13 13 13 13 13 13 13 13 13 13 13 13 13 13 13 13 13 13 13 13 2 31 250 13 13 13 13 13 13 13 13 13 0 26 255 13 13 13 13 13 13 13 13 13 13 13 13 13 13 13 13 13 13 13 13 13 13 13 13 0 27 254 13 13 13 13 13 13 13 13 13 13 13 13 13 13 13 0 26 255 13 13 13 13 13 13 13 13 13 13 13 13 13 13 13 13 13 13 13 13 13 0 26 254 13 13 13 13 13 13 13 13 13 2 31 251 13 13 13 13 13 13 13 13 13 13 13 13 13 13 13 0 27 254 13 13 13 13 13 13 1 27 253 13 13 13 1 27 254 13 13 13 13 13 13 13 13 13 13 13 13 4 34 248 1 28 253 13 13 13 13 13 13 2 29 252 13 13 13 13 13 13 13 13 13 13 13 13 13 13 13 13 13 13 13 13 13 5 38 244 13 13 13 13 13 13 13 13 13 13 13 13 13 13 13 13 13 13 13 13 13 13 13 13 13 13 13 13 13 13 13 13 13 13 13 13 13 13 13 13 13 13 13 13 13 13 13 13 13 13 13 13 13 13 13 13 13 13 13 13 22 76 211 13 13 13 13 13 13 13 13 13 13 13 13 13 13 13 13 13 13 13 13 13 13 13 13 13 13 13 13 13 13 13 13 13 13 13 13 13 13 13 13 13 13 13 13 13 13 13 13 13 13 13 6 39 243 5 38 244 13 13 13 13 13 13 13 13 13 13 13 13 13 13 13 13 13 13 13 13 13 13 13 13 13 13 13 13 13 13 13 13 13 13 13 13 13 13 13 13 13 13 13 13 13 13 13 13 13 13 13 13 13 13 13 13 13 13 13 13 13 13 13 13 13 13 13 13 13 13 13 13 13 13 13 13 13 13 13 13 13 13 13 13 13 13 13 13 13 13 13 13 13 13 13 13 13 13 13 13 13 13 13 13 13 13 13 13 13 13 13 13 13 13 13 13 13 13 13 13 13 13 13 13 13 13 13 13 13 13 13 13 13 13 13 13 13 13 13 13 13 13 13 13 13 13 13 13 13 13 13 13 13 13 13 13 13 13 13 13 13 13 13 13 13 13 13 13 13 13 13 13 13 13 13 13 13 13 13 13 13 13 13 13 13 13 13 13 13 13 13 13 
13 13 13 13 13 13 13 13 13 13 13 13 13 13 13 13 13 13 13 13 13 1 28 253 13 13 13 13 13 13 13 13 13 13 13 13 13 13 13 13 13 13 13 13 13 13 13 13 13 13 13 13 13 13 13 13 13 13 13 13 13 13 13 13 13 13 13 13 13 13 13 13 13 13 13 13 13 13 13 13 13 13 13 13 13 13 13 13 13 13 13 13 13 13 13 13 13 13 13 13 13 13 13 13 13 13 13 13 13 13 13 13 13 13 13 13 13 13 13 13 13 13 13 13 13 13 13 13 13 2 31 251 13 13 13 13 13 13 13 13 13 13 13 13 13 13 13 13 13 13 13 13 13 13 13 13 13 13 13 13 13 13 13 13 13 13 13 13 13 13 13 13 13 13 13 13 13 13 13 13 13 13 13 13 13 13 13 13 13 13 13 13 13 13 13 13 13 13 1 28 253 13 13 13 13 13 13 13 13 13 13 13 13 13 13 13 13 13 13 13 13 13 13 13 13 13 13 13 13 13 13 13 13 13 13 13 13 13 13 13 13 13 13 13 13 13 13 13 13 13 13 13 13 13 13 13 13 13 13 13 13 13 13 13 13 13 13 13 13 13 13 13 13 13 13 13 13 13 13 13 13 13 13 13 13 13 13 13 13 13 13 13 13 13 13 13 13 13 13 13 13 13 13 13 13 13 13 13 13 13 13 13 13 13 13 13 13 13 13 13 13 13 13 13 13 13 13 13 13 13 13 13 13 5 37 245 13 13 13 13 13 13 13 13 13 13 13 13 13 13 13 13 13 13 13 13 13 13 13 13 13 13 13 13 13 13 13 13 13 13 13 13 13 13 13 13 13 13 13 13 13 13 13 13 13 13 13 13 13 13 13 13 13 13 13 13 13 13 13 6 41 242 13 13 13 7 41 241 13 13 13 13 13 13 13 13 13 13 13 13 13 13 13 13 13 13 13 13 13 13 13 13 13 13 13 13 13 13 13 13 13 13 13 13 13 13 13 13 13 13 13 13 13 13 13 13 13 13 13 13 13 13 13 13 13 13 13 13 13 13 13 13 13 13 13 13 13 13 13 13 13 13 13 13 13 13 13 13 13 13 13 13 13 13 13 13 13 13 13 13 13 13 13 13 13 13 13 13 13 13 13 13 13 13 13 13 13 13 13 13 13 13 13 13 13 13 13 13 13 13 13 13 13 13 13 13 13 13 13 13 13 13 13 13 13 13 13 13 13 13 13 13 13 13 13 13 13 13 13 13 13 13 13 13 13 13 13 13 13 13 13 13 13 13 13 13 13 13 13 13 13 13 13 13 13 13 13 13 13 13 13 13 13 13 13 13 13 13 13 13 
13 13 13 13 13 13 13 13 13 13 13 13 13 13 13 13 13 13 13 13 13 13 13 13 13 13 13 13 13 13 13 13 13 13 13 13 13 13 13 1 28 253 13 13 13 0 26 255 13 13 13 13 13 13 13 13 13 13 13 13 13 13 13 13 13 13 13 13 13 13 13 13 13 13 13 13 13 13 13 13 13 13 13 13 13 13 13 13 13 13 13 13 13 13 13 13 13 13 13 13 13 13 13 13 13 13 13 13 13 13 13 0 26 254 13 13 13 13 13 13 13 13 13 13 13 13 13 13 13 13 13 13 13 13 13 13 13 13 13 13 13 13 13 13 13 13 13 13 13 13 13 13 13 38 114 179 2 30 251 13 13 13 13 13 13 13 13 13 13 13 13 8 43 240 2 31 250 13 13 13 13 13 13 13 13 13 0 26 255 13 13 13 13 13 13 13 13 13 13 13 13 13 13 13 13 13 13 13 13 13 13 13 13 13 13 13 13 13 13 13 13 13 13 13 13 13 13 13 13 13 13 13 13 13 0 27 254 13 13 13 13 13 13 5 37 245 13 13 13 13 13 13 13 13 13 0 26 255 13 13 13 13 13 13 13 13 13 13 13 13 13 13 13 13 13 13 5 37 245 13 13 13 13 13 13 13 13 13 13 13 13 6 39 244 13 13 13 13 13 13 13 13 13 13 13 13 13 13 13 13 13 13 13 13 13 13 13 13 13 13 13 13 13 13 5 37 245 13 13 13 13 13 13 13 13 13 13 13 13 13 13 13 13 13 13 13 13 13 13 13 13 13 13 13 13 13 13 13 13 13 13 13 13 13 13 13 13 13 13 13 13 13 13 13 13 13 13 13 13 13 13 13 13 13 13 13 13 13 13 13 13 13 13 13 13 13 13 13 13 13 13 13 13 13 13 13 13 13 13 13 13 13 13 13 13 13 13 13 13 13 13 13 13 13 13 13 13 13 13 13 13 13 13 13 13 13 13 13 13 13 13 13 13 13 13 13 13 13 13 13 13 13 13 13 13 13 13 13 13 13 13 13 13 13 13 13 13 13 13 13 13 13 13 13 13 13 13 13 13 13 13 13 13 13 13 13 13 13 13 13 13 13 13 13 13 13 13 13 13 13 13 13 13 13 13 13 13 13 13 13 13 13 13 13 13 13 13 13 13 13 13 13 13 13 13 13 13 13 13 13 13 13 13 13 13 13 13 13 13 13 13 13 13 13 13 13 13 13 13 13 13 13 13 13 13 13 13 13 13 13 13 13 13 13 13 13 13 13 13 13 13 13 13 13 13 13 13 13 13 13 13 13 13 13 13 13 13 13 13 13 13 13 13 13 13 13 13 13 13 13 
13 13 13 13 13 13 13 13 13 13 13 13 13 13 13 13 13 13 13 13 13 0 26 255 13 13 13 13 13 13 13 13 13 13 13 13 13 13 13 13 13 13 13 13 13 13 13 13 13 13 13 13 13 13 13 13 13 13 13 13 13 13 13 13 13 13 13 13 13 13 13 13 13 13 13 13 13 13 13 13 13 13 13 13 13 13 13 13 13 13 13 13 13 13 13 13 13 13 13 2 30 251 13 13 13 13 13 13 13 13 13 13 13 13 13 13 13 13 13 13 13 13 13 13 13 13 13 13 13 13 13 13 13 13 13 13 13 13 13 13 13 13 13 13 13 13 13 13 13 13 13 13 13 13 13 13 13 13 13 13 13 13 0 26 255 13 13 13 13 13 13 13 13 13 13 13 13 13 13 13 4 35 247 2 30 251 13 13 13 13 13 13 13 13 13 13 13 13 13 13 13 13 13 13 13 13 13 13 13 13 5 38 244 13 13 13 13 13 13 4 35 247 13 13 13 13 13 13 13 13 13 0 27 254 0 26 254 0 26 254 13 13 13 13 13 13 13 13 13 13 13 13 13 13 13 13 13 13 13 13 13 13 13 13 13 13 13 13 13 13 13 13 13 13 13 13 13 13 13 13 13 13 13 13 13 13 13 13 13 13 13 13 13 13 13 13 13 13 13 13 13 13 13 13 13 13 13 55 230 13 13 13 13 13 13 13 13 13 13 13 13 13 13 13 13 13 13 13 13 13 13 13 13 13 13 13 13 13 13 13 13 13 13 13 13 13 13 13 13 13 13 13 13 13 13 13 13 13 13 13 13 13 13 13 13 13 13 13 13 13 13 13 13 13 13 13 13 13 13 13 13 13 13 13 13 13 13 13 13 13 13 13 13 13 13 13 13 13 13 13 13 13 6 39 244 13 13 13 13 13 13 13 13 13 13 13 13 13 13 13 13 13 13 13 13 13 13 13 13 13 13 13 13 13 13 13 13 13 13 13 13 13 13 13 13 13 13 13 13 13 13 13 13 13 13 13 13 13 13 13 13 13 13 13 13 13 13 13 13 13 13 13 13 13 13 13 13 13 13 13 13 13 13 13 13 13 13 13 13 13 13 13 13 13 13 13 13 13 13 13 13 13 13 13 13 13 13 13 13 13 13 13 13 13 13 13 13 13 13 13 13 13 13 13 13 13 13 13 13 13 13 13 13 13 13 13 13 13 13 13 13 13 13 13 13 13 13 13 13 13 13 13 13 13 13 13 13 13 13 13 13 13 13 13 13 13 13 13 13 13 13 13 13 13 13 13 13 13 13 13 13 13 13 13 13 13 13 13 13 13 13 13 13 13 13 13 13 13 13 13 
1 27 254 13 13 13 13 13 13 13 13 13 13 13 13 13 13 13 13 13 13 13 13 13 13 13 13 13 13 13 13 13 13 13 13 13 13 13 13 13 13 13 13 13 13 13 13 13 13 13 13 13 13 13 13 13 13 13 13 13 13 13 13 13 13 13 13 13 13 13 13 13 13 13 13 2 30 252 13 13 13 13 13 13 13 13 13 1 27 254 0 27 254 13 13 13 11 51 233 13 13 13 13 13 13 13 13 13 13 13 13 13 13 13 13 13 13 13 13 13 0 26 255 13 13 13 13 13 13 13 13 13 13 13 13 13 13 13 13 13 13 13 13 13 13 13 13 13 13 13 13 13 13 13 13 13 13 13 13 13 13 13 13 13 13 13 13 13 13 13 13 13 13 13 0 26 254 2 30 251 13 13 13 13 13 13 13 13 13 0 26 255 13 13 13 13 13 13 13 13 13 13 13 13 13 13 13 13 13 13 13 13 13 13 13 13 13 13 13 13 13 13 13 13 13 13 13 13 0 27 254 13 13 13 6 39 244 13 13 13 13 13 13 13 13 13 13 13 13 13 13 13 13 13 13 13 13 13 13 13 13 0 26 255 13 13 13 0 27 254 13 13 13 13 13 13 5 38 244 13 13 13 13 13 13 13 13 13 13 13 13 13 13 13 13 13 13 13 13 13 13 13 13 5 37 245 1 27 254 13 13 13 13 13 13 13 13 13 13 13 13 0 26 255 13 13 13 13 13 13 1 28 253 13 13 13 13 13 13 13 13 13 13 13 13 3 33 249 13 13 13 13 13 13 13 13 13 13 13 13 13 13 13 13 13 13 13 13 13 13 13 13 13 13 13 13 13 13 13 13 13 3 34 248 13 13 13 13 13 13 13 13 13 13 13 13 13 13 13 13 13 13 13 13 13 13 13 13 13 13 13 13 13 13 13 13 13 13 13 13 13 13 13 13 13 13 13 13 13 13 13 13 13 13 13 13 13 13 13 13 13 13 13 13 13 13 13 13 13 13 13 13 13 13 13 13 13 13 13 13 13 13 13 13 13 13 13 13 13 13 13 13 13 13 13 13 13 13 13 13 13 13 13 13 13 13 13 13 13 13 13 13 13 13 13 13 13 13 13 13 13 13 13 13 13 13 13 13 13 13 13 13 13 13 13 13 13 13 13 13 13 13 13 13 13 13 13 13 13 13 13 13 13 13 13 13 13 13 13 13 13 13 13 13 13 13 13 13 13 13 13 13 13 13 13 13 13 13 13 13 13 13 13 13 13 13 13 13 13 13 13 13 13 13 13 13 13 13 13 13 13 13 13 13 13 13 13 13 13 13 13 13 13 13 13 13 13 13 13 13 
13 13 13 13 13 13 4 34 247 13 13 13 13 13 13 1 29 252 13 13 13 13 13 13 13 13 13 13 13 13 13 13 13 13 13 13 13 13 13 13 13 13 13 13 13 13 13 13 13 13 13 13 13 13 13 13 13 13 13 13 3 32 250 13 13 13 13 13 13 13 13 13 13 13 13 13 13 13 13 13 13 13 13 13 13 13 13 13 13 13 13 13 13 13 13 13 13 13 13 13 13 13 13 13 13 13 13 13 13 13 13 13 13 13 13 13 13 13 13 13 13 13 13 13 13 13 13 13 13 4 34 248 13 13 13 13 13 13 13 13 13 13 13 13 13 13 13 13 13 13 13 13 13 13 13 13 13 13 13 13 13 13 0 26 255 13 13 13 28 90 200 13 13 13 3 33 248 0 27 254 13 13 13 13 13 13 13 13 13 13 13 13 13 13 13 13 13 13 13 13 13 1 27 253 13 13 13 13 13 13 13 13 13 13 13 13 13 13 13 13 13 13 13 13 13 13 13 13 13 13 13 13 13 13 13 13 13 13 13 13 13 13 13 13 13 13 13 13 13 13 13 13 1 28 253 13 13 13 13 13 13 13 13 13 13 13 13 13 13 13 13 13 13 13 13 13 13 13 13 13 13 13 13 13 13 13 13 13 13 13 13 13 13 13 1 27 254 13 13 13 13 13 13 13 13 13 13 13 13 13 13 13 13 13 13 13 13 13 13 13 13 13 13 13 13 13 13 7 41 241 17 65 221 13 13 13 13 13 13 13 13 13 13 13 13 13 13 13 13 13 13 44 127 168 13 13 13 13 13 13 13 13 13 13 13 13 13 13 13 13 13 13 13 13 13 13 13 13 13 13 13 13 13 13 13 13 13 13 13 13 13 13 13 13 13 13 13 13 13 4 35 246 13 13 13 13 13 13 13 13 13 13 13 13 13 13 13 13 13 13 13 13 13 13 13 13 13 13 13 13 13 13 13 13 13 13 13 13 17 66 220 16 64 222 13 13 13 13 13 13 13 13 13 13 13 13 13 13 13 13 13 13 13 13 13 13 13 13 13 13 13 13 13 13 13 13 13 13 13 13 13 13 13 13 13 13 13 13 13 13 13 13 13 13 13 13 13 13 13 13 13 13 13 13 13 13 13 13 13 13 13 13 13 13 13 13 13 13 13 13 13 13 13 13 13 13 13 13 13 13 13 13 13 13 13 13 13 13 13 13 13 13 13 13 13 13 13 13 13 13 13 13 13 13 13 13 13 13 13 13 13 13 13 13 13 13 13 13 13 13 13 13 13 13 13 13 13 13 13 13 13 13 13 13 13 13 13 13 13 13 13 13 13 13 13 13 13 13 13 13 
13 13 13 13 13 13 13 13 13 13 13 13 13 13 13 13 13 13 13 13 13 13 13 13 13 13 13 13 13 13 13 13 13 13 13 13 13 13 13 13 13 13 13 13 13 13 13 13 13 13 13 13 13 13 13 13 13 13 13 13 13 13 13 13 13 13 13 13 13 13 13 13 13 13 13 13 13 13 13 13 13 13 13 13 13 13 13 13 13 13 13 13 13 13 13 13 13 13 13 13 13 13 13 13 13 13 13 13 13 13 13 13 13 13 13 13 13 13 13 13 13 13 13 13 13 13 13 13 13 13 13 13 13 13 13 13 13 13 13 13 13 13 13 13 13 13 13 13 13 13 13 13 13 13 13 13 13 13 13 13 13 13 13 13 13 13 13 13 13 13 13 13 13 13 13 13 13 13 13 13 13 13 13 13 13 13 13 13 13 13 13 13 13 13 13 13 13 13 13 13 13 13 13 13 13 13 13 13 13 13 13 13 13 1 28 253 13 13 13 13 13 13 13 13 13 13 13 13 13 13 13 13 13 13 13 13 13 13 13 13 5 37 245 13 13 13 13 13 13 0 26 255 13 13 13 1 28 253 13 13 13 13 13 13 13 13 13 5 37 245 13 13 13 13 13 13 13 13 13 13 13 13 13 13 13 13 13 13 2 31 250 13 13 13 13 13 13 13 13 13 13 13 13 13 13 13 13 13 13 13 13 13 13 13 13 5 37 245 13 13 13 13 13 13 13 55 230 13 13 13 13 13 13 13 13 13 13 13 13 13 13 13 13 13 13 13 13 13 13 13 13 13 13 13 13 13 13 13 13 13 13 13 13 13 13 13 5 37 245 13 13 13 13 13 13 13 13 13 13 13 13 13 13 13 13 13 13 13 13 13 13 13 13 13 13 13 13 13 13 2 31 251 13 13 13 13 13 13 13 13 13 13 13 13 13 13 13 13 13 13 13 13 13 13 13 13 13 13 13 13 13 13 13 13 13 13 13 13 13 13 13 13 13 13 13 13 13 13 13 13 13 13 13 13 13 13 13 13 13 13 13 13 13 13 13 13 13 13 13 13 13 13 13 13 13 13 13 13 13 13 13 13 13 13 13 13 13 13 13 13 13 13 13 13 13 13 13 13 13 13 13 13 13 13 13 13 13 13 13 13 13 13 13 13 13 13 13 13 13 13 13 13 13 13 13 13 13 13 13 13 13 13 13 13 13 13 13 13 13 13 13 13 13 13 13 13 13 13 13 13 13 13 13 13 13 13 13 13 13 13 13 13 13 13 13 13 13 13 13 13 13 13 13 13 13 13 13 13 13 13 13 13 13 13 13 13 13 13 13 13 13 13 13 13 13 13 13 13 13 13 
13 13 13 13 13 13 13 13 13 13 13 13 3 32 249 13 13 13 13 13 13 13 13 13 13 13 13 13 13 13 13 13 13 13 13 13 13 13 13 13 13 13 13 13 13 13 13 13 13 13 13 13 13 13 13 13 13 13 13 13 13 13 13 13 13 13 13 13 13 1 27 254 13 13 13 13 13 13 13 13 13 13 13 13 0 26 255 13 13 13 13 13 13 13 13 13 13 13 13 13 13 13 2 30 251 13 13 13 13 13 13 13 13 13 13 13 13 13 13 13 13 13 13 13 13 13 13 13 13 13 13 13 13 13 13 13 13 13 13 13 13 13 13 13 13 13 13 13 13 13 13 13 13 13 13 13 13 13 13 13 13 13 13 13 13 13 13 13 13 13 13 13 13 13 13 13 13 13 13 13 13 13 13 13 13 13 13 13 13 13 13 13 1 28 253 13 13 13 13 13 13 13 13 13 13 13 13 5 37 245 13 13 13 13 13 13 13 13 13 13 13 13 13 13 13 13 13 13 13 13 13 13 13 13 13 13 13 13 13 13 13 13 13 13 13 13 13 13 13 13 13 13 13 13 13 13 13 13 13 13 13 13 13 13 13 13 13 13 13 13 13 13 13 13 13 13 13 13 13 13 13 13 13 13 13 13 13 13 13 13 13 13 13 13 1 28 252 1 28 252 13 13 13 13 13 13 13 13 13 13 13 13 13 13 13 13 13 13 13 13 13 5 37 245 13 13 13 13 13 13 13 13 13 13 13 13 5 37 245 13 13 13 4 34 247 13 13 13 13 13 13 13 13 13 13 13 13 13 13 13 13 13 13 13 13 13 13 13 13 13 13 13 13 13 13 13 13 13 13 13 13 13 13 13 13 13 13 13 13 13 13 13 13 13 13 13 13 13 13 13 13 13 13 13 13 13 13 13 13 13 13 13 13 13 13 13 13 13 13 13 13 13 13 13 13 13 13 13 13 13 13 13 13 13 13 13 13 13 13 13 13 13 13 13 13 13 13 13 13 13 13 13 13 13 13 13 17 65 221 13 13 13 13 13 13 13 13 13 13 13 13 13 13 13 13 13 13 13 13 13 13 13 13 13 13 13 13 13 13 13 13 13 13 13 13 13 13 13 13 13 13 13 13 13 13 13 13 13 13 13 13 13 13 11 51 233 13 13 13 13 13 13 13 13 13 13 13 13 13 13 13 13 13 13 13 13 13 13 13 13 13 13 13 13 13 13 13 13 13 13 13 13 13 13 13 13 13 13 13 13 13 13 13 13 43 127 168 13 13 13 13 13 13 13 13 13 13 13 13 13 13 13 13 13 13 13 13 13 13 13 13 13 13 13 13 13 13 13 13 13 
13 13 13 13 13 13 13 13 13 13 13 13 13 13 13 13 13 13 13 13 13 13 13 13 13 13 13 13 13 13 13 13 13 13 13 13 13 13 13 13 13 13 13 13 13 13 13 13 13 13 13 13 13 13 13 13 13 13 13 13 13 13 13 13 13 13 13 13 13 13 13 13 13 13 13 13 13 13 13 13 13 13 13 13 13 13 13 13 13 13 13 13 13 13 13 13 13 13 13 13 13 13 13 13 13 13 13 13 1 29 252 0 26 255 13 13 13 13 13 13 13 13 13 13 13 13 13 13 13 1 28 253 13 13 13 13 13 13 13 13 13 13 13 13 13 13 13 13 13 13 13 13 13 13 13 13 13 13 13 13 13 13 13 13 13 13 13 13 13 13 13 13 13 13 13 13 13 13 13 13 13 13 13 13 13 13 0 26 255 13 13 13 1 27 254 13 13 13 13 13 13 13 13 13 13 13 13 1 28 253 3 33 248 13 13 13 13 13 13 13 13 13 2 30 251 13 13 13 13 13 13 13 13 13 13 13 13 13 13 13 13 13 13 13 13 13 0 26 255 13 13 13 13 13 13 13 13 13 13 13 13 13 13 13 13 13 13 13 13 13 13 13 13 13 13 13 13 13 13 13 13 13 13 13 13 13 13 13 13 13 13 13 13 13 1 28 252 1 28 252 13 13 13 13 13 13 13 13 13 13 13 13 13 13 13 27 89 201 13 13 13 13 13 13 13 13 13 13 13 13 13 13 13 13 13 13 13 13 13 13 13 13 13 13 13 13 13 13 13 13 13 5 38 244 13 13 13 13 13 13 13 13 13 11 51 233 13 13 13 13 13 13 13 13 13 13 13 13 5 37 245 10 48 235 13 13 13 13 13 13 13 13 13 13 13 13 13 13 13 13 13 13 13 13 13 13 13 13 13 13 13 13 13 13 13 13 13 13 13 13 13 13 13 13 13 13 13 13 13 13 13 13 11 51 233 13 13 13 13 13 13 13 13 13 13 13 13 13 13 13 13 13 13 13 13 13 13 13 13 13 13 13 13 13 13 13 13 13 13 13 13 13 13 13 13 13 13 13 13 13 13 13 13 13 13 13 13 13 13 13 13 13 13 13 13 13 13 13 13 13 13 7 41 241 13 13 13 13 13 13 13 13 13 13 13 13 13 13 13 13 13 13 13 13 13 13 13 13 13 13 13 13 13 13 13 13 13 13 13 13 13 13 13 13 13 13 13 13 13 13 13 13 13 13 13 13 13 13 13 13 13 13 13 13 13 13 13 13 13 13 13 13 13 13 13 13 13 13 13 13 13 13 13 13 13 13 13 13 13 13 13 13 13 13 13 13 13 13 13 13 
13 13 13 13 13 13 13 13 13 13 13 13 13 13 13 13 13 13 13 13 13 13 13 13 13 13 13 13 13 13 13 13 13 13 13 13 13 13 13 13 13 13 13 13 13 13 13 13 13 13 13 13 13 13 13 13 13 13 13 13 13 13 13 13 13 13 13 13 13 13 13 13 13 13 13 13 13 13 13 13 13 13 13 13 13 13 13 13 13 13 13 13 13 13 13 13 13 13 13 13 13 13 13 13 13 13 13 13 13 13 13 13 13 13 13 13 13 13 13 13 13 13 13 13 13 13 13 13 13 13 13 13 13 13 13 13 13 13 13 13 13 13 13 13 13 13 13 13 13 13 13 13 13 5 37 245 1 28 253 13 13 13 11 51 233 13 13 13 13 13 13 13 13 13 13 13 13 13 13 13 13 13 13 13 13 13 13 13 13 13 13 13 13 13 13 1 28 253 13 13 13 1 28 253 0 26 255 1 28 253 2 30 251 2 31 251 13 13 13 13 13 13 13 13 13 13 13 13 13 13 13 13 13 13 13 13 13 5 38 244 13 13 13 13 13 13 13 13 13 13 13 13 13 13 13 13 13 13 13 13 13 2 30 251 13 13 13 0 26 254 6 39 244 13 13 13 13 13 13 13 13 13 13 13 13 13 13 13 13 13 13 13 13 13 13 13 13 13 13 13 13 13 13 13 13 13 13 13 13 4 35 247 5 37 245 13 13 13 13 13 13 13 13 13 13 13 13 5 37 245 1 29 252 13 13 13 13 13 13 13 13 13 13 13 13 13 13 13 13 13 13 13 13 13 13 13 13 13 13 13 13 13 13 13 13 13 13 13 13 13 13 13 13 13 13 13 13 13 8 43 240 13 13 13 13 13 13 13 13 13 13 13 13 13 13 13 13 13 13 13 13 13 13 13 13 13 13 13 13 13 13 13 13 13 13 13 13 13 13 13 13 13 13 13 13 13 13 13 13 13 13 13 13 13 13 13 13 13 13 13 13 13 13 13 13 13 13 13 13 13 13 13 13 13 13 13 13 13 13 13 13 13 13 13 13 13 13 13 13 13 13 13 13 13 13 13 13 13 13 13 13 13 13 13 13 13 13 13 13 13 13 13 13 13 13 13 13 13 13 13 13 13 13 13 13 13 13 13 13 13 13 13 13 13 13 13 13 13 13 13 13 13 13 13 13 13 13 13 13 13 13 13 13 13 13 13 13 13 13 13 13 13 13 13 13 13 13 13 13 13 13 13 13 13 13 13 13 13 13 13 13 13 13 13 13 13 13 13 13 13 13 13 13 13 13 13 13 13 13 13 13 13 13 13 13 13 13 13 13 13 13 13 13 13 13 13 13 13 13 13 
13 13 13 13 13 13 13 13 13 13 13 13 13 13 13 13 13 13 13 13 13 13 13 13 13 13 13 13 13 13 13 13 13 13 13 13 13 13 13 13 13 13 13 13 13 13 13 13 13 13 13 13 13 13 13 13 13 13 13 13 13 13 13 13 13 13 13 13 13 13 13 13 13 13 13 13 13 13 13 13 13 13 13 13 13 13 13 13 13 13 13 13 13 13 13 13 13 13 13 13 13 13 13 13 13 13 13 13 13 13 13 13 13 13 13 13 13 13 13 13 13 13 13 13 13 13 13 13 13 13 13 13 13 13 13 13 13 13 13 13 13 13 13 13 13 13 13 13 13 13 13 13 13 3 33 249 13 13 13 13 13 13 13 13 13 13 13 13 13 13 13 13 13 13 13 13 13 13 13 13 5 38 244 13 13 13 13 13 13 13 13 13 1 27 254 2 30 251 2 30 251 1 28 253 13 13 13 0 27 254 2 31 250 2 31 250 5 38 244 13 13 13 13 13 13 5 37 245 13 13 13 13 13 13 13 13 13 9 46 237 13 13 13 13 13 13 13 13 13 13 13 13 13 13 13 13 13 13 13 13 13 13 13 13 3 34 248 13 13 13 13 13 13 13 13 13 13 13 13 13 13 13 13 13 13 13 13 13 13 13 13 13 13 13 13 13 13 13 13 13 13 13 13 13 13 13 13 13 13 13 13 13 6 39 243 0 26 255 13 13 13 5 37 245 13 13 13 3 33 249 3 33 249 2 29 252 13 13 13 1 27 254 13 13 13 13 13 13 13 13 13 13 13 13 13 13 13 13 13 13 13 13 13 13 13 13 13 13 13 13 13 13 13 13 13 29 94 196 13 13 13 13 13 13 13 13 13 13 13 13 13 13 13 13 13 13 13 13 13 13 13 13 13 13 13 2 30 251 13 13 13 13 13 13 13 13 13 13 13 13 13 13 13 13 13 13 13 13 13 13 13 13 13 13 13 13 13 13 13 13 13 13 13 13 13 13 13 13 13 13 13 13 13 13 13 13 13 13 13 13 13 13 13 13 13 13 13 13 13 13 13 13 13 13 13 13 13 13 13 13 13 13 13 13 13 13 13 13 13 13 13 13 13 13 13 13 13 13 13 13 13 13 13 13 13 13 13 13 13 13 13 13 13 13 13 13 13 13 13 13 13 13 13 13 13 13 13 13 13 13 13 13 13 13 13 13 13 13 13 13 13 13 13 13 13 13 13 13 13 13 13 13 13 13 13 13 13 13 13 13 13 13 13 13 13 13 13 13 13 13 13 13 13 18 67 220 13 13 13 13 13 13 13 13 13 13 13 13 13 13 13 13 13 13 13 13 13 13 13 13 
13 13 13 13 13 13 13 13 13 13 13 13 13 13 13 13 13 13 13 13 13 13 13 13 13 13 13 13 13 13 13 13 13 13 13 13 13 13 13 13 13 13 13 13 13 13 13 13 13 13 13 13 13 13 13 13 13 13 13 13 13 13 13 13 13 13 13 13 13 13 13 13 13 13 13 13 13 13 13 13 13 13 13 13 13 13 13 13 13 13 13 13 13 13 13 13 13 13 13 13 13 13 13 13 13 13 13 13 13 13 13 13 13 13 13 13 13 13 13 13 13 13 13 13 13 13 13 13 13 13 13 13 13 13 13 13 13 13 13 13 13 13 13 13 13 13 13 13 13 13 0 26 254 13 13 13 13 13 13 13 13 13 13 13 13 13 13 13 13 13 13 13 13 13 13 13 13 13 13 13 13 13 13 13 13 13 13 13 13 13 13 13 13 13 13 2 30 251 5 38 244 13 13 13 0 26 255 13 13 13 2 31 250 13 13 13 13 13 13 5 38 244 13 13 13 13 13 13 6 40 243 6 40 243 13 13 13 13 13 13 5 38 244 13 13 13 13 13 13 13 13 13 2 31 251 13 13 13 13 13 13 5 38 244 13 13 13 13 13 13 13 13 13 13 13 13 13 56 229 13 13 13 13 13 13 13 13 13 2 31 251 13 13 13 13 13 13 4 34 247 13 13 13 13 13 13 0 26 255 13 13 13 13 13 13 13 13 13 13 13 13 13 13 13 28 91 199 13 13 13 0 26 255 5 37 245 2 29 252 13 13 13 13 13 13 13 13 13 13 13 13 13 13 13 13 13 13 13 13 13 13 13 13 13 13 13 13 13 13 13 13 13 13 13 13 13 13 13 13 13 13 13 13 13 13 13 13 13 13 13 13 13 13 13 13 13 13 13 13 13 13 13 13 13 13 13 13 13 13 13 13 13 13 13 13 13 13 13 13 13 13 13 13 13 13 13 13 13 13 13 13 13 13 13 13 13 13 13 13 13 13 13 13 13 13 13 13 13 13 13 13 13 13 13 13 13 13 13 13 13 13 13 13 13 13 13 13 13 13 13 13 13 13 13 13 13 13 13 13 13 13 13 13 13 13 13 13 13 13 13 13 13 13 13 13 13 13 13 13 13 13 13 13 13 13 13 13 13 13 13 13 13 13 13 13 13 13 13 13 13 13 13 13 13 13 13 13 13 13 13 13 13 13 13 13 13 13 13 13 13 13 13 13 13 13 13 13 13 13 13 13 13 13 13 13 13 13 13 13 13 13 13 13 13 13 13 13 13 13 13 13 13 13 13 13 13 13 13 13 13 13 13 13 13 13 13 13 13 13 13 13 13 13 13 13 13 13 13 13 13 
13 13 13 13 13 13 13 13 13 13 13 13 13 13 13 13 13 13 13 13 13 13 13 13 13 13 13 13 13 13 13 13 13 13 13 13 13 13 13 13 13 13 13 13 13 13 13 13 13 13 13 13 13 13 13 13 13 13 13 13 13 13 13 13 13 13 13 13 13 13 13 13 13 13 13 13 13 13 13 13 13 13 13 13 13 13 13 13 13 13 13 13 13 13 13 13 13 13 13 13 13 13 13 13 13 13 13 13 13 13 13 13 13 13 0 26 255 13 13 13 13 13 13 13 13 13 13 13 13 13 13 13 13 13 13 13 13 13 13 13 13 13 13 13 13 13 13 13 13 13 13 13 13 13 13 13 13 13 13 13 13 13 13 13 13 13 13 13 13 13 13 13 13 13 13 13 13 13 13 13 13 13 13 13 13 13 13 13 13 13 13 13 13 13 13 13 13 13 13 13 13 13 13 13 13 13 13 13 13 13 13 13 13 13 13 13 13 13 13 13 13 13 13 13 13 2 31 250 5 37 245 5 36 246 5 36 246 13 13 13 13 13 13 13 13 13 13 13 13 13 13 13 13 13 13 13 13 13 13 13 13 13 13 13 13 13 13 13 13 13 0 26 255 13 13 13 13 13 13 13 13 13 13 13 13 13 13 13 13 13 13 4 34 248 3 31 250 13 13 13 13 13 13 13 13 13 13 13 13 0 26 255 13 13 13 13 13 13 13 13 13 13 13 13 13 13 13 13 13 13 13 13 13 13 13 13 13 13 13 13 13 13 13 13 13 13 13 13 13 13 13 13 13 13 13 13 13 13 13 13 13 13 13 13 13 13 13 13 13 13 13 13 13 13 13 13 13 13 13 13 13 13 13 13 13 13 13 13 13 13 13 13 13 13 13 13 13 13 13 13 13 13 13 13 13 13 13 13 13 13 13 13 13 13 13 13 13 13 13 13 13 13 13 13 13 13 13 13 13 13 13 13 13 13 13 13 13 13 13 13 13 13 13 13 13 13 13 13 13 13 13 13 13 13 13 13 13 13 13 13 13 13 13 13 13 13 13 13 13 13 13 13 13 13 13 13 13 13 13 13 13 13 13 13 13 13 13 13 13 13 13 13 13 13 13 13 13 13 13 13 13 13 13 13 13 13 13 13 13 13 13 13 13 13 13 13 13 13 13 13 13 13 13 13 13 13 13 13 13 13 13 13 13 13 13 13 13 13 13 13 13 13 13 13 13 13 13 13 13 13 13 13 13 13 13 13 13 13 13 13 13 13 13 13 13 13 13 13 13 13 13 13 13 13 13 13 13 13 13 13 13 13 13 13 13 13 13 13 13 13 13 13 13 13 13 13 13 13 13 13 
0 26 255 13 13 13 13 13 13 13 13 13 13 13 13 13 13 13 13 13 13 13 13 13 13 13 13 13 13 13 13 13 13 13 13 13 13 13 13 13 13 13 13 13 13 13 13 13 13 13 13 13 13 13 13 13 13 13 13 13 13 13 13 13 13 13 13 13 13 13 13 13 13 13 13 13 13 13 13 13 13 13 13 13 13 13 13 13 13 13 13 13 13 13 13 13 13 13 13 13 13 13 13 13 13 13 13 13 13 13 13 13 13 13 13 13 13 13 13 13 13 13 13 13 13 13 13 13 13 13 13 13 13 13 13 13 13 13 13 13 13 13 13 13 13 13 13 13 13 13 13 13 13 13 13 13 13 13 13 13 13 13 13 13 13 13 13 13 0 26 255 13 13 13 13 13 13 13 13 13 13 13 13 13 13 13 6 39 243 13 13 13 13 13 13 13 13 13 13 13 13 5 37 245 13 13 13 13 13 13 13 13 13 13 13 13 5 37 245 13 13 13 13 13 13 0 26 255 1 27 254 3 31 250 3 31 250 13 13 13 13 13 13 13 13 13 13 13 13 0 26 255 5 38 244 13 13 13 0 26 255 13 13 13 13 13 13 13 13 13 4 35 247 13 13 13 13 13 13 13 13 13 0 26 255 6 40 243 5 38 245 6 40 243 1 29 252 1 28 252 13 13 13 13 13 13 13 13 13 13 13 13 13 13 13 0 26 255 13 13 13 13 13 13 13 13 13 13 13 13 13 13 13 13 13 13 13 13 13 13 13 13 13 13 13 13 13 13 1 27 254 13 13 13 13 13 13 13 13 13 13 13 13 13 13 13 13 13 13 13 13 13 13 13 13 13 13 13 13 13 13 13 13 13 13 13 13 13 13 13 13 13 13 13 13 13 13 13 13 13 13 13 13 13 13 13 13 13 13 13 13 13 13 13 13 13 13 13 13 13 13 13 13 13 13 13 13 13 13 13 13 13 13 13 13 13 13 13 13 13 13 13 13 13 13 13 13 13 13 13 13 13 13 13 13 13 13 13 13 13 13 13 13 13 13 13 13 13 13 13 13 13 13 13 13 13 13 13 13 13 13 13 13 13 13 13 13 13 13 13 13 13 13 13 13 13 13 13 13 13 13 13 13 13 13 13 13 13 13 13 13 13 13 13 13 13 13 13 13 13 13 13 13 13 13 13 13 13 13 13 13 13 13 13 13 13 13 13 13 13 13 13 13 13 13 13 13 13 13 13 13 13 13 13 13 13 13 13 13 13 13 13 13 13 13 13 13 13 13 13 13 13 13 13 13 13 13 13 13 13 13 13 13 13 13 13 13 13 13 13 13 13 13 13 13 13 13 13 13 13 
13 13 13 13 13 13 13 13 13 13 13 13 13 13 13 13 13 13 13 13 13 13 13 13 13 13 13 13 13 13 13 13 13 13 13 13 13 13 13 13 13 13 13 13 13 13 13 13 13 13 13 13 13 13 13 13 13 13 13 13 0 27 254 13 13 13 13 13 13 13 13 13 13 13 13 13 13 13 13 13 13 13 13 13 13 13 13 13 13 13 13 13 13 13 13 13 13 13 13 13 13 13 13 13 13 13 13 13 13 13 13 13 13 13 13 13 13 13 13 13 13 13 13 5 38 244 13 13 13 13 13 13 13 13 13 13 13 13 13 13 13 13 13 13 13 13 13 13 13 13 13 13 13 13 13 13 13 13 13 13 13 13 13 13 13 13 13 13 13 13 13 13 13 13 13 13 13 13 13 13 5 37 245 5 37 245 3 33 248 2 30 251 13 13 13 0 26 255 13 13 13 0 26 254 13 13 13 13 13 13 13 13 13 13 13 13 13 13 13 0 26 255 13 13 13 13 13 13 0 26 255 1 27 254 13 13 13 13 13 13 5 37 245 13 13 13 13 13 13 5 38 244 5 38 244 5 38 245 13 13 13 2 31 250 5 38 244 13 13 13 13 13 13 13 13 13 13 13 13 13 13 13 7 42 240 5 38 245 7 42 241 6 40 243 13 13 13 13 13 13 13 13 13 13 13 13 13 13 13 5 38 244 13 13 13 13 13 13 0 26 255 13 13 13 13 13 13 5 37 245 13 13 13 13 13 13 0 26 255 0 26 255 13 13 13 13 13 13 13 13 13 13 13 13 5 37 245 17 66 220 13 13 13 13 13 13 13 13 13 13 13 13 13 13 13 13 13 13 13 13 13 13 13 13 13 13 13 13 13 13 13 13 13 13 13 13 13 13 13 13 13 13 6 39 243 13 13 13 13 13 13 5 38 244 6 40 243 13 13 13 13 13 13 13 13 13 13 13 13 13 13 13 13 13 13 13 13 13 13 13 13 13 13 13 13 13 13 13 13 13 13 13 13 13 13 13 13 13 13 13 13 13 13 13 13 13 13 13 13 13 13 13 13 13 13 13 13 13 13 13 13 13 13 13 13 13 13 13 13 13 13 13 13 13 13 13 13 13 13 13 13 13 13 13 13 13 13 13 13 13 13 13 13 13 13 13 13 13 13 13 13 13 13 13 13 13 13 13 13 13 13 13 13 13 13 13 13 13 13 13 13 13 13 13 13 13 13 13 13 13 13 13 13 13 13 13 13 13 13 13 13 13 13 13 13 13 13 13 13 13 13 13 13 13 13 13 13 13 13 13 13 13 13 13 13 13 13 13 13 13 13 13 13 13 13 13 13 13 13 13 
13 13 13 13 13 13 13 13 13 13 13 13 13 13 13 13 13 13 13 13 13 13 13 13 13 13 13 13 13 13 13 13 13 1 27 253 13 13 13 13 13 13 13 13 13 13 13 13 13 13 13 13 13 13 13 13 13 13 13 13 13 13 13 13 13 13 13 13 13 13 13 13 13 13 13 13 13 13 13 13 13 13 13 13 13 13 13 13 13 13 5 37 245 13 13 13 13 13 13 13 13 13 13 13 13 13 13 13 13 13 13 13 13 13 13 13 13 13 13 13 13 13 13 13 13 13 13 13 13 13 13 13 13 13 13 13 13 13 13 13 13 13 13 13 13 13 13 13 13 13 13 13 13 5 37 245 13 13 13 13 13 13 13 13 13 13 13 13 0 26 255 13 13 13 0 26 254 13 13 13 13 13 13 0 27 254 13 13 13 13 13 13 13 13 13 13 13 13 1 27 254 13 13 13 2 30 251 13 13 13 13 13 13 13 13 13 4 35 247 13 13 13 13 13 13 0 26 255 13 13 13 13 13 13 13 13 13 5 37 245 5 37 245 5 37 245 5 38 245 6 39 244 13 13 13 13 13 13 5 37 245 0 26 255 13 13 13 13 13 13 13 13 13 13 13 13 13 13 13 13 13 13 1 27 253 13 13 13 13 13 13 13 13 13 13 13 13 13 13 13 0 26 255 25 85 204 13 13 13 13 13 13 13 13 13 13 13 13 0 26 255 3 32 250 13 13 13 13 13 13 13 13 13 13 13 13 7 43 240 13 13 13 13 13 13 0 26 255 13 13 13 13 13 13 13 13 13 13 13 13 10 49 235 13 13 13 13 13 13 5 38 244 13 13 13 13 13 13 13 13 13 13 13 13 13 13 13 13 13 13 13 13 13 13 13 13 13 13 13 13 13 13 13 13 13 13 13 13 13 13 13 13 13 13 13 13 13 13 13 13 13 13 13 13 13 13 13 13 13 13 13 13 13 13 13 13 13 13 3 33 248 13 13 13 13 13 13 13 13 13 13 13 13 13 13 13 13 13 13 13 13 13 13 13 13 13 13 13 13 13 13 13 13 13 13 13 13 13 13 13 13 13 13 13 13 13 13 13 13 13 13 13 13 13 13 13 13 13 13 13 13 13 13 13 13 13 13 13 13 13 13 13 13 13 13 13 13 13 13 13 13 13 13 13 13 13 13 13 13 13 13 13 13 13 13 13 13 13 13 13 13 13 13 13 13 13 13 13 13 13 13 13 13 13 13 13 13 13 13 13 13 13 13 13 13 13 13 13 13 13 13 13 13 13 13 13 13 13 13 13 13 13 13 13 13 13 13 13 13 13 13 13 13 13 13 13 13 13 13 13 
13 13 13 13 13 13 13 13 13 13 13 13 13 13 13 13 13 13 13 13 13 13 13 13 13 13 13 13 13 13 13 13 13 13 13 13 13 13 13 13 13 13 13 13 13 13 13 13 13 13 13 13 13 13 13 13 13 13 13 13 13 13 13 13 13 13 13 13 13 13 13 13 13 13 13 13 13 13 13 13 13 13 13 13 13 13 13 13 13 13 13 13 13 13 13 13 13 13 13 6 39 244 13 13 13 13 13 13 13 13 13 13 13 13 13 13 13 13 13 13 13 13 13 13 13 13 13 13 13 13 13 13 13 13 13 13 13 13 13 13 13 13 13 13 5 37 245 13 13 13 13 13 13 13 13 13 13 13 13 0 26 255 13 13 13 13 13 13 13 13 13 13 13 13 13 13 13 13 13 13 13 13 13 13 13 13 13 13 13 13 13 13 13 13 13 1 27 254 13 13 13 3 33 248 0 26 255 8 45 239 13 13 13 13 13 13 13 13 13 0 26 255 0 26 255 1 28 253 3 32 250 13 13 13 13 13 13 13 13 13 5 37 245 5 37 245 5 37 245 3 32 249 3 31 250 3 31 250 3 31 250 13 13 13 13 13 13 13 13 13 13 13 13 13 13 13 13 13 13 5 37 245 13 13 13 13 13 13 13 13 13 0 26 255 0 26 255 13 13 13 0 26 255 0 26 255 2 31 250 5 37 245 13 13 13 13 13 13 13 13 13 5 38 244 11 51 233 13 13 13 13 13 13 13 13 13 13 13 13 13 13 13 13 13 13 13 13 13 13 13 13 13 13 13 13 13 13 13 13 13 13 13 13 13 13 13 13 13 13 13 13 13 13 13 13 13 13 13 13 13 13 13 13 13 13 13 13 13 13 13 13 13 13 13 13 13 13 13 13 13 13 13 13 13 13 13 13 13 13 13 13 13 13 13 13 13 13 13 13 13 13 13 13 13 13 13 13 13 13 13 13 13 13 13 13 13 13 13 13 13 13 13 13 13 13 13 13 13 13 13 13 13 13 13 13 13 13 13 13 13 13 13 13 13 13 13 13 13 13 13 13 13 13 13 13 13 13 13 13 13 13 13 13 13 13 13 13 13 13 13 13 13 13 13 13 13 13 13 13 13 13 13 13 13 13 13 13 13 13 13 13 13 13 13 13 13 13 13 13 13 13 13 13 13 13 13 13 13 13 13 13 13 13 13 13 13 13 13 13 13 13 13 13 13 13 13 13 13 13 13 13 13 13 13 13 13 13 13 13 13 13 13 13 13 13 13 13 13 13 13 13 13 13 13 13 13 13 13 13 13 13 13 13 13 13 13 13 13 13 13 13 13 13 13 13 13 13 13 13 13 
13 13 13 13 13 13 13 13 13 13 13 13 13 13 13 13 13 13 13 13 13 13 13 13 13 13 13 13 13 13 13 13 13 13 13 13 13 13 13 13 13 13 13 13 13 13 13 13 17 66 220 13 13 13 13 13 13 13 13 13 13 13 13 13 13 13 13 13 13 12 53 231 13 13 13 13 13 13 13 13 13 13 13 13 13 13 13 13 13 13 13 13 13 13 13 13 13 13 13 13 13 13 13 13 13 13 13 13 0 26 255 13 13 13 13 13 13 13 13 13 13 13 13 13 13 13 13 13 13 13 13 13 13 13 13 13 13 13 3 32 250 13 13 13 13 13 13 13 13 13 13 13 13 13 13 13 13 13 13 5 37 245 13 13 13 13 13 13 13 13 13 13 13 13 1 28 253 0 26 255 13 13 13 13 13 13 13 13 13 13 13 13 13 13 13 0 26 255 2 30 251 2 29 252 2 29 252 0 26 255 13 13 13 4 34 248 13 13 13 13 13 13 2 31 250 5 36 246 5 37 245 5 36 246 13 13 13 13 13 13 5 37 245 0 26 255 0 26 255 0 26 255 3 31 250 5 37 245 13 13 13 13 13 13 7 42 241 0 26 255 13 13 13 13 13 13 13 13 13 0 26 255 13 13 13 13 13 13 0 26 255 0 26 255 13 13 13 13 13 13 13 13 13 0 26 255 0 26 255 13 13 13 13 13 13 0 26 255 13 13 13 13 13 13 13 13 13 13 13 13 13 13 13 13 13 13 13 13 13 0 26 255 13 13 13 13 13 13 13 13 13 13 13 13 13 13 13 13 13 13 13 13 13 4 34 248 13 13 13 13 13 13 13 13 13 13 13 13 13 13 13 13 13 13 13 13 13 13 13 13 13 13 13 13 13 13 13 13 13 13 13 13 13 13 13 13 13 13 13 13 13 13 13 13 13 13 13 13 13 13 13 13 13 13 13 13 13 13 13 13 13 13 13 13 13 13 13 13 13 13 13 13 13 13 13 13 13 13 13 13 13 13 13 13 13 13 13 13 13 13 13 13 13 13 13 13 13 13 13 13 13 13 13 13 13 13 13 13 13 13 13 13 13 13 13 13 13 13 13 13 13 13 13 13 13 13 13 13 13 13 13 13 13 13 13 13 13 13 13 13 13 13 13 13 13 13 13 13 13 13 13 13 13 13 13 13 13 13 13 13 13 13 13 13 13 13 13 13 13 13 13 13 13 13 13 13 13 13 13 13 13 13 13 13 13 13 13 13 13 13 13 13 13 13 13 13 13 13 13 13 13 13 13 13 13 13 13 13 13 13 13 13 13 13 13 13 13 13 13 13 13 13 13 13 13 13 13 13 13 13 
13 13 13 13 13 13 13 13 13 13 13 13 13 13 13 13 13 13 13 13 13 13 13 13 0 26 255 13 13 13 13 13 13 13 13 13 13 13 13 13 13 13 13 13 13 13 13 13 13 13 13 13 13 13 13 13 13 13 13 13 13 13 13 13 13 13 13 13 13 13 13 13 13 13 13 13 13 13 13 13 13 6 39 244 13 13 13 13 13 13 13 13 13 13 13 13 13 13 13 13 13 13 13 13 13 13 13 13 13 13 13 13 13 13 13 13 13 13 13 13 13 13 13 16 62 224 13 13 13 13 13 13 13 13 13 13 13 13 13 13 13 13 13 13 13 13 13 13 13 13 13 13 13 13 13 13 0 26 255 13 13 13 13 13 13 13 13 13 13 13 13 0 26 255 0 26 255 13 13 13 13 13 13 13 13 13 0 26 255 13 13 13 13 13 13 3 32 250 3 32 250 3 32 250 0 26 255 13 13 13 0 26 255 2 30 251 13 13 13 13 13 13 5 37 245 5 37 245 5 37 245 5 37 245 5 37 245 8 45 238 1 29 252 0 26 255 0 26 255 5 37 245 13 13 13 13 13 13 13 13 13 6 39 244 6 39 244 5 36 246 13 13 13 13 13 13 13 13 13 0 26 255 0 26 255 13 13 13 13 13 13 5 38 244 13 13 13 13 13 13 2 30 251 0 26 255 0 26 255 0 26 255 13 13 13 13 13 13 13 13 13 13 13 13 0 26 255 13 13 13 0 26 255 2 31 250 13 13 13 13 13 13 13 13 13 13 13 13 9 47 237 5 38 244 13 13 13 13 13 13 13 13 13 5 37 245 13 13 13 13 13 13 13 13 13 13 13 13 13 13 13 5 38 244 13 13 13 5 38 244 13 13 13 6 38 244 13 13 13 13 13 13 13 13 13 13 13 13 13 13 13 13 13 13 13 13 13 13 13 13 13 13 13 13 13 13 13 13 13 13 13 13 13 13 13 13 13 13 13 13 13 13 13 13 13 13 13 13 13 13 13 13 13 13 13 13 13 13 13 13 13 13 13 13 13 13 13 13 13 13 13 13 13 13 13 13 13 13 13 13 13 13 13 13 13 13 13 13 13 13 13 13 13 13 13 13 13 13 13 13 13 13 13 13 13 13 13 13 13 13 13 13 13 13 13 13 13 13 13 13 13 13 13 13 13 13 13 13 13 13 13 13 13 13 13 13 13 13 13 13 13 13 13 13 13 13 13 13 13 13 13 13 13 13 13 13 13 13 13 13 13 13 13 13 13 13 13 13 13 13 13 13 13 13 13 13 13 13 13 13 13 13 13 13 13 13 13 13 13 13 13 13 13 13 13 13 13 13 13 13 
13 13 13 13 13 13 13 13 13 13 13 13 13 13 13 13 13 13 13 13 13 13 13 13 13 13 13 13 13 13 13 13 13 13 13 13 13 13 13 13 13 13 13 13 13 13 13 13 13 13 13 13 13 13 13 13 13 13 13 13 13 13 13 13 13 13 13 13 13 13 13 13 13 13 13 13 13 13 13 13 13 13 13 13 13 13 13 13 13 13 5 37 245 13 13 13 13 13 13 13 13 13 13 13 13 13 13 13 13 13 13 13 13 13 0 26 255 13 13 13 13 13 13 13 13 13 13 13 13 13 13 13 13 13 13 13 13 13 5 38 244 13 13 13 0 26 255 13 13 13 0 26 255 0 26 255 0 26 254 2 30 251 5 37 245 13 13 13 0 26 255 0 26 255 13 13 13 5 38 244 13 13 13 13 13 13 13 13 13 13 13 13 0 26 254 13 13 13 10 48 236 3 32 250 13 13 13 0 26 255 0 26 255 0 26 254 5 38 244 13 13 13 5 38 244 5 37 245 2 31 250 2 31 250 4 34 247 5 38 245 4 35 247 13 13 13 0 26 255 13 13 13 13 13 13 13 13 13 0 26 255 2 31 250 13 13 13 13 13 13 5 37 245 13 13 13 13 13 13 0 26 255 0 26 255 4 34 248 13 13 13 13 13 13 13 13 13 5 38 244 2 31 250 0 26 254 13 13 13 13 13 13 13 13 13 13 13 13 0 26 255 0 26 255 0 26 255 0 26 255 0 26 254 1 28 253 2 31 250 13 13 13 13 13 13 13 13 13 13 13 13 13 13 13 13 13 13 13 13 13 13 13 13 5 38 244 13 13 13 13 13 13 13 13 13 2 29 252 13 13 13 13 13 13 13 13 13 13 13 13 8 45 239 13 13 13 13 13 13 13 13 13 13 13 13 13 13 13 13 13 13 13 13 13 13 13 13 13 13 13 13 13 13 13 13 13 13 13 13 13 13 13 13 13 13 13 13 13 13 13 13 13 13 13 13 13 13 13 13 13 13 13 13 13 13 13 13 13 13 13 13 13 13 13 13 13 13 13 13 13 13 13 13 13 13 13 13 13 13 13 13 13 13 13 13 13 13 13 13 13 13 13 13 13 13 13 13 13 13 13 13 13 13 13 13 13 13 13 13 13 13 13 13 13 13 13 13 13 13 13 13 13 13 13 13 13 13 13 13 13 13 13 13 13 13 13 13 13 13 13 13 13 13 13 13 13 13 13 13 13 13 13 13 13 13 13 13 13 13 13 13 13 13 13 13 13 13 13 13 13 13 13 13 13 13 13 13 13 13 13 13 13 13 13 13 13 13 13 13 13 13 13 13 13 13 13 13 13 13 13 
13 13 13 13 13 13 13 13 13 13 13 13 13 13 13 13 13 13 13 13 13 13 13 13 13 13 13 13 13 13 1 28 252 13 13 13 13 13 13 44 129 166 13 13 13 13 13 13 13 13 13 13 13 13 13 13 13 13 13 13 13 13 13 13 13 13 13 13 13 13 13 13 13 13 13 13 13 13 13 13 13 13 13 13 13 13 13 13 13 13 13 13 13 13 13 13 13 13 13 13 13 13 13 13 13 13 13 13 13 13 13 13 13 13 0 26 255 13 13 13 13 13 13 13 13 13 13 13 13 13 13 13 5 37 245 13 13 13 0 26 255 13 13 13 13 13 13 0 26 255 0 26 255 0 26 254 1 27 254 13 13 13 3 33 249 4 35 247 1 28 253 1 28 253 13 13 13 13 13 13 13 13 13 13 13 13 13 13 13 0 26 255 13 13 13 13 13 13 13 13 13 13 13 13 13 13 13 0 26 255 13 13 13 0 26 255 0 26 254 3 32 249 13 13 13 0 26 255 0 26 255 0 26 255 0 26 255 5 37 245 5 38 244 13 13 13 13 13 13 0 26 255 13 13 13 13 13 13 3 33 249 2 31 250 1 27 254 13 13 13 13 13 13 0 26 255 0 26 255 0 26 255 0 26 255 13 13 13 13 13 13 0 26 255 13 13 13 13 13 13 3 32 249 1 27 254 1 28 253 1 27 254 13 13 13 13 13 13 1 28 253 0 26 255 0 27 254 0 26 254 0 26 254 0 26 255 2 30 251 3 32 249 0 26 255 0 26 255 13 13 13 13 13 13 13 13 13 5 37 245 13 13 13 13 13 13 13 13 13 13 13 13 13 13 13 13 13 13 13 13 13 13 13 13 13 13 13 15 61 224 13 13 13 11 51 233 5 38 244 13 13 13 13 13 13 3 34 248 13 13 13 13 13 13 13 13 13 13 13 13 13 13 13 13 13 13 13 13 13 13 13 13 13 13 13 13 13 13 13 13 13 13 13 13 13 13 13 13 13 13 19 69 218 13 13 13 13 13 13 13 13 13 13 13 13 13 13 13 13 13 13 14 58 227 13 13 13 13 13 13 13 13 13 13 13 13 13 13 13 13 13 13 13 13 13 13 13 13 13 13 13 13 13 13 13 13 13 13 13 13 13 13 13 13 13 13 13 13 13 13 13 13 13 13 13 13 13 13 13 13 13 13 13 13 13 13 13 13 13 13 13 13 13 13 13 13 13 13 13 13 13 13 13 13 13 13 13 13 13 13 13 13 13 13 13 13 13 13 13 13 13 13 13 13 13 13 13 13 13 13 13 13 13 13 13 13 13 13 13 13 13 13 13 13 13 13 13 13 13 13 
13 13 13 13 13 13 13 13 13 13 13 13 13 13 13 13 13 13 13 13 13 13 13 13 13 13 13 13 13 13 13 13 13 13 13 13 13 13 13 13 13 13 13 13 13 13 13 13 13 13 13 13 13 13 13 13 13 13 13 13 13 13 13 13 13 13 13 13 13 13 13 13 13 13 13 13 13 13 13 13 13 13 13 13 13 13 13 13 13 13 13 13 13 13 13 13 13 13 13 13 13 13 13 13 13 13 13 13 13 13 13 13 13 13 13 13 13 13 13 13 13 13 13 13 13 13 13 13 13 13 13 13 13 13 13 13 13 13 13 13 13 13 13 13 13 13 13 5 37 245 2 31 251 0 26 254 13 13 13 13 13 13 13 13 13 13 13 13 5 38 244 2 30 251 13 13 13 13 13 13 13 13 13 0 26 255 13 13 13 13 13 13 9 46 237 13 13 13 13 13 13 13 13 13 13 13 13 13 13 13 13 13 13 0 26 255 0 26 254 13 13 13 13 13 13 13 13 13 0 26 255 0 26 255 0 26 255 5 37 245 3 31 250 3 31 250 1 27 254 3 33 249 2 31 251 2 31 251 13 13 13 4 36 246 13 13 13 13 13 13 13 13 13 0 26 255 0 26 255 0 26 255 2 29 252 13 13 13 3 32 249 2 30 251 0 26 255 1 27 254 1 27 254 1 28 253 1 28 253 0 26 255 1 27 254 1 27 254 13 13 13 0 26 255 0 27 254 1 27 254 0 26 254 1 27 254 0 26 255 0 26 255 0 26 255 0 26 255 13 13 13 13 13 13 13 13 13 13 13 13 13 13 13 13 13 13 13 13 13 13 13 13 13 13 13 13 13 13 13 13 13 13 13 13 13 13 13 13 13 13 13 13 13 13 13 13 13 13 13 13 13 13 13 13 13 13 13 13 13 13 13 13 13 13 13 13 13 13 13 13 13 13 13 13 13 13 13 13 13 13 13 13 13 13 13 13 13 13 13 13 13 13 13 13 13 13 13 13 13 13 8 45 239 13 13 13 13 13 13 13 13 13 13 13 13 13 13 13 13 13 13 13 13 13 13 13 13 13 13 13 13 13 13 13 13 13 13 13 13 13 13 13 13 13 13 13 13 13 13 13 13 13 13 13 13 13 13 13 13 13 13 13 13 13 13 13 13 13 13 13 13 13 13 13 13 13 13 13 13 13 13 13 13 13 13 13 13 13 13 13 13 13 13 13 13 13 13 13 13 13 13 13 13 13 13 13 13 13 13 13 13 13 13 13 13 13 13 13 13 13 13 13 13 13 13 13 13 13 13 13 13 13 13 13 13 13 13 13 13 13 13 13 13 13 13 13 13 13 13 13 
13 13 13 13 13 13 13 13 13 13 13 13 13 13 13 13 13 13 13 13 13 13 13 13 13 13 13 13 13 13 13 13 13 13 13 13 13 13 13 13 13 13 13 13 13 13 13 13 13 13 13 13 13 13 13 13 13 0 27 254 13 13 13 13 13 13 13 13 13 13 13 13 13 13 13 13 13 13 13 13 13 13 13 13 13 13 13 13 13 13 13 13 13 13 13 13 13 13 13 13 13 13 13 13 13 13 13 13 13 13 13 13 13 13 13 13 13 13 13 13 13 13 13 0 26 255 13 13 13 13 13 13 0 26 255 13 13 13 13 13 13 13 13 13 13 13 13 13 13 13 13 13 13 13 13 13 0 26 255 13 13 13 13 13 13 0 26 254 13 13 13 13 13 13 13 13 13 13 13 13 0 26 255 0 26 255 13 13 13 13 13 13 13 13 13 13 13 13 2 30 251 13 13 13 13 13 13 3 33 248 13 13 13 0 26 255 0 26 255 0 26 255 13 13 13 0 26 255 0 26 255 0 26 255 5 37 245 13 13 13 0 27 254 0 27 254 1 29 252 5 37 245 3 34 248 13 13 13 2 31 251 7 41 242 13 13 13 13 13 13 5 37 245 0 26 255 0 26 255 0 26 255 2 30 251 4 35 247 4 35 247 5 36 246 1 28 253 2 30 251 2 30 251 3 34 248 2 31 250 0 26 254 0 26 254 0 26 254 0 26 254 13 13 13 0 26 255 0 26 255 1 27 254 0 26 255 0 26 255 0 26 255 0 26 255 0 26 255 3 32 249 13 13 13 13 13 13 13 13 13 13 13 13 13 13 13 13 13 13 5 37 245 13 13 13 13 13 13 13 13 13 13 13 13 13 13 13 13 13 13 13 13 13 13 13 13 13 13 13 13 13 13 13 13 13 13 13 13 13 13 13 13 13 13 5 37 245 13 13 13 13 13 13 13 13 13 13 13 13 13 13 13 13 13 13 13 13 13 13 13 13 13 13 13 13 13 13 13 13 13 13 13 13 13 13 13 13 13 13 13 13 13 13 13 13 13 13 13 13 13 13 13 13 13 13 13 13 13 13 13 13 13 13 13 13 13 13 13 13 13 13 13 13 13 13 13 13 13 13 13 13 13 13 13 13 13 13 13 13 13 13 13 13 13 13 13 13 13 13 13 13 13 13 13 13 30 97 194 13 13 13 13 13 13 13 13 13 13 13 13 13 13 13 13 13 13 13 13 13 13 13 13 13 13 13 13 13 13 13 13 13 13 13 13 13 13 13 13 13 13 13 13 13 13 13 13 13 13 13 13 13 13 13 13 13 13 13 13 13 13 13 13 13 13 13 13 13 13 13 13 
13 13 13 13 13 13 13 13 13 13 13 13 13 13 13 13 13 13 13 13 13 13 13 13 13 13 13 13 13 13 13 13 13 13 13 13 13 13 13 13 13 13 13 13 13 13 13 13 13 13 13 13 13 13 13 13 13 13 13 13 13 13 13 13 13 13 13 13 13 13 13 13 13 13 13 13 13 13 13 13 13 13 13 13 13 13 13 13 13 13 13 13 13 2 31 250 13 13 13 13 13 13 13 13 13 13 13 13 13 13 13 13 13 13 13 13 13 13 13 13 13 13 13 13 13 13 13 13 13 13 13 13 0 26 255 13 13 13 13 13 13 13 13 13 13 13 13 6 40 242 13 13 13 13 13 13 13 13 13 1 27 254 1 27 253 13 13 13 13 13 13 13 13 13 13 13 13 13 13 13 0 26 255 1 28 253 2 30 252 13 13 13 0 26 255 0 26 255 0 26 255 0 26 255 0 26 255 13 13 13 9 47 237 13 13 13 0 26 255 13 13 13 3 32 250 0 26 255 0 26 255 0 26 255 13 13 13 13 13 13 0 26 255 0 26 255 0 27 254 5 37 245 3 31 250 0 26 255 0 26 255 0 26 255 1 27 254 1 27 254 1 28 253 0 26 255 0 26 255 0 26 255 1 27 254 3 33 248 4 34 248 3 32 250 1 27 254 1 27 254 0 26 255 0 26 255 13 13 13 0 26 255 0 26 254 0 26 254 0 26 254 13 13 13 0 26 255 0 26 255 0 26 254 0 26 254 0 26 255 0 26 255 0 26 255 0 26 255 5 38 245 11 51 233 13 13 13 13 13 13 13 13 13 13 13 13 13 13 13 13 13 13 13 13 13 13 13 13 13 13 13 13 13 13 13 13 13 4 35 247 13 13 13 13 13 13 13 13 13 13 13 13 13 13 13 13 13 13 13 13 13 13 13 13 13 13 13 13 13 13 13 13 13 13 13 13 13 13 13 13 13 13 13 13 13 13 13 13 13 13 13 13 13 13 13 13 13 13 13 13 13 13 13 13 13 13 13 13 13 13 13 13 13 13 13 13 13 13 13 13 13 13 13 13 13 13 13 13 13 13 13 13 13 13 13 13 13 13 13 13 13 13 13 13 13 13 13 13 13 13 13 13 13 13 13 13 13 13 13 13 13 13 13 13 13 13 13 13 13 13 13 13 13 13 13 13 13 13 13 13 13 13 13 13 13 13 13 13 13 13 13 13 13 13 13 13 13 13 13 13 13 13 13 13 13 13 13 13 13 13 13 13 13 13 13 13 13 13 13 13 13 13 13 13 13 13 13 13 13 13 13 13 37 113 180 13 13 13 13 13 13 13 13 13 13 13 13 13 13 13 
52 146 151 13 13 13 13 13 13 13 13 13 13 13 13 13 13 13 13 13 13 13 13 13 13 13 13 13 13 13 13 13 13 13 13 13 13 13 13 13 13 13 13 13 13 6 40 243 13 13 13 13 13 13 13 13 13 13 13 13 13 13 13 13 13 13 13 13 13 13 13 13 13 13 13 13 13 13 13 13 13 13 13 13 13 13 13 13 13 13 0 26 255 13 13 13 0 26 255 0 26 255 13 13 13 5 37 245 13 13 13 13 13 13 1 27 253 13 13 13 13 13 13 0 26 255 13 13 13 13 13 13 13 13 13 1 27 254 13 13 13 13 13 13 13 13 13 13 13 13 6 40 243 13 13 13 3 32 250 1 27 254 0 26 255 5 37 245 3 33 248 2 30 251 2 29 252 0 26 255 1 28 253 5 36 246 13 13 13 13 13 13 13 13 13 0 26 255 0 26 255 0 26 255 13 13 13 13 13 13 13 13 13 0 26 255 0 26 254 0 26 254 0 26 254 0 26 255 3 32 249 0 26 255 0 26 255 13 13 13 0 26 254 0 26 255 0 26 255 0 26 255 0 26 255 0 26 255 0 26 255 0 26 255 0 26 255 0 26 254 0 26 255 0 26 255 0 26 255 0 26 255 0 26 255 2 30 251 3 33 249 13 13 13 1 28 253 13 13 13 0 26 255 13 13 13 0 26 255 0 26 254 0 26 254 0 26 254 13 13 13 13 13 13 13 13 13 0 26 255 0 26 254 0 26 255 0 26 255 0 26 255 13 13 13 4 34 247 11 51 233 13 13 13 15 60 226 13 13 13 13 13 13 13 13 13 13 13 13 13 13 13 13 13 13 13 13 13 13 13 13 13 13 13 13 13 13 13 13 13 13 13 13 13 13 13 13 13 13 13 13 13 13 13 13 13 13 13 32 100 192 13 13 13 16 63 223 12 52 232 13 13 13 13 13 13 13 13 13 13 13 13 13 13 13 4 34 248 13 13 13 13 13 13 13 13 13 13 13 13 8 44 239 13 13 13 13 13 13 13 13 13 13 13 13 13 13 13 13 13 13 13 13 13 13 13 13 13 13 13 13 13 13 13 13 13 13 13 13 13 13 13 47 134 162 13 13 13 13 13 13 13 13 13 13 13 13 13 13 13 13 13 13 13 13 13 13 13 13 13 13 13 13 13 13 25 84 205 13 13 13 13 13 13 13 13 13 13 13 13 13 13 13 13 13 13 13 13 13 13 13 13 13 13 13 13 13 13 13 13 13 13 13 13 13 13 13 13 13 13 13 13 13 13 13 13 13 13 13 13 13 13 13 13 13 13 13 13 13 13 13 13 13 13 13 13 13 13 13 13 
13 13 13 13 13 13 13 13 13 13 13 13 13 13 13 13 13 13 13 13 13 13 13 13 13 13 13 13 13 13 13 13 13 13 13 13 13 13 13 13 13 13 13 13 13 13 13 13 13 13 13 13 13 13 13 13 13 13 13 13 13 13 13 13 13 13 13 13 13 5 37 245 13 13 13 5 37 245 13 13 13 13 13 13 5 37 245 13 13 13 13 13 13 13 13 13 13 13 13 13 13 13 13 13 13 13 13 13 0 26 255 13 13 13 13 13 13 13 13 13 0 26 254 13 13 13 13 13 13 13 13 13 0 26 255 13 13 13 13 13 13 13 13 13 13 13 13 13 13 13 13 13 13 5 38 244 3 32 250 0 26 255 0 26 255 0 26 255 2 30 251 5 37 245 2 30 251 0 26 255 2 29 252 13 13 13 13 13 13 13 13 13 13 13 13 0 26 255 0 26 255 0 26 255 13 13 13 13 13 13 0 26 255 3 33 248 11 50 234 1 27 254 13 13 13 13 13 13 15 60 226 13 13 13 0 26 255 0 26 255 0 26 255 0 26 255 0 26 255 0 26 255 0 26 255 0 26 255 0 26 255 0 26 255 0 26 255 0 26 255 0 26 255 0 26 255 0 26 255 0 26 255 2 31 250 2 29 252 4 35 247 3 33 249 13 13 13 3 33 248 13 13 13 3 32 249 2 30 252 0 26 254 1 27 254 0 26 254 13 13 13 0 26 255 13 13 13 1 28 253 13 13 13 1 28 253 2 30 251 13 13 13 13 13 13 6 40 243 6 40 243 13 13 13 13 13 13 13 13 13 13 13 13 13 13 13 13 13 13 13 13 13 13 13 13 13 13 13 13 13 13 7 42 241 13 13 13 5 37 245 13 13 13 13 13 13 13 13 13 13 13 13 13 13 13 13 13 13 13 13 13 13 13 13 12 52 232 8 45 238 8 44 239 13 13 13 13 13 13 13 13 13 13 13 13 13 13 13 13 13 13 13 13 13 13 13 13 13 13 13 6 40 242 13 13 13 11 50 234 13 13 13 13 13 13 13 13 13 13 13 13 13 13 13 13 13 13 13 13 13 13 13 13 13 13 13 13 13 13 13 13 13 13 13 13 13 13 13 13 13 13 13 13 13 13 55 230 13 13 13 13 13 13 13 13 13 13 13 13 13 13 13 13 13 13 13 13 13 13 13 13 13 13 13 13 13 13 13 13 13 13 13 13 13 13 13 13 13 13 13 13 13 13 13 13 13 13 13 13 13 13 13 13 13 13 13 13 13 13 13 13 13 13 13 13 13 13 13 13 13 13 13 13 13 13 13 13 13 13 13 13 13 13 13 13 13 13 13 13 13 
13 13 13 1 28 253 13 13 13 13 13 13 13 13 13 13 13 13 13 13 13 13 13 13 13 13 13 13 13 13 13 13 13 13 13 13 13 13 13 1 27 253 13 13 13 13 13 13 13 13 13 13 13 13 13 13 13 13 13 13 13 13 13 13 13 13 1 28 253 0 26 255 13 13 13 13 13 13 13 13 13 13 13 13 13 13 13 13 13 13 13 13 13 13 13 13 1 28 253 13 13 13 13 13 13 13 13 13 13 13 13 13 13 13 13 13 13 13 13 13 0 26 255 13 13 13 13 13 13 13 13 13 13 13 13 13 13 13 13 13 13 13 13 13 13 13 13 5 36 246 13 13 13 13 13 13 13 13 13 0 26 255 0 26 255 0 26 255 13 13 13 13 13 13 2 30 251 0 26 255 1 27 253 0 26 254 1 28 253 0 26 254 13 13 13 0 26 254 0 26 255 0 26 255 0 26 255 0 26 255 2 31 250 5 37 245 1 27 254 1 27 254 13 13 13 13 13 13 13 13 13 13 13 13 0 26 254 0 26 255 0 26 255 13 13 13 0 26 255 1 28 253 0 26 255 0 26 255 0 26 255 0 26 255 0 26 255 13 13 13 0 26 255 0 26 255 0 26 255 1 28 252 5 37 245 2 31 250 5 37 245 4 34 248 5 38 244 4 34 247 2 29 252 4 36 246 3 32 249 1 27 254 0 26 254 0 26 254 0 26 254 13 13 13 3 34 248 13 13 13 1 29 252 2 30 251 1 29 252 1 28 253 3 32 250 5 37 245 13 13 13 13 13 13 13 13 13 13 13 13 13 13 13 13 13 13 13 13 13 13 13 13 13 13 13 13 13 13 13 13 13 13 13 13 5 37 245 13 13 13 13 13 13 13 13 13 13 13 13 6 39 243 12 53 231 13 13 13 13 13 13 6 40 243 13 13 13 13 13 13 7 42 241 13 13 13 13 13 13 13 13 13 13 13 13 13 13 13 13 13 13 13 13 13 13 13 13 13 13 13 13 13 13 13 13 13 13 13 13 13 13 13 13 13 13 13 13 13 13 13 13 13 13 13 13 13 13 13 13 13 13 13 13 13 13 13 15 59 226 13 13 13 13 13 13 13 13 13 13 13 13 13 13 13 13 13 13 13 13 13 13 13 13 13 13 13 13 13 13 13 13 13 13 13 13 13 13 13 13 13 13 13 13 13 13 13 13 13 13 13 13 13 13 13 13 13 13 13 13 13 13 13 13 13 13 13 13 13 13 13 13 13 13 13 13 13 13 13 13 13 13 13 13 13 13 13 13 13 13 13 13 13 13 13 13 13 13 13 13 13 13 13 13 13 13 13 13 13 13 13 
13 13 13 13 13 13 13 13 13 13 13 13 13 13 13 13 13 13 13 13 13 13 13 13 0 26 255 13 13 13 13 13 13 13 13 13 13 13 13 13 13 13 13 13 13 13 13 13 13 13 13 13 13 13 13 13 13 13 13 13 13 13 13 13 13 13 13 13 13 13 13 13 13 13 13 13 13 13 13 13 13 13 13 13 13 13 13 13 13 13 0 26 255 13 13 13 13 13 13 13 13 13 13 13 13 0 26 255 13 13 13 13 13 13 13 13 13 13 13 13 13 13 13 13 13 13 13 13 13 13 13 13 13 13 13 13 13 13 9 46 237 13 13 13 5 37 245 5 37 245 13 13 13 13 13 13 13 13 13 13 13 13 0 26 255 13 13 13 13 13 13 13 13 13 13 13 13 1 28 253 0 26 255 13 13 13 0 27 254 0 27 254 13 13 13 0 26 255 0 26 255 0 26 255 0 26 255 3 32 250 5 37 245 5 37 245 0 26 255 0 26 255 13 13 13 13 13 13 13 13 13 13 13 13 0 26 255 0 26 254 0 26 255 1 28 253 13 13 13 13 13 13 0 26 255 0 26 255 0 26 255 0 26 255 0 26 255 0 26 255 0 26 255 3 32 250 5 38 244 5 38 244 5 37 245 2 31 250 4 35 247 4 34 247 5 36 246 3 33 248 1 27 254 4 35 247 4 34 248 4 35 247 0 26 254 0 26 255 13 13 13 13 13 13 13 13 13 13 13 13 4 34 248 5 37 245 1 28 253 0 26 255 0 26 254 13 13 13 13 13 13 13 13 13 13 13 13 13 13 13 13 13 13 16 63 223 13 13 13 13 13 13 13 13 13 13 13 13 13 13 13 13 13 13 13 13 13 13 13 13 13 13 13 13 13 13 13 13 13 13 13 13 13 13 13 13 13 13 13 13 13 5 37 245 13 13 13 13 13 13 13 13 13 13 13 13 13 13 13 13 13 13 13 13 13 13 13 13 13 13 13 13 13 13 13 13 13 13 13 13 13 13 13 13 13 13 13 13 13 13 13 13 13 13 13 13 13 13 13 13 13 13 13 13 13 13 13 13 13 13 13 13 13 13 13 13 13 13 13 13 13 13 13 13 13 13 13 13 13 13 13 13 13 13 13 13 13 13 13 13 13 13 13 13 13 13 13 13 13 13 13 13 13 13 13 13 13 13 13 13 13 13 13 13 13 13 13 13 13 13 13 13 13 13 13 13 13 13 13 13 13 13 13 13 13 13 13 13 13 13 13 13 13 13 13 13 13 13 13 13 13 13 13 13 13 13 13 13 13 13 13 13 13 13 13 13 13 13 13 13 13 13 13 13 13 13 13 13 13 13 
13 13 13 13 13 13 13 13 13 13 13 13 13 13 13 13 13 13 13 13 13 13 13 13 13 13 13 13 13 13 13 13 13 13 13 13 13 13 13 13 13 13 13 13 13 13 13 13 13 13 13 1 29 252 13 13 13 13 13 13 13 13 13 13 13 13 0 26 255 13 13 13 13 13 13 13 13 13 13 13 13 13 13 13 13 13 13 13 13 13 13 13 13 13 13 13 13 13 13 5 36 246 0 26 255 13 13 13 13 13 13 0 26 255 0 26 255 13 13 13 13 13 13 13 13 13 13 13 13 13 13 13 13 13 13 13 13 13 13 13 13 1 28 253 0 26 254 0 26 254 13 13 13 0 26 255 13 13 13 0 26 255 13 13 13 13 13 13 13 13 13 13 13 13 5 37 245 0 26 255 13 13 13 13 13 13 13 13 13 0 26 255 0 26 255 0 26 255 0 26 255 0 26 255 0 26 255 0 26 254 5 37 245 0 26 254 0 26 255 0 26 255 13 13 13 13 13 13 13 13 13 0 26 255 0 26 255 0 26 254 2 30 251 0 26 255 9 47 237 4 34 248 1 27 253 0 26 255 0 26 255 0 26 255 0 26 255 0 26 255 0 26 255 3 33 249 5 38 244 5 38 244 2 29 252 3 32 249 3 32 249 3 32 249 1 29 252 1 27 254 0 26 254 0 26 254 4 35 247 13 13 13 13 13 13 2 30 251 13 13 13 13 13 13 13 13 13 13 13 13 13 13 13 5 38 244 1 28 253 0 26 255 0 26 254 5 37 245 13 13 13 6 38 244 13 56 229 13 13 13 13 13 13 13 13 13 13 13 13 13 13 13 13 13 13 15 60 225 13 13 13 13 13 13 13 13 13 13 13 13 13 13 13 13 13 13 6 39 244 13 13 13 13 13 13 13 13 13 13 13 13 13 13 13 13 13 13 13 13 13 13 13 13 13 13 13 13 13 13 13 13 13 13 13 13 13 13 13 13 13 13 13 13 13 13 13 13 13 13 13 13 13 13 13 13 13 13 13 13 13 13 13 13 13 13 13 13 13 13 13 13 13 13 13 13 13 13 13 13 13 13 13 13 13 13 13 13 13 13 13 13 13 13 13 13 13 13 13 13 13 13 13 13 13 13 13 13 13 13 13 13 13 13 13 13 13 13 13 13 13 13 13 13 13 13 13 13 13 13 13 13 13 13 13 13 13 13 13 13 13 13 13 13 13 13 13 13 13 13 13 13 13 13 13 13 13 13 13 13 13 13 13 13 13 13 13 13 13 13 13 13 13 13 13 13 13 13 13 13 13 13 13 13 13 13 13 13 13 13 13 13 13 13 13 13 13 13 13 13 13 
13 13 13 13 13 13 13 13 13 13 13 13 13 13 13 13 13 13 13 13 13 13 13 13 13 13 13 13 13 13 13 13 13 13 13 13 13 13 13 13 13 13 0 26 255 13 13 13 13 13 13 0 26 255 13 13 13 0 26 255 13 13 13 13 13 13 13 13 13 13 13 13 13 13 13 13 13 13 13 13 13 0 26 255 13 13 13 13 13 13 13 13 13 13 13 13 5 36 246 5 36 246 2 31 250 0 26 255 13 13 13 0 26 255 0 26 255 13 13 13 13 13 13 13 13 13 1 27 254 0 27 254 5 37 245 13 13 13 1 28 253 0 26 255 0 26 255 0 26 255 13 13 13 13 13 13 0 26 255 0 26 255 0 26 255 0 26 255 6 39 244 13 13 13 13 13 13 3 31 250 0 26 254 13 13 13 3 33 249 0 26 255 0 26 255 0 26 255 0 26 255 0 26 255 0 26 254 0 26 254 1 27 253 0 26 254 3 32 250 13 13 13 13 13 13 0 26 255 0 26 255 0 26 254 0 26 254 2 30 251 2 30 251 2 30 251 3 32 249 3 32 249 5 37 245 0 26 255 5 37 245 0 26 255 3 32 250 0 26 255 0 26 255 5 38 244 10 49 235 5 38 244 13 13 13 4 35 247 2 31 250 3 32 249 1 27 253 1 27 254 0 26 254 0 26 255 13 13 13 13 13 13 4 35 247 3 33 249 2 29 252 13 13 13 5 37 245 13 13 13 13 13 13 13 13 13 13 13 13 13 13 13 13 13 13 11 50 234 13 13 13 10 48 235 10 48 235 13 13 13 13 13 13 13 13 13 13 13 13 13 13 13 13 13 13 13 13 13 13 13 13 13 13 13 13 13 13 13 13 13 13 13 13 13 13 13 13 13 13 13 13 13 13 13 13 13 13 13 13 13 13 13 13 13 13 13 13 13 13 13 13 13 13 13 13 13 13 13 13 13 13 13 13 13 13 13 13 13 13 13 13 13 13 13 13 13 13 13 13 13 13 13 13 13 13 13 25 83 206 13 13 13 13 13 13 13 13 13 13 13 13 13 13 13 18 68 218 13 13 13 13 13 13 13 13 13 13 13 13 13 13 13 13 13 13 13 13 13 13 13 13 13 13 13 13 13 13 13 13 13 13 13 13 13 13 13 13 13 13 5 37 245 13 13 13 13 13 13 13 13 13 13 13 13 13 13 13 13 13 13 13 13 13 13 13 13 13 13 13 13 13 13 13 13 13 13 13 13 13 13 13 13 13 13 13 13 13 13 13 13 13 13 13 13 13 13 13 13 13 13 13 13 13 13 13 13 13 13 13 13 13 13 13 13 13 13 13 13 13 13 
13 13 13 13 13 13 13 13 13 13 13 13 13 13 13 13 13 13 13 13 13 13 13 13 13 13 13 13 13 13 13 13 13 0 26 255 13 13 13 13 13 13 13 13 13 5 37 245 13 13 13 13 13 13 13 13 13 13 13 13 13 13 13 13 13 13 13 13 13 13 13 13 13 13 13 13 13 13 13 13 13 13 13 13 13 13 13 13 13 13 0 26 255 13 13 13 5 37 245 5 37 245 13 13 13 13 13 13 13 13 13 13 13 13 0 26 255 13 13 13 13 13 13 13 13 13 0 26 255 0 26 255 13 13 13 1 27 254 0 26 255 0 26 255 0 26 255 0 26 255 13 13 13 13 13 13 0 26 255 0 26 255 0 26 255 0 26 255 0 26 254 13 13 13 13 13 13 6 39 244 0 26 255 0 26 254 0 26 254 1 27 254 0 26 255 5 38 245 4 35 247 4 35 247 1 27 253 1 27 254 0 26 254 1 27 254 2 31 250 3 31 250 13 13 13 0 26 255 0 26 255 0 26 254 2 29 252 3 32 250 2 31 250 13 13 13 0 26 254 3 32 249 5 37 245 3 31 250 13 13 13 5 38 245 3 32 250 0 26 255 13 13 13 1 28 253 15 60 226 13 13 13 5 38 245 13 13 13 13 13 13 0 26 254 0 26 254 0 26 254 0 26 255 13 13 13 0 26 255 13 13 13 13 13 13 2 29 252 0 26 254 4 35 247 13 13 13 13 13 13 6 39 244 13 13 13 13 13 13 13 13 13 13 13 13 13 13 13 13 13 13 13 13 13 13 55 230 13 13 13 13 13 13 13 13 13 13 13 13 13 13 13 13 13 13 13 13 13 13 13 13 13 13 13 13 13 13 13 13 13 13 13 13 13 13 13 13 13 13 5 37 245 13 13 13 9 46 237 13 13 13 13 13 13 13 13 13 8 44 239 13 13 13 13 13 13 13 13 13 13 13 13 13 13 13 13 13 13 13 13 13 13 13 13 13 13 13 13 13 13 13 13 13 13 13 13 13 13 13 13 13 13 13 13 13 13 13 13 13 13 13 13 13 13 13 13 13 13 13 13 13 13 13 13 13 13 13 13 13 13 13 13 13 13 13 13 13 13 13 13 13 13 13 13 13 13 13 13 13 13 13 13 13 13 13 13 13 13 13 13 13 13 13 13 13 13 13 13 13 13 13 13 13 13 13 13 13 13 13 13 13 13 13 13 13 13 13 13 13 13 13 13 13 13 13 13 13 13 13 13 13 13 13 13 13 13 13 13 13 13 13 13 13 13 13 13 13 13 13 13 13 13 13 13 13 13 13 13 13 13 13 13 13 13 13 13 13 13 13 13 
13 13 13 13 13 13 13 13 13 13 13 13 13 13 13 13 13 13 0 26 255 13 13 13 13 13 13 13 13 13 13 13 13 13 13 13 13 13 13 13 13 13 13 13 13 13 13 13 13 13 13 5 38 244 13 13 13 13 13 13 13 13 13 13 13 13 0 26 255 13 13 13 13 13 13 13 13 13 13 13 13 13 13 13 0 26 255 13 13 13 13 13 13 13 13 13 13 13 13 13 13 13 13 13 13 0 26 254 13 13 13 13 13 13 13 13 13 0 26 255 13 13 13 13 13 13 13 13 13 13 13 13 0 26 255 13 13 13 13 13 13 0 26 255 0 26 255 0 26 255 0 26 255 13 13 13 13 13 13 13 13 13 13 13 13 13 13 13 13 13 13 1 27 254 13 13 13 13 13 13 0 26 255 0 26 255 0 26 255 0 26 255 0 26 255 5 38 244 5 38 245 5 38 245 2 30 251 1 27 253 1 27 253 1 27 254 1 28 253 1 28 253 0 26 255 13 13 13 13 13 13 0 26 254 0 26 254 1 28 252 13 13 13 13 13 13 13 13 13 13 13 13 6 39 243 13 13 13 13 13 13 4 35 247 6 39 243 6 40 242 6 39 243 6 38 244 5 38 244 5 38 244 13 13 13 13 13 13 13 13 13 0 26 254 0 26 254 0 26 255 13 13 13 0 26 255 13 13 13 13 13 13 13 13 13 3 32 249 2 29 252 13 13 13 13 13 13 13 13 13 13 13 13 13 13 13 1 27 254 0 26 255 13 13 13 13 13 13 13 13 13 13 13 13 13 13 13 13 13 13 13 13 13 13 13 13 13 13 13 13 13 13 13 13 13 13 13 13 13 13 13 13 13 13 13 13 13 13 13 13 13 13 13 13 13 13 13 13 13 13 13 13 5 38 245 7 42 241 13 13 13 47 135 161 13 13 13 13 13 13 13 13 13 13 13 13 13 13 13 13 13 13 13 13 13 13 13 13 13 13 13 5 37 245 13 13 13 13 13 13 13 13 13 13 13 13 13 13 13 13 13 13 13 13 13 13 13 13 13 13 13 13 13 13 13 13 13 13 13 13 13 13 13 13 13 13 13 13 13 13 13 13 13 13 13 13 13 13 13 13 13 13 13 13 13 13 13 13 13 13 13 13 13 13 13 13 13 13 13 13 13 13 13 13 13 13 13 13 13 13 13 13 13 13 13 13 13 13 13 13 13 13 13 13 13 13 13 13 13 13 13 13 13 13 13 13 13 13 13 13 13 13 13 13 13 13 13 13 13 13 13 13 13 7 42 241 13 13 13 13 13 13 13 13 13 13 13 13 13 13 13 13 13 13 13 13 13 13 13 13 
13 13 13 13 13 13 13 13 13 13 13 13 13 13 13 13 13 13 13 13 13 13 13 13 13 13 13 13 13 13 13 13 13 13 13 13 13 13 13 13 13 13 13 13 13 13 13 13 13 13 13 1 27 254 0 26 254 0 26 255 13 13 13 13 13 13 13 13 13 13 13 13 13 13 13 13 13 13 0 26 255 13 13 13 13 13 13 13 13 13 13 13 13 13 13 13 13 13 13 13 13 13 13 13 13 13 13 13 13 13 13 13 13 13 13 13 13 13 13 13 0 26 255 13 13 13 13 13 13 13 13 13 13 13 13 2 30 251 2 30 251 1 28 252 0 26 255 0 26 255 0 26 255 13 13 13 13 13 13 0 26 255 13 13 13 13 13 13 1 27 254 13 13 13 13 13 13 13 13 13 13 13 13 13 13 13 0 26 254 1 28 253 2 30 251 4 36 246 3 33 248 3 33 248 3 33 248 1 27 253 0 26 254 0 26 254 0 26 254 1 28 253 0 26 255 0 26 255 0 26 255 0 26 255 0 26 255 1 28 253 13 13 13 13 13 13 13 13 13 13 13 13 13 13 13 4 35 247 3 32 249 3 32 249 5 36 246 6 40 242 6 38 244 4 34 248 4 34 248 5 38 244 13 13 13 13 13 13 5 37 245 0 26 254 0 26 254 0 26 255 0 26 255 0 26 254 13 13 13 13 13 13 3 32 249 2 29 252 3 31 250 13 13 13 13 13 13 13 13 13 7 43 240 5 37 245 2 30 251 3 33 249 3 33 248 5 38 244 5 38 244 5 38 244 13 13 13 7 41 241 13 13 13 13 13 13 2 29 252 13 13 13 13 13 13 13 13 13 13 13 13 13 13 13 13 13 13 13 13 13 5 38 244 13 13 13 13 13 13 13 13 13 5 37 245 5 38 245 13 13 13 13 13 13 13 13 13 13 13 13 13 13 13 13 13 13 13 13 13 13 13 13 13 13 13 13 13 13 13 13 13 13 13 13 13 13 13 13 13 13 13 13 13 13 13 13 13 13 13 13 13 13 13 13 13 13 13 13 13 13 13 13 13 13 13 13 13 13 13 13 13 13 13 13 13 13 13 13 13 13 13 13 13 13 13 13 13 13 13 13 13 13 13 13 13 13 13 13 13 13 13 13 13 13 13 13 13 13 13 13 13 13 13 13 13 13 13 13 13 13 13 13 13 13 13 13 13 13 13 13 13 13 13 13 13 13 13 13 13 13 13 13 13 13 13 13 13 13 13 13 13 13 13 13 13 13 13 13 13 13 13 13 13 13 13 13 13 13 13 13 13 13 13 13 13 13 13 13 13 13 13 13 13 13 13 13 13 13 13 13 
13 13 13 13 13 13 13 13 13 13 13 13 13 13 13 13 13 13 13 13 13 13 13 13 13 13 13 13 13 13 13 13 13 13 13 13 13 13 13 13 13 13 0 26 255 13 13 13 13 13 13 13 13 13 0 26 255 13 13 13 13 13 13 13 13 13 13 13 13 13 13 13 0 26 255 0 26 255 13 13 13 13 13 13 13 13 13 13 13 13 13 13 13 13 13 13 13 13 13 13 13 13 13 13 13 13 13 13 13 13 13 13 13 13 13 13 13 13 13 13 13 13 13 13 13 13 13 13 13 13 13 13 13 13 13 2 30 251 1 28 253 13 13 13 13 13 13 0 26 255 0 26 255 13 13 13 13 13 13 13 13 13 13 13 13 0 26 255 0 26 254 13 13 13 13 13 13 0 26 255 5 38 245 13 13 13 13 13 13 1 27 254 1 28 253 3 32 250 0 26 255 1 28 253 1 28 253 1 28 253 0 26 255 13 13 13 13 13 13 1 28 253 1 28 253 0 26 255 0 26 255 0 26 255 0 26 255 0 26 254 13 13 13 0 26 255 4 36 246 13 13 13 5 38 244 2 29 252 1 27 254 3 32 249 3 32 249 6 40 242 6 39 243 13 13 13 13 13 13 13 13 13 5 37 245 5 37 245 5 37 245 5 37 245 1 27 254 13 13 13 13 13 13 1 27 254 3 32 249 5 37 245 13 13 13 4 35 247 13 13 13 6 39 243 13 13 13 13 13 13 7 43 240 3 32 249 13 13 13 7 41 242 13 13 13 5 37 245 5 37 245 5 38 244 5 38 244 13 13 13 13 13 13 13 13 13 13 13 13 13 13 13 13 13 13 9 47 237 5 38 245 13 13 13 13 13 13 13 13 13 13 13 13 5 37 245 5 37 245 13 13 13 13 13 13 13 13 13 13 13 13 13 13 13 13 13 13 13 13 13 13 13 13 13 13 13 13 13 13 13 13 13 13 13 13 13 13 13 13 13 13 13 13 13 13 13 13 13 13 13 13 13 13 13 13 13 13 13 13 13 13 13 13 13 13 13 13 13 13 13 13 13 13 13 13 13 13 13 13 13 13 13 13 13 13 13 13 13 13 13 13 13 13 13 13 13 13 13 13 13 13 13 13 13 13 13 13 13 13 13 13 13 13 13 13 13 13 13 13 13 13 13 13 13 13 13 13 13 13 13 13 13 13 13 13 13 13 13 13 13 13 13 13 13 13 13 13 13 13 13 13 13 13 13 13 13 13 13 13 13 13 13 13 13 13 13 13 13 13 13 13 13 13 13 13 13 13 13 13 13 13 13 13 13 13 13 13 13 13 13 13 13 13 13 13 13 13 16 64 222 
13 13 13 0 26 255 13 13 13 13 13 13 13 13 13 13 13 13 13 13 13 13 13 13 13 13 13 13 13 13 13 13 13 13 13 13 13 13 13 13 13 13 13 13 13 13 13 13 13 13 13 13 13 13 13 13 13 13 13 13 13 13 13 13 13 13 13 13 13 13 13 13 0 26 255 13 13 13 0 26 255 0 26 255 13 13 13 13 13 13 13 13 13 13 13 13 13 13 13 0 26 255 13 13 13 1 27 254 5 38 244 13 13 13 5 38 245 13 13 13 13 13 13 1 28 253 9 47 236 13 13 13 13 13 13 0 26 254 2 29 252 13 13 13 13 13 13 0 26 255 0 26 255 0 26 255 13 13 13 13 13 13 0 26 255 0 26 255 0 26 255 13 13 13 3 32 249 4 34 248 3 33 248 5 37 245 13 13 13 13 13 13 13 13 13 1 28 253 13 13 13 1 27 254 1 29 252 1 27 254 13 13 13 0 26 255 13 13 13 13 13 13 0 26 255 0 26 255 13 13 13 0 26 255 0 26 254 0 26 254 5 37 245 4 36 246 13 13 13 5 37 245 1 28 253 1 29 252 1 28 253 1 28 253 1 28 253 6 39 243 9 46 237 13 13 13 13 13 13 13 13 13 0 27 254 5 37 245 5 37 245 5 37 245 13 13 13 13 13 13 13 13 13 13 13 13 5 37 245 5 37 245 5 37 245 13 13 13 3 32 250 5 36 246 5 36 246 13 13 13 13 13 13 13 13 13 13 13 13 13 13 13 13 13 13 13 13 13 5 37 245 5 37 245 13 13 13 13 13 13 5 38 244 13 13 13 13 13 13 13 13 13 5 37 245 5 37 245 5 37 245 13 13 13 13 13 13 7 43 240 6 38 244 5 38 244 5 37 245 13 13 13 13 13 13 13 13 13 5 37 245 13 13 13 13 13 13 13 13 13 13 13 13 5 38 244 13 13 13 13 13 13 13 13 13 5 38 244 13 13 13 13 13 13 13 13 13 5 38 244 13 13 13 13 13 13 13 13 13 13 13 13 13 13 13 13 13 13 13 13 13 13 13 13 13 13 13 13 13 13 13 13 13 13 13 13 13 13 13 13 13 13 13 13 13 13 13 13 13 13 13 13 13 13 13 13 13 13 13 13 13 13 13 13 13 13 13 13 13 13 13 13 13 13 13 13 13 13 13 13 13 13 13 13 13 13 13 13 13 13 13 13 13 13 13 13 13 13 13 13 13 13 13 13 13 13 13 13 13 13 13 13 13 13 13 13 13 13 13 13 13 13 13 13 13 13 13 13 13 13 13 13 13 13 13 13 13 13 13 13 13 13 13 13 13 13 13 13 13 13 
0 26 255 13 13 13 13 13 13 13 13 13 13 13 13 13 13 13 13 13 13 13 13 13 13 13 13 13 13 13 13 13 13 13 13 13 118 216 78 13 13 13 0 26 255 13 13 13 13 13 13 13 13 13 13 13 13 13 13 13 13 13 13 13 13 13 13 13 13 13 13 13 13 13 13 13 13 13 13 13 13 13 13 13 13 13 13 13 13 13 13 13 13 13 13 13 0 26 255 13 13 13 13 13 13 13 13 13 13 13 13 13 13 13 1 27 254 1 27 254 13 13 13 13 13 13 13 13 13 13 13 13 13 13 13 13 13 13 3 32 250 0 26 255 13 13 13 0 26 255 0 26 255 0 26 255 13 13 13 13 13 13 1 27 254 0 26 254 13 13 13 13 13 13 5 38 245 5 38 245 5 37 245 13 13 13 13 13 13 13 13 13 13 13 13 13 13 13 1 27 254 13 13 13 13 13 13 13 13 13 0 26 254 0 26 255 0 26 255 0 26 255 13 13 13 0 26 255 0 26 255 0 26 254 0 26 254 0 26 254 0 26 255 5 37 245 6 39 243 13 13 13 13 13 13 1 29 252 1 29 252 1 27 254 1 27 254 1 27 254 8 44 239 8 44 239 7 41 242 13 13 13 13 13 13 5 37 245 5 37 245 13 13 13 13 13 13 5 37 245 13 13 13 13 13 13 5 37 245 5 37 245 3 32 249 1 27 253 1 27 254 3 31 250 13 13 13 0 27 254 13 13 13 13 13 13 3 32 249 13 13 13 13 13 13 13 13 13 13 13 13 5 37 245 13 13 13 13 13 13 13 13 13 13 13 13 5 37 245 5 37 245 5 37 245 5 37 245 5 38 245 13 13 13 13 13 13 13 13 13 6 38 244 5 38 244 5 38 244 5 37 245 13 13 13 5 37 245 5 38 245 5 38 244 13 13 13 13 13 13 5 38 244 5 38 244 5 38 244 13 13 13 13 13 13 13 13 13 5 38 244 6 38 244 5 38 244 5 38 244 5 38 244 13 13 13 13 13 13 13 13 13 13 13 13 13 13 13 13 13 13 13 13 13 13 13 13 13 13 13 13 13 13 13 13 13 13 13 13 13 13 13 13 13 13 13 13 13 13 13 13 13 13 13 13 13 13 13 13 13 13 13 13 13 13 13 13 13 13 13 13 13 13 13 13 13 13 13 13 13 13 13 13 13 13 13 13 13 13 13 13 13 13 13 13 13 13 13 13 13 13 13 13 13 13 13 13 13 13 13 13 13 13 13 13 13 13 13 13 13 13 13 13 13 13 13 13 13 13 13 13 13 13 13 13 13 13 13 13 13 13 13 13 13 13 13 13 13 13 13 
13 13 13 13 13 13 13 13 13 13 13 13 13 13 13 13 13 13 13 13 13 13 13 13 13 13 13 13 13 13 13 13 13 13 13 13 13 13 13 13 13 13 10 49 235 13 13 13 13 13 13 13 13 13 13 13 13 13 13 13 13 13 13 13 13 13 13 13 13 13 13 13 13 13 13 13 13 13 13 13 13 13 13 13 13 13 13 13 13 13 13 13 13 13 13 13 13 13 13 13 13 13 13 13 13 13 13 13 13 13 13 13 13 13 13 13 13 0 26 255 13 13 13 13 13 13 13 13 13 13 13 13 13 13 13 5 37 245 5 38 244 13 13 13 13 13 13 13 13 13 0 26 255 13 13 13 13 13 13 13 13 13 3 33 249 1 27 254 13 13 13 13 13 13 1 28 253 1 29 252 0 27 254 13 13 13 13 13 13 0 26 255 13 13 13 0 26 254 13 13 13 13 13 13 13 13 13 13 13 13 13 13 13 0 26 254 0 26 255 0 26 255 0 26 255 0 26 254 0 26 254 13 13 13 13 13 13 5 37 245 13 13 13 13 13 13 5 37 245 13 13 13 13 13 13 1 29 252 3 33 249 1 28 253 1 27 254 1 27 254 4 35 247 7 42 241 7 42 241 13 13 13 13 13 13 13 13 13 13 13 13 13 13 13 5 36 246 5 38 244 13 13 13 13 13 13 5 37 245 4 34 247 3 32 249 3 32 249 3 32 250 13 13 13 13 13 13 13 13 13 13 13 13 5 38 244 13 13 13 13 13 13 7 43 240 13 13 13 5 38 245 5 37 245 5 37 245 5 37 245 5 37 245 5 37 245 5 37 245 5 37 245 5 38 244 5 38 244 5 38 244 13 13 13 13 13 13 6 38 244 5 38 244 5 38 244 5 38 244 5 38 244 5 37 245 5 38 244 5 38 244 5 38 244 5 38 244 6 39 243 13 13 13 5 38 244 5 38 244 5 38 244 5 38 244 5 38 244 5 38 244 5 38 244 5 38 244 5 38 244 5 38 244 5 38 244 13 13 13 13 13 13 13 13 13 6 39 243 13 13 13 13 13 13 13 13 13 13 13 13 13 13 13 13 13 13 13 13 13 13 13 13 13 13 13 13 13 13 13 13 13 13 13 13 13 13 13 13 13 13 13 13 13 13 13 13 13 13 13 13 13 13 13 13 13 13 13 13 13 13 13 13 13 13 13 13 13 13 13 13 13 13 13 13 13 13 13 13 13 13 13 13 13 13 13 13 13 13 13 13 13 13 13 13 13 13 13 13 13 13 13 13 13 13 13 13 13 13 13 13 13 13 13 13 13 13 13 13 13 13 13 13 13 13 13 13 13 13 13 13 
13 13 13 13 13 13 13 13 13 13 13 13 13 13 13 13 13 13 13 13 13 13 13 13 13 13 13 13 13 13 13 13 13 13 13 13 13 13 13 13 13 13 13 13 13 13 13 13 13 13 13 13 13 13 13 13 13 13 13 13 13 13 13 13 13 13 13 13 13 13 13 13 13 13 13 13 13 13 13 13 13 13 13 13 13 13 13 13 13 13 13 13 13 0 26 254 13 13 13 13 13 13 13 13 13 13 13 13 13 13 13 13 13 13 13 13 13 13 13 13 13 13 13 13 13 13 13 13 13 13 13 13 13 13 13 13 13 13 13 13 13 13 13 13 13 13 13 5 38 245 13 13 13 13 13 13 13 13 13 5 38 244 4 36 246 13 13 13 13 13 13 13 13 13 1 27 254 0 26 254 0 26 254 0 27 254 13 13 13 5 37 245 2 31 251 13 13 13 13 13 13 13 13 13 13 13 13 13 13 13 13 13 13 5 38 245 0 26 255 3 31 250 0 26 255 4 35 247 13 13 13 13 13 13 13 13 13 3 32 250 1 28 253 13 13 13 13 13 13 13 13 13 0 26 254 5 38 245 5 38 244 13 13 13 2 31 250 1 27 254 4 35 247 13 13 13 13 13 13 5 38 244 5 37 245 5 38 244 3 33 249 0 27 254 5 38 244 4 35 246 5 37 245 13 13 13 4 36 246 5 36 246 5 36 246 4 36 246 5 37 245 13 13 13 13 13 13 5 38 244 5 38 244 13 13 13 13 13 13 5 37 245 6 39 244 5 38 244 5 38 244 5 38 244 5 37 245 5 37 245 5 37 245 5 37 245 5 37 245 5 38 244 6 39 243 5 38 244 5 38 244 13 13 13 13 13 13 5 38 244 5 38 244 5 38 244 5 38 244 5 38 245 5 37 245 5 38 244 5 38 244 5 38 244 5 38 244 5 38 244 5 38 244 5 38 244 5 38 244 5 38 244 5 38 244 5 38 244 5 38 244 5 38 244 5 38 244 5 38 244 5 38 244 5 38 244 5 38 244 13 13 13 13 13 13 13 13 13 13 13 13 13 13 13 13 13 13 13 13 13 13 13 13 7 41 242 13 13 13 13 13 13 11 52 232 13 13 13 13 13 13 13 13 13 13 13 13 13 13 13 13 13 13 13 13 13 13 13 13 13 13 13 13 13 13 13 13 13 13 13 13 13 13 13 13 13 13 13 13 13 13 13 13 13 13 13 13 13 13 13 13 13 13 13 13 13 13 13 13 13 13 13 13 13 13 13 13 13 13 13 13 13 13 13 13 13 13 13 13 13 13 13 13 13 13 13 13 13 13 13 13 13 13 13 13 13 13 13 13 13 
13 13 13 13 13 13 13 13 13 13 13 13 13 13 13 13 13 13 13 13 13 13 13 13 13 13 13 13 13 13 13 13 13 13 13 13 13 13 13 13 13 13 13 13 13 13 13 13 13 13 13 13 13 13 13 13 13 13 13 13 13 13 13 13 13 13 13 13 13 13 13 13 13 13 13 13 13 13 13 13 13 13 13 13 13 13 13 0 26 255 13 13 13 13 13 13 13 13 13 13 13 13 13 13 13 13 13 13 0 26 255 13 13 13 13 13 13 13 13 13 5 37 245 13 13 13 1 27 254 0 26 255 13 13 13 13 13 13 13 13 13 13 13 13 6 40 242 7 43 240 13 13 13 13 13 13 13 13 13 5 38 244 5 38 244 4 36 246 13 13 13 13 13 13 1 27 254 0 26 254 0 26 254 13 13 13 13 13 13 13 13 13 13 13 13 4 35 247 13 13 13 13 13 13 13 13 13 13 13 13 13 13 13 13 13 13 4 35 247 5 37 245 3 31 250 13 13 13 13 13 13 13 13 13 3 33 249 2 30 252 0 27 254 2 29 252 13 13 13 13 13 13 5 37 245 5 38 244 5 38 244 13 13 13 6 38 244 4 36 246 4 35 246 2 31 250 3 32 250 5 37 245 5 38 245 5 38 244 3 33 249 1 28 253 5 37 245 5 38 245 5 38 245 5 37 245 4 36 246 5 38 244 5 38 244 5 38 244 5 37 245 5 38 244 13 13 13 13 13 13 5 38 244 6 40 242 13 13 13 13 13 13 6 39 244 5 38 244 5 38 244 5 38 244 5 37 245 5 37 245 5 38 245 5 38 244 5 38 244 6 39 243 5 38 244 5 38 244 5 38 244 5 38 244 5 38 244 5 38 244 5 38 244 5 38 245 5 38 244 13 13 13 5 37 245 5 38 244 5 38 244 5 38 244 5 38 244 5 38 244 5 38 244 5 38 244 5 38 244 5 38 244 5 38 244 5 38 244 5 38 244 5 38 244 5 38 244 5 38 244 5 38 244 5 38 244 5 38 244 13 13 13 13 13 13 13 13 13 13 13 13 13 13 13 13 13 13 13 13 13 13 13 13 13 13 13 14 58 227 13 13 13 13 13 13 13 13 13 13 13 13 13 13 13 13 13 13 13 13 13 13 13 13 13 13 13 13 13 13 13 13 13 13 13 13 13 13 13 13 13 13 13 13 13 13 13 13 13 13 13 13 13 13 13 13 13 13 13 13 13 13 13 13 13 13 13 13 13 13 13 13 13 13 13 13 13 13 13 13 13 13 13 13 13 13 13 13 13 13 13 13 13 13 13 13 13 13 13 13 13 13 13 13 13 13 13 13 13 13 13 
13 13 13 13 13 13 13 13 13 13 13 13 13 13 13 13 13 13 13 13 13 13 13 13 13 13 13 13 13 13 13 13 13 13 13 13 13 13 13 13 13 13 13 13 13 13 13 13 13 13 13 0 26 255 13 13 13 13 13 13 13 13 13 13 13 13 13 13 13 13 13 13 10 48 236 13 13 13 13 13 13 13 13 13 13 13 13 13 13 13 13 13 13 13 13 13 13 13 13 13 13 13 13 13 13 13 13 13 13 13 13 13 13 13 13 13 13 13 13 13 13 13 13 13 13 13 13 13 13 13 13 13 1 27 254 1 27 254 3 32 249 8 45 238 13 13 13 0 26 255 13 13 13 13 13 13 5 38 244 5 38 244 6 40 243 13 13 13 2 31 250 5 37 245 13 13 13 13 13 13 13 13 13 13 13 13 13 13 13 13 13 13 2 30 251 13 13 13 0 27 254 1 27 254 13 13 13 13 13 13 0 26 254 13 13 13 5 36 246 4 36 246 4 36 246 13 13 13 5 38 244 5 37 245 5 37 245 4 35 247 2 29 252 5 37 245 5 38 245 5 37 245 5 38 244 5 38 244 5 38 244 5 38 244 6 38 244 5 38 244 5 37 245 5 36 246 4 35 247 5 36 246 5 37 245 5 37 245 5 37 245 5 37 245 5 37 245 5 38 244 5 38 244 5 38 244 5 38 244 5 38 244 5 38 244 5 38 244 5 38 244 5 38 244 5 37 245 5 38 245 5 38 244 6 38 244 6 39 243 5 38 244 5 38 244 5 38 244 5 38 244 5 38 244 5 38 244 5 38 244 5 38 244 5 38 244 6 38 244 5 38 244 5 38 244 5 38 244 5 38 244 5 38 244 5 38 244 5 38 244 5 38 244 5 38 244 5 38 244 5 38 244 5 37 245 5 38 244 5 38 244 5 38 244 5 38 244 5 38 244 5 38 244 5 38 244 5 38 244 5 38 244 5 38 244 5 38 244 5 38 244 5 38 244 5 38 244 5 38 244 5 38 244 5 38 244 5 38 244 13 13 13 13 13 13 13 13 13 13 13 13 13 13 13 13 13 13 13 13 13 13 13 13 13 13 13 13 13 13 13 13 13 13 13 13 13 13 13 13 13 13 13 13 13 13 13 13 13 13 13 13 13 13 13 13 13 13 13 13 13 13 13 13 13 13 13 13 13 13 13 13 13 13 13 13 13 13 13 13 13 13 13 13 13 13 13 13 13 13 13 13 13 13 13 13 13 13 13 13 13 13 13 13 13 13 13 13 13 13 13 13 13 13 13 13 13 13 13 13 13 13 13 13 13 13 13 13 13 13 13 13 13 13 13 13 13 13 13 13 13 
13 13 13 13 13 13 13 13 13 13 13 13 13 13 13 13 13 13 13 13 13 13 13 13 13 13 13 13 13 13 13 13 13 13 13 13 13 13 13 13 13 13 13 13 13 70 188 115 13 13 13 13 13 13 13 13 13 13 13 13 0 26 254 13 13 13 13 13 13 13 13 13 13 13 13 13 13 13 13 13 13 13 13 13 13 13 13 13 13 13 13 13 13 13 13 13 13 13 13 13 13 13 13 13 13 5 37 245 13 13 13 13 13 13 13 13 13 13 13 13 13 13 13 13 13 13 13 13 13 13 13 13 13 13 13 1 27 254 3 32 249 13 13 13 13 13 13 13 13 13 13 13 13 13 13 13 13 13 13 7 42 241 13 13 13 13 13 13 13 13 13 13 13 13 13 13 13 13 13 13 0 26 254 13 13 13 13 13 13 13 13 13 13 13 13 2 31 250 0 27 254 0 26 254 1 27 254 4 35 247 7 43 240 6 40 243 4 35 247 4 34 248 5 38 244 5 38 244 5 38 244 5 37 245 5 38 245 5 37 245 5 38 244 6 39 243 5 38 244 5 37 245 5 37 245 5 37 245 5 38 244 3 33 249 6 38 244 5 37 245 5 37 245 5 36 246 5 37 245 5 36 246 5 37 245 4 36 246 4 36 246 5 37 245 5 37 245 5 38 245 5 38 244 5 38 244 5 38 244 5 38 244 5 38 244 5 38 244 5 38 244 5 37 245 5 37 245 5 37 245 5 38 245 6 38 244 6 38 244 5 38 245 5 38 245 5 38 244 5 38 244 5 38 244 5 38 245 5 38 244 5 38 244 6 38 244 6 38 244 5 38 244 5 38 245 5 38 244 5 38 244 5 38 244 5 38 244 5 38 244 5 38 244 5 38 244 5 38 244 5 38 244 5 38 244 5 38 244 5 38 244 5 38 244 5 38 244 5 38 244 5 38 244 5 38 244 5 38 244 5 38 244 5 38 244 5 38 244 5 38 244 5 38 244 5 38 244 5 38 244 5 38 244 5 38 244 5 38 244 13 13 13 13 13 13 13 13 13 13 13 13 13 13 13 13 13 13 13 13 13 13 13 13 13 13 13 13 13 13 13 13 13 13 13 13 13 13 13 13 13 13 13 13 13 13 13 13 13 13 13 13 13 13 13 13 13 13 13 13 13 13 13 13 13 13 13 13 13 13 13 13 13 13 13 13 13 13 13 13 13 13 13 13 13 13 13 13 13 13 7 43 240 13 13 13 13 13 13 13 13 13 13 13 13 13 13 13 13 13 13 11 52 232 13 13 13 13 13 13 13 13 13 13 13 13 13 13 13 13 13 13 13 13 13 13 13 13 13 13 13 
13 13 13 13 13 13 13 13 13 13 13 13 13 13 13 13 13 13 13 13 13 13 13 13 13 13 13 13 13 13 13 13 13 13 13 13 13 13 13 13 13 13 13 13 13 13 13 13 13 13 13 13 13 13 13 13 13 13 13 13 13 13 13 13 13 13 13 13 13 13 13 13 13 13 13 13 13 13 13 13 13 13 13 13 13 13 13 13 13 13 13 13 13 13 13 13 13 13 13 13 13 13 13 13 13 13 13 13 13 13 13 13 13 13 13 13 13 13 13 13 0 26 254 13 13 13 13 13 13 13 13 13 13 13 13 13 13 13 13 13 13 13 13 13 13 13 13 13 13 13 13 13 13 13 13 13 13 13 13 13 13 13 13 13 13 13 13 13 13 13 13 2 30 251 3 32 250 1 29 252 2 29 252 1 27 253 1 27 254 13 13 13 3 32 249 3 32 249 2 30 251 1 27 254 2 30 251 7 42 241 7 43 240 6 40 242 5 38 245 5 38 244 5 38 244 5 38 244 5 38 244 5 37 245 5 38 244 5 38 244 5 38 244 6 38 244 5 38 244 5 38 244 5 38 244 5 37 245 5 38 245 3 33 249 1 27 254 5 38 244 5 38 245 5 37 245 5 37 245 5 37 245 5 36 246 4 35 247 4 35 247 5 37 245 5 37 245 5 38 244 5 38 244 5 38 244 5 38 244 5 38 244 5 38 244 5 38 244 5 38 244 5 37 245 5 37 245 5 38 245 5 38 244 5 38 244 5 38 244 5 37 245 5 38 245 5 38 244 5 38 244 5 38 244 5 38 244 5 38 244 5 38 244 5 38 244 5 38 244 5 38 244 5 38 244 5 38 244 5 38 244 5 38 244 5 38 244 5 38 244 5 38 244 5 38 244 5 38 244 5 38 244 5 38 244 5 38 244 5 38 244 5 38 244 5 38 244 5 38 244 5 38 244 5 38 244 5 38 244 5 38 244 5 38 244 5 38 244 5 38 244 5 38 244 5 38 244 5 38 244 5 38 244 5 38 244 5 38 244 13 13 13 13 13 13 13 13 13 13 13 13 13 13 13 13 13 13 13 13 13 13 13 13 13 13 13 13 13 13 13 13 13 13 13 13 13 13 13 13 13 13 13 13 13 13 13 13 13 13 13 10 48 235 13 13 13 13 13 13 11 51 233 13 13 13 13 13 13 13 13 13 13 13 13 13 13 13 13 13 13 13 13 13 13 13 13 13 13 13 13 13 13 13 13 13 13 13 13 13 13 13 13 13 13 13 13 13 13 13 13 13 13 13 13 13 13 13 13 13 13 13 13 13 13 13 13 13 13 13 13 13 23 79 209 13 13 13 13 13 13 
13 13 13 13 13 13 1 27 254 13 13 13 13 13 13 13 13 13 13 13 13 13 13 13 13 13 13 13 13 13 13 13 13 13 13 13 13 13 13 13 13 13 13 13 13 13 13 13 0 26 254 13 13 13 13 13 13 13 13 13 13 13 13 13 13 13 13 13 13 13 13 13 13 13 13 13 13 13 13 13 13 13 13 13 13 13 13 13 13 13 13 13 13 0 26 254 13 13 13 13 13 13 13 13 13 13 13 13 13 13 13 13 13 13 13 13 13 0 26 255 13 13 13 13 13 13 13 13 13 13 13 13 6 39 243 13 13 13 13 13 13 13 13 13 13 13 13 13 13 13 13 13 13 13 13 13 5 37 245 13 13 13 13 13 13 13 13 13 2 30 251 2 30 251 3 32 249 4 34 248 5 38 244 1 28 253 1 29 252 2 30 251 5 37 245 5 36 246 4 36 246 4 36 246 5 38 244 6 40 243 5 38 244 5 38 244 5 37 245 5 38 244 5 38 244 5 38 244 5 38 244 13 13 13 5 37 245 5 36 246 5 38 244 5 38 244 5 38 244 5 37 245 5 37 245 5 38 244 5 38 244 5 38 244 5 37 245 5 38 245 5 38 244 5 38 244 5 38 244 5 38 245 5 37 245 5 37 245 4 35 247 5 37 245 5 37 245 5 38 245 5 38 244 5 38 244 5 38 244 5 38 244 5 38 244 5 38 244 5 37 245 5 37 245 5 38 244 5 38 244 5 38 244 5 38 244 5 38 244 5 37 245 5 38 244 5 38 244 5 38 244 5 38 244 5 38 244 5 38 244 5 38 244 5 38 244 5 38 244 5 38 244 5 38 244 5 38 244 5 38 244 5 38 244 5 38 244 5 38 244 5 38 244 5 38 244 5 38 244 5 38 244 5 38 244 5 38 244 5 38 244 5 38 244 5 38 244 5 38 244 5 38 244 5 38 244 5 38 244 5 38 244 5 38 244 5 38 244 5 38 244 5 38 244 5 38 244 5 38 244 5 38 244 5 38 244 5 38 244 13 13 13 13 13 13 13 13 13 13 13 13 13 13 13 13 13 13 13 13 13 13 13 13 13 13 13 13 13 13 13 13 13 13 13 13 13 13 13 13 13 13 13 13 13 13 13 13 13 13 13 13 13 13 13 13 13 13 13 13 13 13 13 13 13 13 13 13 13 13 13 13 13 13 13 13 13 13 13 13 13 13 13 13 13 13 13 13 13 13 13 13 13 13 13 13 13 13 13 13 13 13 13 13 13 13 13 13 13 13 13 13 13 13 13 13 13 13 13 13 13 13 13 13 13 13 13 13 13 13 13 13 13 13 13 13 13 13 13 13 13 
13 13 13 13 13 13 13 13 13 13 13 13 13 13 13 13 13 13 13 13 13 13 13 13 13 13 13 13 13 13 13 13 13 0 26 255 13 13 13 13 13 13 13 13 13 13 13 13 13 13 13 13 13 13 13 13 13 13 13 13 13 13 13 13 13 13 13 13 13 13 13 13 13 13 13 13 13 13 13 13 13 13 13 13 13 13 13 13 13 13 13 13 13 13 13 13 1 27 254 13 13 13 13 13 13 13 13 13 13 13 13 13 13 13 13 13 13 13 13 13 13 13 13 0 26 254 13 13 13 13 13 13 13 13 13 13 13 13 13 13 13 201 240 31 4 34 247 13 13 13 13 13 13 4 34 247 3 34 248 4 35 247 13 13 13 13 13 13 2 31 251 3 32 249 5 37 245 5 37 245 13 13 13 13 13 13 13 13 13 13 13 13 5 37 245 5 37 245 5 36 246 5 36 246 5 37 245 5 37 245 5 37 245 5 38 245 5 37 245 5 38 244 5 38 244 5 38 244 5 38 244 5 37 245 5 37 245 5 37 245 5 38 245 5 37 245 5 37 245 5 37 245 5 38 244 5 38 244 5 38 244 5 38 244 5 37 245 5 38 244 5 38 244 5 38 244 5 38 244 5 38 244 5 38 245 5 37 245 5 37 245 5 37 245 5 37 245 5 37 245 5 38 244 5 38 244 5 38 244 5 38 244 5 38 244 5 38 244 5 38 244 5 38 244 5 38 244 5 38 244 5 38 244 5 38 244 5 38 244 5 38 244 5 38 244 5 38 245 5 38 244 5 38 245 5 38 244 5 38 244 5 38 244 5 38 244 5 38 244 5 38 244 5 38 244 5 38 244 5 38 244 5 38 244 5 38 244 5 38 244 5 38 244 6 39 244 6 39 243 5 38 244 5 38 244 5 38 244 5 38 244 5 38 244 5 38 244 5 38 244 5 38 244 5 38 244 5 38 244 5 38 244 5 38 244 6 38 244 5 38 244 5 38 244 5 38 244 5 38 244 5 38 244 5 38 244 5 38 244 13 13 13 13 13 13 13 13 13 13 13 13 13 13 13 13 13 13 13 13 13 13 13 13 13 13 13 13 13 13 13 13 13 13 13 13 13 13 13 13 13 13 13 13 13 13 13 13 13 13 13 13 13 13 13 13 13 13 13 13 13 13 13 13 13 13 13 13 13 13 13 13 13 13 13 13 13 13 13 13 13 13 13 13 13 13 13 13 13 13 13 13 13 13 13 13 13 13 13 13 13 13 13 13 13 13 13 13 13 13 13 13 13 13 13 13 13 13 13 13 13 13 13 13 13 13 13 13 13 13 13 13 13 13 13 13 13 13 13 13 13 
13 13 13 13 13 13 13 13 13 13 13 13 13 13 13 13 13 13 13 13 13 13 13 13 13 13 13 13 13 13 13 13 13 13 13 13 13 13 13 13 13 13 13 13 13 13 13 13 13 13 13 13 13 13 13 13 13 13 13 13 13 13 13 13 13 13 13 13 13 13 13 13 0 26 254 13 13 13 13 13 13 13 13 13 13 13 13 13 13 13 13 13 13 13 13 13 13 13 13 13 13 13 13 13 13 13 13 13 13 13 13 13 13 13 2 30 251 0 27 254 13 13 13 13 13 13 13 13 13 13 13 13 13 13 13 13 13 13 13 13 13 5 37 245 4 34 247 0 26 255 0 26 254 2 29 252 3 32 250 3 34 248 3 33 249 2 31 251 13 13 13 5 38 245 5 38 244 5 37 245 4 35 247 4 35 247 5 38 245 5 37 245 5 37 245 5 37 245 5 37 245 5 36 246 5 37 245 5 36 246 5 37 245 5 36 246 5 37 245 5 38 245 5 38 244 5 38 244 5 38 244 5 38 244 5 37 245 5 37 245 5 38 244 5 38 244 5 37 245 5 37 245 5 38 244 5 38 244 5 38 244 5 38 244 5 38 245 5 37 245 5 38 244 5 38 244 5 38 244 5 38 244 5 38 244 5 37 245 5 37 245 5 37 245 5 37 245 5 37 245 5 38 244 5 38 244 5 38 244 5 38 245 5 38 244 5 38 244 5 38 244 5 38 244 5 38 244 5 38 244 5 38 244 5 38 244 5 38 244 5 38 244 5 38 244 5 38 244 5 38 244 5 38 244 5 38 244 5 38 244 5 38 244 5 38 244 5 38 244 5 38 244 5 38 244 5 38 244 5 38 244 5 38 244 5 38 244 6 39 244 5 38 244 6 39 244 6 39 244 5 38 244 5 38 244 5 38 244 5 38 244 5 38 244 5 38 244 5 38 244 5 38 244 5 38 244 5 38 244 5 38 244 5 38 244 6 38 244 6 38 244 5 38 244 5 38 244 5 38 244 5 38 244 5 38 244 5 38 244 13 13 13 13 13 13 66 179 123 13 13 13 13 13 13 13 13 13 13 13 13 13 13 13 18 69 218 13 13 13 13 13 13 13 13 13 13 13 13 13 13 13 13 13 13 7 41 241 13 13 13 13 13 13 13 13 13 13 13 13 13 13 13 13 13 13 13 13 13 13 13 13 13 13 13 13 13 13 13 13 13 13 13 13 13 13 13 13 13 13 13 13 13 13 13 13 13 13 13 16 63 222 13 13 13 13 13 13 13 13 13 13 13 13 13 13 13 13 13 13 13 13 13 13 13 13 13 13 13 13 13 13 13 13 13 13 13 13 13 13 13 
13 13 13 13 13 13 13 13 13 13 13 13 13 13 13 13 13 13 13 13 13 13 13 13 13 13 13 13 13 13 13 13 13 13 13 13 13 13 13 13 13 13 13 13 13 13 13 13 13 13 13 13 13 13 13 13 13 13 13 13 13 13 13 13 13 13 13 13 13 13 13 13 13 13 13 13 13 13 13 13 13 13 13 13 13 13 13 13 13 13 13 13 13 13 13 13 13 13 13 13 13 13 5 37 245 13 13 13 5 37 245 5 37 245 2 30 251 2 30 251 13 13 13 13 13 13 5 37 245 1 28 253 13 13 13 13 13 13 13 13 13 13 13 13 13 13 13 13 13 13 3 32 250 4 34 247 4 34 247 6 39 243 6 39 244 13 13 13 13 13 13 13 13 13 5 38 244 5 37 245 5 37 245 4 35 247 5 38 245 5 38 245 5 37 245 13 13 13 5 37 245 5 37 245 5 37 245 5 37 245 3 32 249 5 37 245 5 37 245 5 38 245 5 38 244 5 38 244 6 40 243 5 38 244 5 37 245 5 37 245 5 38 244 5 38 244 5 38 244 5 38 244 5 38 244 5 38 244 5 38 244 5 38 244 5 38 244 5 38 244 5 38 244 5 37 245 5 38 244 5 38 244 5 38 244 5 38 244 5 38 244 5 37 245 5 38 245 5 38 244 5 38 244 5 38 244 5 38 244 5 38 244 5 38 244 5 38 244 5 38 244 5 38 244 5 38 244 5 38 244 5 38 244 5 38 244 5 38 244 5 38 244 5 38 244 5 38 244 5 38 244 5 38 244 5 38 244 5 38 244 5 38 244 5 38 244 6 38 244 5 38 244 5 38 244 5 38 244 5 38 244 6 38 244 6 38 244 6 38 244 5 38 244 5 38 244 5 38 244 5 38 244 5 38 244 5 38 244 5 38 244 5 38 244 5 38 244 5 38 244 5 38 244 5 38 244 5 38 244 5 38 244 5 38 244 5 38 244 5 38 244 5 38 244 5 38 244 5 38 244 5 38 244 6 38 244 6 40 243 13 13 13 13 13 13 81 205 100 13 13 13 13 13 13 13 13 13 13 13 13 13 13 13 13 13 13 13 13 13 13 13 13 6 41 242 13 13 13 13 13 13 13 13 13 13 13 13 13 13 13 13 57 228 13 13 13 13 13 13 13 13 13 13 13 13 13 13 13 13 13 13 13 13 13 13 13 13 13 13 13 13 13 13 13 13 13 13 13 13 13 13 13 13 13 13 13 13 13 13 13 13 13 13 13 13 13 13 13 13 13 13 13 13 13 13 13 13 13 13 13 13 13 13 13 13 13 13 13 13 13 13 13 13 13 13 13 13 13 13 13 
13 13 13 13 13 13 13 13 13 13 13 13 13 13 13 13 13 13 13 13 13 13 13 13 13 13 13 13 13 13 13 13 13 13 13 13 13 13 13 13 13 13 13 13 13 13 13 13 13 13 13 13 13 13 13 13 13 13 13 13 13 13 13 13 13 13 13 13 13 13 13 13 13 13 13 13 13 13 13 13 13 13 13 13 13 13 13 13 13 13 13 13 13 13 13 13 13 13 13 13 13 13 13 13 13 13 13 13 6 38 244 5 37 245 13 13 13 2 31 250 0 26 254 13 13 13 13 13 13 13 13 13 13 13 13 0 26 254 13 13 13 13 13 13 14 58 227 13 13 13 13 13 13 5 37 245 5 37 245 7 42 241 7 42 241 13 13 13 13 13 13 13 13 13 5 37 245 5 37 245 5 37 245 5 37 245 5 38 245 5 38 244 5 38 244 5 38 244 5 38 244 5 38 245 5 38 245 5 37 245 13 13 13 5 37 245 5 37 245 5 38 244 5 38 244 5 38 244 5 38 244 5 38 244 5 38 244 5 37 245 5 38 244 5 38 244 5 38 244 5 38 244 5 38 244 5 38 244 5 38 244 5 38 244 5 38 244 5 38 244 5 38 244 5 38 244 5 38 244 5 38 245 5 38 244 5 38 244 5 38 245 5 38 245 5 37 245 5 38 244 5 38 244 5 38 244 5 38 244 5 38 244 5 38 244 5 38 244 5 38 245 5 38 244 5 38 244 5 38 244 5 38 244 5 38 244 5 38 244 5 38 244 5 38 244 5 38 244 5 38 244 5 38 244 5 38 244 5 38 244 5 38 244 5 38 244 5 38 244 5 38 244 5 38 244 5 38 244 5 38 244 5 38 244 5 38 244 5 38 244 5 38 244 5 38 244 5 38 244 5 38 244 5 38 244 5 38 244 5 38 244 5 38 244 5 38 244 5 38 244 5 38 244 5 38 244 5 38 244 5 38 244 5 38 244 5 38 244 5 38 244 5 38 244 5 38 244 5 38 244 5 38 244 6 38 244 7 41 242 13 13 13 13 55 230 12 53 231 10 49 235 13 13 13 13 13 13 7 41 242 11 51 233 9 47 237 7 42 241 13 13 13 13 13 13 13 13 13 13 13 13 13 13 13 13 13 13 13 13 13 13 13 13 13 13 13 13 13 13 13 13 13 13 13 13 13 13 13 13 13 13 13 13 13 13 13 13 13 13 13 13 13 13 13 13 13 13 13 13 13 13 13 13 13 13 13 13 13 13 13 13 13 13 13 13 13 13 13 13 13 13 13 13 13 13 13 13 13 13 13 13 13 13 13 13 13 13 13 13 13 13 13 13 13 13 13 13 13 13 13 
32 99 192 13 13 13 13 13 13 13 13 13 22 76 212 13 13 13 13 13 13 13 13 13 13 13 13 13 13 13 13 13 13 13 13 13 13 13 13 13 13 13 13 13 13 13 13 13 2 29 252 13 13 13 13 13 13 13 13 13 5 37 245 13 13 13 13 13 13 13 13 13 13 13 13 13 13 13 13 13 13 13 13 13 13 13 13 13 13 13 13 13 13 13 13 13 13 13 13 13 13 13 13 13 13 13 13 13 13 13 13 13 13 13 3 32 250 13 13 13 2 29 252 13 13 13 13 13 13 13 13 13 13 13 13 13 13 13 13 13 13 13 13 13 13 13 13 3 32 250 13 13 13 13 13 13 4 35 246 5 37 245 5 37 245 13 13 13 13 13 13 13 13 13 5 37 245 5 37 245 13 13 13 5 37 245 13 13 13 13 13 13 5 38 244 5 38 244 5 38 244 5 38 244 5 38 244 5 38 244 5 38 244 5 38 245 5 38 244 5 38 244 5 38 244 5 38 244 5 38 244 5 38 244 5 38 244 5 38 244 5 38 244 5 37 245 5 38 244 5 38 244 5 38 244 5 38 244 5 38 244 5 38 244 5 37 245 5 38 244 5 38 244 5 38 244 5 38 244 5 38 244 5 38 244 5 38 244 5 38 244 5 38 245 5 37 245 5 37 245 5 38 244 5 38 244 5 38 244 5 38 244 5 38 244 5 38 244 5 38 244 5 38 244 5 38 244 5 38 244 5 38 244 5 38 244 5 38 244 5 38 244 5 38 244 5 38 244 5 38 244 5 38 244 5 38 244 5 38 244 5 38 244 5 38 244 5 38 244 5 38 244 5 38 244 5 38 244 5 38 244 5 38 244 5 38 244 5 38 244 5 38 244 5 38 244 5 38 244 5 38 244 5 38 244 5 38 244 5 38 244 5 38 244 5 38 244 5 38 244 5 38 244 5 38 244 5 38 244 5 38 244 5 38 244 5 38 244 5 38 244 5 38 244 5 38 244 6 38 244 6 38 244 6 40 243 13 13 13 7 41 242 9 47 237 7 41 242 7 41 242 7 41 242 13 13 13 7 41 242 7 41 242 7 42 241 20 73 214 13 13 13 13 13 13 13 13 13 13 13 13 13 13 13 13 13 13 13 13 13 13 13 13 13 13 13 13 13 13 13 13 13 13 13 13 13 13 13 13 13 13 13 13 13 13 13 13 13 13 13 13 13 13 13 13 13 13 13 13 13 13 13 13 13 13 13 13 13 13 13 13 13 13 13 13 13 13 13 13 13 13 13 13 13 13 13 13 13 13 13 13 13 13 13 13 13 13 13 13 13 13 13 13 13 13 13 13 13 13 13 
13 13 13 13 13 13 13 13 13 13 13 13 13 13 13 13 13 13 13 13 13 13 13 13 13 13 13 1 27 254 13 13 13 13 13 13 13 13 13 13 13 13 13 13 13 13 13 13 13 13 13 13 13 13 13 13 13 13 13 13 13 13 13 13 13 13 13 13 13 13 13 13 13 13 13 13 13 13 13 13 13 13 13 13 13 13 13 13 13 13 13 13 13 13 13 13 13 13 13 13 13 13 13 13 13 13 13 13 13 13 13 3 32 249 13 13 13 3 33 248 13 13 13 1 27 254 13 13 13 13 13 13 13 13 13 13 13 13 5 37 245 13 13 13 13 13 13 5 37 245 6 39 244 5 37 245 5 37 245 5 37 245 5 37 245 13 13 13 13 13 13 5 37 245 5 37 245 5 37 245 5 36 246 13 13 13 5 38 244 5 38 244 5 38 244 5 38 244 5 38 244 5 38 244 5 38 244 5 38 244 5 38 244 5 38 244 5 38 244 5 38 245 5 38 244 5 38 245 5 37 245 5 38 245 5 38 244 5 38 244 5 38 244 5 38 244 5 38 244 5 38 244 5 38 244 5 38 244 5 37 245 5 37 245 5 37 245 5 38 244 5 37 245 5 38 244 5 38 245 5 38 245 5 38 244 5 38 245 5 38 244 5 38 244 5 38 244 5 38 244 5 38 244 5 38 244 5 38 244 5 38 244 5 38 244 5 38 244 5 38 244 5 38 244 5 38 244 5 38 244 5 38 244 5 38 244 5 38 244 5 38 244 5 38 244 5 38 244 5 38 244 5 38 244 5 38 244 5 38 244 5 38 244 5 38 244 5 38 244 5 38 244 5 38 244 5 38 244 5 38 244 5 38 244 5 38 244 5 38 244 5 38 244 5 38 244 5 38 244 5 38 244 5 38 244 5 38 244 5 38 244 5 38 244 5 38 244 5 38 244 5 38 244 5 38 244 5 38 244 5 38 244 5 38 244 5 38 244 5 38 244 5 38 244 6 38 244 5 38 244 6 38 244 13 13 13 13 13 13 8 45 239 10 48 235 8 44 239 7 41 242 7 41 242 13 13 13 7 41 242 7 41 242 7 41 242 13 13 13 13 13 13 13 13 13 13 13 13 13 13 13 13 13 13 13 13 13 13 13 13 13 13 13 13 13 13 13 13 13 13 13 13 13 13 13 13 13 13 13 13 13 13 13 13 13 13 13 13 13 13 13 13 13 13 13 13 13 13 13 13 13 13 13 13 13 13 13 13 13 13 13 13 13 13 13 13 13 13 13 13 13 13 13 13 13 13 13 13 13 13 13 13 13 13 13 13 13 13 13 13 13 13 13 13 13 13 13 25 83 206 
13 13 13 13 13 13 13 13 13 13 13 13 13 13 13 13 13 13 13 13 13 13 13 13 13 13 13 13 13 13 13 13 13 13 13 13 13 13 13 13 13 13 13 13 13 13 13 13 13 13 13 13 13 13 13 13 13 13 13 13 13 13 13 13 13 13 13 13 13 13 13 13 13 13 13 13 13 13 13 13 13 13 13 13 13 13 13 13 13 13 13 13 13 13 13 13 13 13 13 13 13 13 13 13 13 13 13 13 13 13 13 5 37 245 13 13 13 13 13 13 13 13 13 13 13 13 13 13 13 13 13 13 13 13 13 5 37 245 5 37 245 5 37 245 5 37 245 5 37 245 5 37 245 5 37 245 5 37 245 5 37 245 5 38 245 5 38 244 13 13 13 5 38 245 5 38 244 5 37 245 5 37 245 5 37 245 5 38 244 5 38 244 5 38 244 5 38 244 5 38 244 5 38 244 5 38 244 5 38 244 5 38 244 5 38 244 5 38 244 5 38 245 5 37 245 5 38 245 5 38 244 5 38 244 5 38 244 5 38 244 5 38 244 5 38 244 5 38 244 5 38 244 5 38 244 5 38 244 5 38 244 5 37 245 5 37 245 5 38 244 5 37 245 5 38 244 5 37 245 5 38 244 5 38 245 5 38 244 5 38 244 5 38 244 5 38 244 5 38 244 5 38 244 5 38 244 5 38 244 5 38 244 5 38 244 5 38 244 5 38 244 5 38 244 5 38 244 5 38 244 5 38 244 5 38 244 5 38 244 5 38 244 5 38 244 5 38 244 5 38 244 5 38 244 5 38 244 5 38 244 6 38 244 6 38 244 6 38 244 5 38 244 5 38 244 5 38 244 5 38 244 5 38 244 5 38 244 5 38 244 5 38 244 5 38 244 5 38 244 5 38 244 5 38 244 5 38 244 5 38 244 5 38 244 5 38 244 6 39 244 6 39 244 6 39 244 6 38 244 5 38 244 6 38 244 5 38 244 6 39 244 6 39 244 6 39 243 6 40 243 6 40 243 6 40 242 7 41 242 7 41 242 7 42 241 7 41 242 9 46 237 7 41 242 7 41 242 7 41 242 7 41 242 7 41 242 7 41 242 13 13 13 7 41 242 13 13 13 13 13 13 13 13 13 13 13 13 13 13 13 13 13 13 13 13 13 13 13 13 13 13 13 13 13 13 13 13 13 13 13 13 13 13 13 13 13 13 13 13 13 13 13 13 13 13 13 13 13 13 13 13 13 13 13 13 13 13 13 13 13 13 13 13 13 13 13 13 13 13 13 13 13 13 13 13 13 13 13 13 13 13 13 13 13 13 13 13 13 13 13 13 13 13 13 13 13 13 13 13 13 
13 13 13 13 13 13 13 13 13 13 13 13 13 13 13 13 13 13 13 13 13 13 13 13 13 13 13 13 13 13 13 13 13 13 13 13 13 13 13 13 13 13 13 13 13 13 13 13 13 13 13 13 13 13 13 13 13 13 13 13 13 13 13 13 13 13 13 13 13 13 13 13 13 13 13 1 27 254 13 13 13 13 13 13 13 13 13 13 13 13 13 13 13 13 13 13 13 13 13 5 37 245 13 13 13 13 13 13 13 13 13 13 13 13 13 13 13 13 13 13 13 13 13 13 13 13 5 38 244 5 36 246 4 35 247 5 36 246 13 13 13 5 37 245 5 37 245 5 37 245 5 37 245 5 37 245 5 38 245 5 38 245 5 38 244 13 13 13 5 38 245 5 37 245 5 37 245 5 37 245 5 37 245 5 37 245 5 37 245 5 37 245 5 38 244 5 38 244 5 38 244 5 38 244 6 39 244 5 38 244 5 38 244 5 38 244 5 37 245 5 37 245 5 38 245 5 38 244 5 38 244 5 38 244 5 38 244 5 38 244 5 38 244 5 38 244 5 38 244 5 38 244 5 38 244 5 38 244 5 38 244 5 38 244 5 37 245 5 38 244 5 37 245 5 37 245 5 37 245 5 37 245 5 37 245 5 38 245 5 38 244 5 38 244 5 38 244 5 38 244 5 38 244 5 38 244 5 38 244 5 38 244 5 38 244 5 38 244 5 38 244 5 38 244 5 38 244 5 38 244 5 38 244 5 38 244 5 38 244 5 38 244 5 38 244 5 38 244 5 38 244 5 38 244 5 38 244 5 38 244 6 38 244 6 39 243 6 39 243 5 38 244 5 38 244 5 38 244 5 38 244 5 38 244 5 38 244 6 38 244 5 38 244 5 38 244 5 38 244 5 38 244 6 39 244 5 38 244 6 38 244 6 39 243 6 40 242 7 41 242 6 41 242 6 39 244 6 39 244 6 38 244 7 41 242 6 40 243 6 40 243 6 40 243 6 40 242 6 41 242 6 40 242 6 40 242 8 43 240 8 43 240 9 46 237 9 46 237 9 46 237 8 43 240 7 41 242 7 41 242 7 41 242 7 41 242 7 41 242 13 13 13 13 13 13 13 13 13 13 13 13 13 13 13 13 13 13 13 13 13 13 13 13 13 13 13 13 13 13 13 13 13 13 13 13 13 13 13 13 13 13 13 13 13 13 13 13 13 13 13 13 13 13 13 13 13 13 13 13 13 13 13 13 13 13 13 13 13 13 13 13 22 76 212 13 13 13 13 13 13 13 13 13 13 13 13 13 13 13 13 13 13 13 13 13 13 13 13 13 13 13 13 13 13 13 13 13 13 13 13 
13 13 13 13 13 13 13 13 13 13 13 13 13 13 13 13 13 13 13 13 13 13 13 13 13 13 13 13 13 13 13 13 13 13 13 13 13 13 13 13 13 13 13 13 13 13 13 13 13 13 13 13 13 13 13 13 13 13 13 13 13 13 13 13 13 13 13 13 13 13 13 13 13 13 13 13 13 13 13 13 13 13 13 13 13 13 13 13 13 13 13 13 13 13 13 13 3 33 248 13 13 13 5 37 245 4 34 247 0 27 254 3 33 249 1 27 254 13 13 13 13 13 13 5 37 245 5 38 244 5 37 245 0 26 254 13 13 13 13 13 13 13 13 13 5 37 245 5 37 245 5 37 245 5 37 245 5 37 245 5 37 245 5 37 245 5 37 245 5 37 245 5 37 245 5 37 245 5 37 245 5 37 245 5 37 245 1 27 254 13 13 13 5 37 245 5 38 245 5 38 244 5 38 244 5 38 244 5 38 244 5 38 244 5 37 245 5 37 245 5 37 245 5 38 244 5 38 244 5 38 244 5 38 244 5 38 244 5 38 244 5 38 244 5 38 244 5 38 244 5 38 245 5 38 245 5 38 244 5 38 244 5 38 244 5 38 245 5 38 244 5 38 245 5 38 244 5 38 244 5 38 244 5 38 244 5 38 244 5 38 244 5 38 244 5 38 244 5 38 244 6 38 244 6 39 244 6 39 244 6 38 244 5 38 244 5 38 244 5 38 244 5 38 244 5 38 244 5 38 244 5 38 244 5 38 244 5 38 244 6 38 244 6 38 244 5 38 244 6 38 244 6 39 244 6 38 244 6 39 244 6 39 244 6 40 242 6 40 243 5 38 244 5 38 244 5 38 244 5 38 244 6 39 244 6 39 244 6 41 242 6 38 244 5 38 244 5 38 244 6 40 243 6 40 242 6 38 244 6 39 243 6 40 242 7 41 242 9 46 237 9 46 237 7 43 240 6 39 244 6 39 244 6 40 243 6 40 243 6 41 242 7 41 242 7 42 241 7 42 241 7 41 242 7 41 242 8 43 240 9 46 238 9 46 237 9 46 237 9 47 236 8 43 240 7 41 242 7 41 242 7 41 242 7 41 242 7 41 242 7 41 242 13 13 13 13 13 13 13 13 13 13 13 13 45 131 165 13 13 13 13 13 13 13 13 13 13 13 13 13 13 13 13 13 13 21 74 213 13 13 13 13 55 230 13 13 13 13 13 13 13 13 13 13 13 13 13 13 13 13 13 13 13 13 13 13 13 13 13 13 13 13 13 13 13 13 13 13 13 13 13 13 13 13 13 13 13 13 13 25 84 205 13 13 13 13 13 13 13 13 13 13 13 13 13 13 13 13 13 13 
13 13 13 13 13 13 13 13 13 13 13 13 13 13 13 13 13 13 13 13 13 13 13 13 13 13 13 13 13 13 13 13 13 13 13 13 13 13 13 13 13 13 13 13 13 13 13 13 13 13 13 13 13 13 13 13 13 13 13 13 13 13 13 13 13 13 13 13 13 5 37 245 13 13 13 13 13 13 13 13 13 13 13 13 13 13 13 13 13 13 13 13 13 13 13 13 13 13 13 13 13 13 13 13 13 13 13 13 13 13 13 3 33 249 5 38 244 13 13 13 5 37 245 5 37 245 5 37 245 5 37 245 13 13 13 13 13 13 13 13 13 13 13 13 13 13 13 5 37 245 5 37 245 5 37 245 5 37 245 5 37 245 5 37 245 5 37 245 5 38 245 5 37 245 5 37 245 5 37 245 5 38 244 5 37 245 5 37 245 5 37 245 5 38 244 5 38 244 5 38 244 5 38 244 5 38 244 5 38 244 5 38 244 5 38 245 5 38 245 5 37 245 5 38 244 5 37 245 5 37 245 5 38 244 5 38 244 5 38 244 5 38 244 5 38 244 5 38 244 5 38 244 5 38 244 5 38 244 5 38 244 5 38 244 5 38 244 5 38 244 5 38 244 5 38 244 5 38 244 5 38 244 5 38 244 5 38 244 5 38 244 5 38 244 5 38 244 5 38 244 5 38 244 6 39 244 6 39 244 6 39 244 5 38 244 5 38 244 5 38 244 5 38 244 5 38 244 5 38 244 5 38 244 6 38 244 6 40 243 6 40 243 6 39 243 6 38 244 6 38 244 6 38 244 6 39 244 6 39 244 6 39 244 7 41 242 6 41 242 6 40 242 5 38 244 5 38 244 5 38 244 6 40 243 6 41 242 7 41 242 6 40 242 6 40 242 6 41 242 7 41 241 7 41 242 7 41 242 6 41 242 7 41 242 8 44 239 8 44 239 9 46 237 9 46 237 6 40 243 6 40 243 6 40 242 7 41 242 7 41 242 7 42 241 7 42 241 8 44 239 7 41 242 8 45 238 8 45 238 9 46 238 9 46 237 9 46 237 9 46 237 8 45 239 7 41 242 7 41 242 7 41 242 7 41 242 7 41 242 7 42 241 8 44 239 13 13 13 13 13 13 9 46 237 13 13 13 13 13 13 13 13 13 13 13 13 13 13 13 13 13 13 13 13 13 13 13 13 13 13 13 13 13 13 13 13 13 13 13 13 13 13 13 13 13 13 13 13 13 13 13 13 13 13 13 13 13 13 13 13 13 13 13 13 13 13 13 13 13 13 13 13 13 13 13 13 13 13 13 13 13 13 13 13 13 13 13 13 13 13 13 13 13 13 13 13 13 16 64 222 
13 13 13 13 13 13 13 13 13 13 13 13 13 13 13 13 13 13 13 13 13 13 13 13 13 13 13 13 13 13 13 13 13 13 13 13 13 13 13 13 13 13 13 13 13 13 13 13 13 13 13 13 13 13 13 13 13 13 13 13 13 13 13 13 13 13 13 13 13 13 13 13 13 13 13 5 38 244 13 13 13 13 13 13 13 13 13 13 13 13 13 13 13 18 68 218 13 13 13 3 32 249 13 13 13 13 13 13 13 13 13 13 13 13 13 13 13 5 37 245 13 13 13 5 37 245 5 38 244 5 38 244 13 13 13 13 13 13 5 37 245 13 13 13 13 13 13 13 13 13 13 13 13 5 37 245 5 37 245 5 37 245 5 38 245 5 38 244 5 38 244 5 37 245 5 38 244 5 38 244 7 41 242 5 38 244 5 38 244 5 38 244 5 38 244 5 38 244 5 38 244 5 38 244 5 38 244 5 38 244 5 38 245 5 37 245 5 38 245 5 38 244 5 38 244 5 37 245 5 37 245 5 38 244 5 38 244 5 38 244 5 38 244 5 38 244 5 38 244 5 38 244 5 38 244 5 38 244 5 38 244 5 38 244 5 38 244 5 38 244 5 38 244 5 38 244 5 38 244 6 39 244 6 38 244 6 38 244 5 38 244 5 38 244 5 38 244 5 38 244 6 39 244 6 39 243 6 39 244 5 38 244 5 38 244 5 38 244 5 38 244 5 38 245 5 38 244 5 38 244 5 38 244 6 39 243 6 40 243 6 39 243 6 39 244 5 38 244 6 38 244 6 39 244 6 39 243 6 39 243 6 39 244 6 40 242 6 40 242 7 41 242 6 40 242 6 40 242 6 40 242 6 40 243 6 41 242 6 40 242 7 42 241 7 42 241 7 42 241 7 41 241 6 40 242 7 41 242 7 41 242 8 44 239 9 46 237 7 42 241 7 43 240 9 46 237 9 46 237 7 42 241 6 40 242 7 41 242 7 41 242 7 43 240 7 43 240 9 46 237 8 44 239 9 46 237 8 45 238 9 45 238 9 45 238 9 45 238 9 46 237 8 44 239 7 41 242 7 41 242 7 41 242 7 41 242 7 41 242 7 42 241 23 80 208 13 13 13 13 13 13 13 13 13 13 13 13 13 13 13 13 13 13 13 13 13 13 13 13 13 13 13 13 13 13 13 13 13 13 13 13 13 13 13 13 13 13 7 42 241 13 13 13 13 13 13 13 13 13 13 13 13 13 13 13 13 13 13 13 13 13 13 13 13 13 13 13 13 13 13 13 13 13 13 13 13 13 13 13 13 13 13 13 13 13 13 13 13 13 13 13 13 13 13 13 13 13 20 72 215 
13 13 13 13 13 13 13 13 13 13 13 13 13 13 13 13 13 13 13 13 13 13 13 13 13 13 13 13 13 13 13 13 13 13 13 13 13 13 13 13 13 13 13 13 13 13 13 13 7 41 242 13 13 13 13 13 13 13 13 13 13 13 13 13 13 13 3 32 249 13 13 13 13 13 13 13 13 13 5 37 245 13 13 13 13 13 13 13 13 13 12 52 232 13 13 13 13 13 13 13 13 13 5 37 245 13 13 13 13 13 13 13 13 13 13 13 13 5 38 245 5 37 245 4 35 247 4 36 246 5 38 244 13 13 13 13 13 13 5 37 245 13 13 13 13 13 13 13 13 13 13 13 13 5 38 244 5 38 244 5 38 244 5 38 244 5 38 244 5 38 244 5 38 244 5 38 244 5 38 244 5 38 244 5 38 245 5 38 244 5 38 244 5 38 244 5 37 245 5 37 245 5 37 245 5 38 244 5 38 244 5 37 245 5 38 245 5 38 244 5 38 244 5 37 245 5 37 245 5 38 244 5 38 244 5 38 244 5 38 244 5 38 244 5 38 244 5 38 244 5 38 244 5 38 244 5 38 244 7 41 242 6 41 242 6 38 244 5 38 244 5 38 244 5 38 244 5 38 244 6 39 244 6 39 244 6 39 244 6 39 244 6 38 244 5 38 244 6 38 244 5 38 244 5 38 244 5 38 244 5 38 244 5 38 244 5 38 244 5 38 244 5 38 244 5 38 244 5 38 244 6 39 244 6 39 243 6 39 243 6 39 243 6 39 244 6 39 244 6 39 243 6 39 243 7 42 241 7 42 241 7 42 241 6 39 244 7 41 242 7 41 242 6 41 242 6 40 242 7 41 242 6 40 242 7 41 241 6 40 243 7 43 240 7 42 241 7 42 241 7 41 242 7 41 242 7 41 242 8 44 239 9 46 237 9 46 237 8 44 239 8 44 239 8 44 239 8 44 239 8 44 240 7 41 242 7 43 240 7 41 242 7 43 240 7 41 242 8 45 239 8 44 239 9 46 238 8 44 239 8 45 238 8 45 238 8 45 238 8 45 238 8 44 239 7 41 242 7 41 242 7 41 242 7 41 242 7 41 242 8 44 240 13 13 13 13 13 13 13 13 13 13 13 13 13 13 13 13 13 13 13 13 13 13 13 13 13 13 13 13 13 13 9 47 236 13 13 13 13 13 13 13 13 13 13 13 13 13 13 13 13 13 13 13 13 13 13 13 13 13 13 13 13 13 13 13 13 13 13 13 13 13 13 13 13 13 13 13 13 13 13 13 13 13 13 13 13 13 13 13 13 13 13 13 13 13 13 13 13 13 13 13 13 13 13 13 13 13 13 13 
13 13 13 13 13 13 13 13 13 13 13 13 13 13 13 13 13 13 13 13 13 13 13 13 13 13 13 13 13 13 13 13 13 3 32 249 13 13 13 13 13 13 5 37 245 13 13 13 13 13 13 13 13 13 13 13 13 13 13 13 13 13 13 13 13 13 13 13 13 13 13 13 13 13 13 13 13 13 13 13 13 13 13 13 13 13 13 13 13 13 13 13 13 5 38 244 13 13 13 4 35 247 5 38 244 13 13 13 13 13 13 13 13 13 5 38 244 5 38 245 5 37 245 5 38 245 5 38 244 5 38 244 5 38 244 10 48 235 5 38 244 5 38 244 13 13 13 5 38 245 5 38 244 5 38 244 5 38 244 5 38 244 5 38 244 5 38 244 5 38 244 5 38 244 5 38 244 5 38 244 5 37 245 5 38 244 5 38 244 5 38 244 5 38 244 5 37 245 5 37 245 5 38 245 13 13 13 5 38 245 5 37 245 5 38 245 5 38 244 5 38 244 5 38 245 5 37 245 5 38 244 5 38 244 5 38 244 5 38 244 5 38 244 5 38 244 5 38 244 5 38 244 5 38 244 6 39 243 6 39 244 6 39 244 6 40 243 6 41 242 6 40 243 5 38 244 5 38 244 5 38 244 6 39 244 6 39 244 6 39 244 6 39 244 6 39 244 6 40 243 6 40 243 5 38 244 5 38 244 5 38 244 5 38 244 5 38 244 6 39 243 6 39 243 6 38 244 6 38 244 5 38 244 5 38 244 5 38 244 5 38 244 6 39 244 6 40 243 6 40 242 7 42 241 7 42 241 7 43 240 7 42 241 8 43 240 6 41 242 6 41 242 6 41 242 6 40 242 6 40 242 6 40 242 7 41 242 7 41 241 7 43 240 7 43 240 7 41 242 6 40 243 7 42 240 7 43 240 9 45 238 9 46 238 9 46 237 8 44 239 8 44 239 8 44 239 8 44 239 8 44 239 7 42 241 7 43 240 7 41 242 8 43 240 7 43 240 8 45 239 9 46 237 9 46 238 9 46 237 9 46 237 9 46 237 9 46 237 9 46 237 9 46 237 8 44 239 7 41 241 7 41 241 7 42 241 7 42 241 8 43 240 13 13 13 13 13 13 13 13 13 13 13 13 13 13 13 13 13 13 13 13 13 13 13 13 13 13 13 13 13 13 13 13 13 13 13 13 13 13 13 13 13 13 13 13 13 13 13 13 13 13 13 13 13 13 13 13 13 13 13 13 16 63 223 13 13 13 13 13 13 13 13 13 13 13 13 13 13 13 13 13 13 13 13 13 13 13 13 13 13 13 13 13 13 13 13 13 13 13 13 13 13 13 13 13 13 25 83 205 
13 13 13 13 13 13 13 13 13 13 13 13 13 13 13 13 13 13 13 13 13 13 13 13 13 13 13 13 13 13 13 13 13 13 13 13 13 13 13 13 13 13 13 13 13 13 13 13 13 13 13 13 13 13 13 13 13 13 13 13 13 13 13 13 13 13 13 13 13 13 13 13 13 13 13 13 13 13 13 13 13 13 13 13 13 13 13 13 13 13 13 13 13 4 35 247 4 35 247 3 34 248 3 33 249 13 13 13 13 13 13 5 38 244 5 38 244 5 38 244 5 38 244 5 38 244 5 38 244 13 13 13 5 38 244 10 48 235 5 38 244 5 38 244 5 38 244 5 38 244 5 38 244 5 38 244 5 38 244 5 38 244 5 38 244 5 38 244 13 13 13 5 38 244 5 38 244 5 38 244 5 38 245 5 38 244 5 38 244 5 38 244 5 38 244 5 38 244 5 37 245 4 35 247 5 38 244 5 38 244 5 38 244 5 38 244 5 38 244 5 38 244 5 38 245 5 38 244 5 38 244 5 38 244 5 38 244 5 38 244 5 38 244 5 38 244 5 38 244 5 38 244 5 38 244 6 39 244 6 39 244 6 41 242 6 41 242 7 41 242 6 40 243 6 38 244 5 38 244 5 38 244 5 38 244 6 38 244 6 39 244 6 39 244 6 40 243 6 40 243 6 41 242 6 40 243 6 40 243 6 39 244 6 39 243 6 39 243 6 40 242 6 40 243 6 40 243 6 39 244 6 39 244 5 38 244 5 38 244 6 39 244 6 40 242 6 40 242 6 40 242 7 42 241 7 42 241 7 43 240 7 43 240 7 41 242 6 40 243 7 41 242 7 41 241 6 40 242 6 40 242 6 40 242 7 41 242 7 42 241 7 43 240 7 43 240 7 43 240 9 46 238 9 46 237 9 46 237 9 45 238 8 44 239 8 44 239 8 44 239 8 44 239 8 44 239 8 44 239 8 43 240 7 43 240 8 44 239 8 44 239 7 43 240 7 42 241 7 43 240 8 45 238 8 45 238 9 46 237 9 46 237 9 46 237 9 46 237 9 46 237 9 46 237 8 45 239 7 43 240 7 41 242 7 42 241 7 42 241 8 45 238 8 45 238 9 46 238 13 13 13 13 13 13 13 13 13 13 13 13 13 13 13 13 13 13 13 13 13 13 13 13 13 13 13 13 13 13 13 13 13 13 13 13 13 13 13 13 13 13 13 13 13 13 13 13 13 13 13 13 13 13 13 13 13 13 13 13 13 13 13 13 13 13 13 13 13 13 13 13 13 13 13 12 52 232 13 13 13 13 13 13 13 13 13 13 13 13 13 13 13 13 13 13 13 13 13 11 52 233 
115 215 80 13 13 13 13 13 13 13 13 13 13 13 13 13 13 13 13 13 13 13 13 13 13 13 13 13 13 13 13 13 13 13 13 13 13 13 13 13 13 13 13 13 13 5 37 245 13 13 13 13 13 13 13 13 13 13 13 13 13 13 13 13 13 13 13 13 13 13 13 13 13 13 13 13 13 13 13 13 13 13 13 13 13 13 13 5 37 245 13 13 13 3 32 249 5 37 245 3 33 248 3 32 249 13 13 13 13 13 13 5 38 244 5 38 244 5 38 244 5 38 244 5 38 244 13 13 13 5 38 244 5 38 244 5 38 244 5 38 244 5 38 244 5 38 244 5 38 244 5 38 244 5 37 245 5 37 245 5 38 244 5 38 244 13 13 13 13 13 13 13 13 13 5 38 244 5 38 244 5 38 244 5 38 244 5 38 244 5 38 244 5 38 244 5 38 244 5 37 245 5 37 245 5 38 244 5 38 244 5 38 244 5 38 244 5 38 244 5 38 244 5 38 244 5 38 244 5 38 244 5 38 244 5 38 244 5 38 244 5 38 244 6 38 244 5 38 244 6 38 244 6 39 244 6 39 244 6 39 244 5 38 244 6 39 244 7 41 242 6 40 243 6 39 243 6 38 244 5 38 244 5 38 244 5 38 244 5 38 244 6 39 243 6 40 242 6 40 242 7 42 241 7 41 242 6 40 242 6 39 243 6 39 243 6 39 243 6 41 242 6 40 242 6 40 242 6 40 243 6 40 242 6 40 242 6 40 242 7 41 241 7 42 241 7 42 241 6 40 242 7 42 241 7 42 241 7 42 241 7 41 242 7 41 242 6 40 243 7 42 241 7 43 240 7 42 241 6 40 242 6 40 242 7 41 242 7 42 241 7 42 241 7 43 240 9 46 238 9 46 237 9 46 237 9 46 237 8 44 240 7 43 240 7 43 240 7 43 240 7 43 240 8 44 239 8 44 239 9 46 238 8 44 239 9 46 238 9 46 238 8 44 239 8 45 239 8 44 239 8 45 238 8 45 238 9 46 237 9 46 237 9 46 237 9 46 237 9 46 237 9 46 237 9 46 238 8 45 238 7 42 241 7 42 241 7 42 241 8 45 239 8 45 239 13 13 13 13 13 13 9 47 236 13 13 13 13 13 13 13 13 13 13 13 13 13 13 13 13 13 13 13 13 13 13 13 13 13 13 13 13 13 13 13 13 13 13 13 13 13 13 13 13 13 13 13 13 13 13 13 13 13 13 13 13 13 13 13 13 13 13 13 13 13 13 13 13 13 13 13 13 13 13 13 13 13 13 13 13 13 13 13 13 13 13 13 13 13 13 13 13 13 13 13 13 13 16 62 224 
251 254 2 13 13 13 13 13 13 13 13 13 24 82 207 13 13 13 13 13 13 13 13 13 13 13 13 13 13 13 13 13 13 13 13 13 13 13 13 13 13 13 13 13 13 13 13 13 13 13 13 13 13 13 13 13 13 13 13 13 13 13 13 13 13 13 13 13 13 13 13 13 13 13 13 13 13 13 13 13 13 13 13 13 13 13 13 13 13 13 5 37 245 13 13 13 13 13 13 13 13 13 13 13 13 13 13 13 13 13 13 13 13 13 5 38 244 5 38 244 5 38 244 5 38 244 5 38 244 5 38 244 5 38 244 5 38 244 5 38 244 5 38 244 5 38 244 5 38 244 5 38 244 5 37 245 5 37 245 5 38 244 5 38 244 13 13 13 13 13 13 5 38 244 5 38 244 5 38 244 5 38 244 5 38 244 5 38 244 5 38 244 5 38 244 5 38 244 5 38 245 5 37 245 5 38 244 5 38 244 5 38 244 5 38 244 5 38 244 5 38 244 5 38 244 5 38 244 5 38 244 5 38 244 5 38 244 5 38 244 6 38 244 6 39 244 5 38 244 6 38 244 6 39 244 6 39 244 6 39 244 5 38 244 6 39 244 6 39 244 6 40 242 6 39 243 6 38 244 6 38 244 6 39 244 6 40 242 6 39 244 6 40 242 6 39 243 6 40 242 6 40 242 7 41 242 6 40 242 6 40 242 6 40 242 6 40 243 6 41 242 7 41 241 6 41 242 6 40 242 6 40 242 6 40 242 7 41 241 7 42 241 7 43 240 7 42 241 6 40 242 6 40 242 7 43 240 7 43 240 7 43 240 7 42 241 7 43 240 7 43 240 7 43 240 7 42 241 7 41 241 7 42 241 7 42 241 8 43 240 8 43 240 8 45 238 9 46 237 9 46 237 9 46 237 9 46 238 8 44 239 8 43 240 8 44 239 8 45 239 8 45 239 9 46 238 8 44 239 9 46 238 9 46 237 9 46 237 8 45 238 8 43 240 8 44 239 7 41 242 7 43 240 8 45 238 9 46 237 9 46 237 9 46 237 9 46 237 9 46 237 9 46 237 8 45 238 8 44 239 7 41 242 7 41 242 7 41 242 7 41 242 8 43 240 13 13 13 13 13 13 13 13 13 8 44 239 13 13 13 13 13 13 13 13 13 9 47 237 13 13 13 13 13 13 13 13 13 13 13 13 13 13 13 13 13 13 13 13 13 13 13 13 13 13 13 13 13 13 13 13 13 13 13 13 13 13 13 13 13 13 13 13 13 13 13 13 13 13 13 13 13 13 13 13 13 13 13 13 13 13 13 13 13 13 13 13 13 13 13 13 13 13 13 13 13 13 8 45 238 
13 13 13 13 13 13 13 13 13 13 13 13 13 13 13 13 13 13 13 13 13 13 13 13 13 13 13 13 13 13 13 13 13 13 13 13 13 13 13 13 13 13 13 13 13 13 13 13 13 13 13 13 13 13 13 13 13 13 13 13 13 13 13 13 13 13 13 13 13 13 13 13 13 13 13 13 13 13 13 13 13 13 13 13 13 13 13 5 37 245 5 38 245 13 13 13 13 13 13 13 13 13 5 38 244 13 13 13 13 13 13 13 13 13 13 13 13 5 38 244 5 38 244 5 38 244 5 38 244 5 38 244 5 38 244 5 38 244 13 13 13 13 13 13 5 38 244 5 38 244 5 38 244 5 38 244 5 38 244 5 38 244 5 38 244 5 38 244 5 38 244 5 38 244 5 38 244 5 38 244 5 38 244 5 38 244 5 38 244 5 38 244 5 38 244 5 38 244 5 38 244 5 38 244 5 38 244 5 38 244 5 38 244 5 38 244 5 38 244 6 39 244 5 38 244 5 38 244 5 38 244 5 38 244 5 38 244 6 40 243 7 42 241 6 40 243 5 38 244 5 38 244 6 39 243 6 39 243 6 38 244 5 38 244 5 38 244 5 38 244 6 41 242 6 39 243 6 39 243 6 39 244 6 39 243 6 40 242 7 41 242 7 41 242 6 40 242 7 41 242 7 41 242 7 42 241 7 41 242 7 41 242 7 41 242 7 41 242 7 43 240 7 42 241 6 41 242 6 41 242 6 41 242 7 41 241 7 42 241 8 43 240 8 44 239 8 43 240 8 43 240 7 41 241 7 43 240 7 43 240 8 45 239 8 43 240 7 43 240 7 43 240 8 43 240 8 43 240 7 42 241 7 42 241 7 42 241 8 45 239 8 45 239 9 46 238 9 46 237 9 46 237 9 46 238 8 45 238 8 45 238 8 44 239 8 44 239 8 45 239 8 45 239 9 46 238 9 46 238 9 46 237 9 46 237 9 46 237 9 46 237 8 44 239 8 44 239 7 41 242 9 46 238 9 46 237 9 46 237 9 46 237 9 46 237 9 46 237 9 46 237 9 46 237 9 46 238 7 43 240 7 41 242 7 41 242 7 41 242 7 41 242 9 46 238 13 13 13 13 13 13 13 13 13 13 13 13 13 13 13 7 42 241 16 63 223 13 13 13 13 13 13 13 13 13 13 13 13 13 13 13 13 13 13 13 13 13 13 13 13 13 13 13 13 13 13 13 13 13 13 13 13 13 13 13 13 13 13 13 13 13 13 13 13 7 42 240 13 13 13 13 13 13 13 13 13 13 13 13 13 13 13 13 13 13 13 13 13 13 13 13 13 13 13 13 13 13 13 55 230 
13 13 13 13 13 13 13 13 13 13 13 13 13 13 13 13 13 13 13 13 13 13 13 13 13 13 13 13 13 13 13 13 13 13 13 13 13 13 13 13 13 13 13 13 13 5 38 245 13 13 13 13 13 13 13 13 13 13 13 13 13 13 13 13 13 13 13 13 13 5 38 244 13 13 13 13 13 13 5 38 244 13 13 13 13 13 13 13 13 13 13 13 13 13 13 13 13 13 13 5 38 244 5 37 245 13 13 13 13 13 13 13 13 13 13 13 13 13 13 13 5 38 244 5 38 244 5 38 245 5 38 244 5 38 244 5 38 244 13 13 13 13 13 13 5 38 244 13 13 13 6 39 243 5 38 244 5 38 244 5 38 244 5 38 244 5 38 244 5 38 244 5 38 244 5 38 244 5 38 244 5 38 244 5 38 244 5 38 244 5 38 244 5 38 244 5 38 244 5 38 244 6 38 244 5 38 244 5 38 244 5 38 244 5 38 244 6 40 243 7 41 242 6 39 243 5 38 244 5 38 244 5 38 244 6 39 244 7 42 241 7 42 241 7 42 241 6 38 244 6 38 244 6 39 243 6 40 243 6 40 243 6 39 243 6 40 243 6 41 242 7 42 241 7 41 242 6 39 244 6 38 244 6 39 244 6 41 242 7 42 241 7 42 241 6 40 242 7 41 241 7 42 241 8 43 240 8 43 240 7 42 241 7 41 241 7 41 242 7 41 242 7 43 240 7 43 240 7 41 241 7 41 242 7 41 241 7 42 241 8 43 240 8 44 240 7 42 241 8 43 240 7 42 241 7 43 240 7 42 241 8 45 239 8 45 239 8 45 239 7 43 240 8 44 239 8 43 240 7 42 241 7 42 241 7 43 240 8 45 238 8 45 238 9 46 238 9 46 238 9 45 238 8 45 239 8 45 238 8 45 238 8 45 238 8 45 238 9 46 238 9 45 238 9 46 237 9 46 237 9 46 237 9 46 237 9 46 237 9 46 238 8 44 239 7 42 241 7 41 242 9 45 238 9 46 237 9 46 237 9 46 237 9 46 237 9 46 237 9 46 237 9 46 237 9 46 237 9 46 238 7 42 241 7 42 241 8 43 240 8 45 238 8 45 238 13 13 13 13 13 13 9 45 238 13 13 13 13 13 13 13 13 13 13 13 13 13 13 13 13 13 13 13 13 13 13 13 13 10 48 235 13 13 13 13 13 13 13 13 13 13 13 13 13 13 13 13 13 13 13 13 13 15 61 225 13 13 13 8 45 239 13 13 13 13 13 13 13 13 13 13 13 13 13 13 13 13 13 13 13 13 13 13 13 13 13 13 13 13 13 13 13 13 13 13 13 13 13 13 13 
13 13 13 13 13 13 13 13 13 13 13 13 13 13 13 13 13 13 13 13 13 13 13 13 13 13 13 13 13 13 13 13 13 13 13 13 13 13 13 13 13 13 13 13 13 13 13 13 13 13 13 13 13 13 13 13 13 13 13 13 13 13 13 13 13 13 13 13 13 13 13 13 13 13 13 13 13 13 13 13 13 5 38 244 5 37 245 13 13 13 13 13 13 13 13 13 13 13 13 5 38 244 5 38 244 5 38 245 13 13 13 13 13 13 13 13 13 13 13 13 13 13 13 5 38 244 5 38 244 5 38 244 5 38 244 5 38 244 6 38 244 13 13 13 13 13 13 3 32 249 6 39 244 5 38 244 5 38 244 5 38 244 5 38 244 5 38 244 5 38 244 5 38 244 5 38 244 5 38 244 5 38 244 5 38 244 5 38 244 5 38 244 6 38 244 5 38 244 6 38 244 5 38 244 6 38 244 5 38 244 6 38 244 6 38 244 6 40 243 6 39 243 6 39 244 5 38 244 6 39 244 6 39 243 6 40 243 7 41 242 7 42 241 7 41 242 7 41 242 6 40 243 6 39 243 6 40 243 6 39 243 6 40 243 6 40 243 7 42 241 7 42 241 7 42 241 6 39 243 6 38 244 6 39 243 7 42 241 8 44 239 7 42 241 7 41 242 7 41 242 7 42 241 7 42 241 8 43 240 8 43 240 7 42 241 7 41 241 8 43 240 8 43 240 7 42 241 7 41 241 7 42 241 7 42 241 7 42 241 7 42 241 8 44 240 8 43 240 9 46 238 9 46 238 8 44 239 7 42 241 8 44 239 8 43 240 7 43 240 7 42 241 8 45 239 8 45 239 8 44 239 7 42 241 8 43 240 8 45 238 8 45 238 9 46 238 9 46 238 9 46 238 8 45 238 8 45 238 9 46 238 9 46 238 8 45 238 8 45 238 8 44 239 9 46 238 9 46 237 9 46 237 9 46 237 9 46 237 9 46 237 9 46 237 9 46 237 9 46 237 9 46 238 9 46 238 9 46 238 9 46 237 9 46 237 9 46 237 9 46 237 9 46 237 9 46 237 9 46 238 8 44 239 8 44 239 8 45 239 8 45 238 8 45 238 13 13 13 13 13 13 13 13 13 13 13 13 13 13 13 13 13 13 31 98 193 13 13 13 13 13 13 13 13 13 13 13 13 13 13 13 13 13 13 13 13 13 13 13 13 13 13 13 13 13 13 13 13 13 13 13 13 13 13 13 13 13 13 11 52 232 13 13 13 13 13 13 13 13 13 13 13 13 13 13 13 16 64 222 13 13 13 13 13 13 13 13 13 13 13 13 13 13 13 13 13 13 10 50 234 
13 13 13 13 13 13 13 13 13 5 37 245 13 13 13 13 13 13 13 13 13 13 13 13 13 13 13 13 13 13 13 13 13 5 37 245 13 13 13 13 13 13 13 13 13 13 13 13 13 13 13 13 13 13 13 13 13 13 13 13 3 32 249 13 13 13 13 13 13 5 38 244 13 13 13 13 13 13 5 38 244 5 38 244 5 38 244 13 13 13 13 13 13 13 13 13 13 13 13 6 38 244 6 38 244 5 38 244 5 38 245 5 38 244 5 38 244 13 13 13 5 38 244 5 38 244 5 38 244 5 38 244 5 38 244 13 13 13 13 13 13 13 13 13 13 13 13 13 13 13 5 37 245 5 38 244 5 38 245 5 38 244 5 38 244 5 38 244 5 38 244 6 38 244 5 38 244 5 38 244 5 38 245 5 37 245 5 38 244 5 38 244 6 39 244 5 38 244 6 38 244 5 38 244 5 38 244 5 38 244 6 40 242 7 42 241 8 43 240 7 42 241 7 41 242 6 40 243 6 39 243 6 39 243 5 38 244 5 38 244 7 41 242 7 41 242 7 42 241 6 40 242 6 40 243 6 40 243 6 40 243 6 40 242 6 40 242 7 42 241 6 41 242 7 43 240 6 40 243 6 39 244 6 40 243 8 44 239 8 44 239 6 41 242 7 41 242 7 41 242 7 42 241 7 42 241 8 44 239 8 43 240 7 42 241 7 41 241 8 43 240 8 43 240 8 43 240 8 43 240 7 42 241 7 42 241 7 42 241 7 42 241 8 44 240 8 44 239 8 45 238 9 46 238 8 45 238 9 46 237 8 44 239 8 44 239 7 43 240 7 43 240 8 44 239 8 44 239 8 45 238 8 43 240 8 44 239 8 44 239 9 46 237 9 46 238 9 45 238 8 45 238 8 45 238 8 45 238 9 46 237 9 46 238 9 46 238 8 45 238 8 44 239 9 46 237 9 46 237 9 46 237 8 44 239 8 44 239 8 45 238 9 46 238 9 46 237 9 46 237 9 46 237 9 46 237 9 46 237 9 46 237 9 46 237 9 46 237 9 46 237 9 46 237 9 46 237 10 49 235 9 46 238 9 46 238 13 13 13 13 13 13 13 13 13 13 13 13 14 58 228 13 13 13 13 13 13 13 13 13 8 45 238 8 44 239 9 47 236 13 13 13 13 13 13 11 50 234 13 13 13 13 13 13 13 13 13 13 13 13 13 13 13 13 13 13 13 13 13 13 13 13 13 13 13 13 13 13 13 13 13 13 13 13 13 13 13 13 13 13 13 13 13 13 13 13 13 13 13 13 13 13 13 13 13 13 13 13 13 13 13 13 13 13 13 13 13 13 13 13 
13 13 13 13 13 13 13 13 13 13 13 13 13 13 13 13 13 13 13 13 13 13 13 13 13 13 13 13 13 13 13 13 13 13 13 13 13 13 13 13 13 13 13 13 13 13 13 13 13 13 13 13 13 13 13 13 13 5 38 244 13 13 13 13 13 13 13 13 13 13 13 13 13 13 13 3 32 249 5 38 244 13 13 13 5 38 244 13 13 13 13 13 13 13 13 13 13 13 13 13 13 13 6 38 244 5 38 244 5 38 244 5 38 244 5 38 244 5 38 244 5 38 244 5 38 244 5 38 244 5 38 244 5 38 244 13 13 13 13 13 13 6 40 243 6 40 243 6 39 244 6 39 244 5 38 244 5 38 244 5 38 244 5 38 244 5 38 244 5 38 244 5 38 244 6 38 244 5 38 244 5 37 245 5 37 245 5 37 245 5 38 244 5 38 244 5 38 244 6 39 243 5 38 244 6 40 242 7 42 241 7 42 241 8 44 239 8 44 239 7 42 241 6 40 243 6 39 244 6 39 244 6 39 243 5 38 244 6 39 243 7 41 242 6 41 242 7 41 241 7 41 242 7 42 241 6 40 243 6 40 243 6 40 242 7 42 241 7 42 241 7 41 242 6 41 242 6 41 242 6 40 243 6 40 243 6 39 243 7 42 241 7 41 242 7 41 242 7 41 242 7 41 242 7 42 241 8 43 240 7 41 242 7 42 241 7 42 241 8 43 240 7 42 241 7 42 241 7 42 241 7 42 241 7 42 241 7 42 241 7 42 241 8 43 240 8 44 239 8 45 238 8 44 239 8 45 238 9 46 237 8 44 239 7 43 240 7 43 240 7 43 240 8 43 240 8 43 240 8 44 239 8 44 239 8 44 239 8 44 239 8 45 239 9 45 238 8 45 238 8 45 238 8 45 238 9 46 237 9 46 237 9 46 237 8 44 239 8 44 239 8 44 239 9 46 237 9 46 237 9 46 237 7 43 240 7 43 240 8 45 238 9 46 237 9 46 237 9 46 237 9 46 237 9 46 237 9 46 237 9 46 237 9 46 237 9 46 237 9 46 237 9 46 237 9 46 237 13 13 13 13 13 13 13 13 13 13 13 13 13 13 13 13 13 13 9 46 238 13 13 13 13 13 13 13 13 13 13 13 13 9 47 236 9 46 238 9 47 236 12 54 230 13 13 13 13 13 13 13 13 13 7 43 240 13 13 13 13 13 13 13 13 13 13 13 13 13 13 13 13 13 13 13 13 13 13 13 13 13 13 13 43 125 170 13 13 13 13 13 13 18 68 218 13 13 13 13 13 13 13 13 13 9 47 237 13 13 13 13 13 13 13 13 13 13 13 13 13 13 13 
13 13 13 13 13 13 13 13 13 13 13 13 13 13 13 1 28 253 13 13 13 13 13 13 13 13 13 13 13 13 13 13 13 13 13 13 13 13 13 13 13 13 13 13 13 5 38 244 13 13 13 5 38 244 13 13 13 13 13 13 13 13 13 13 13 13 13 13 13 5 37 245 13 13 13 13 13 13 13 13 13 13 13 13 13 13 13 13 13 13 13 13 13 13 13 13 13 13 13 13 13 13 5 38 245 5 38 244 5 38 244 5 38 244 5 38 244 5 38 244 5 38 244 5 38 244 5 38 244 5 38 244 5 38 244 6 39 243 8 44 239 5 38 244 5 38 244 6 39 244 6 39 244 6 39 244 6 39 244 6 39 244 5 38 244 5 38 244 5 38 244 5 38 244 5 38 244 5 38 244 6 39 243 5 38 245 5 38 244 5 38 244 5 38 244 5 38 244 6 39 243 6 39 243 6 40 242 7 41 242 7 42 241 8 44 239 8 44 239 7 42 241 6 39 243 6 39 244 5 37 245 6 39 244 6 39 244 6 39 243 6 40 242 6 40 242 7 41 241 7 41 241 7 43 240 7 41 242 6 40 242 7 41 241 7 42 241 7 42 241 6 41 242 6 41 242 6 41 242 7 41 242 7 41 241 7 41 241 7 41 241 7 42 241 7 42 241 7 42 241 7 42 241 8 43 240 8 43 240 7 41 242 7 41 242 7 42 241 8 45 238 7 42 241 7 42 241 7 42 241 8 44 239 7 42 241 6 40 242 6 40 242 7 42 241 8 43 240 9 45 238 8 45 238 9 45 238 9 45 238 8 44 240 8 44 240 7 43 240 8 44 239 8 43 240 8 43 240 7 43 240 8 44 239 8 45 239 8 45 239 8 44 239 8 44 239 8 45 238 8 45 238 9 46 238 9 46 237 9 46 237 9 46 237 9 46 237 9 46 237 9 46 237 9 46 237 9 46 237 9 46 237 9 46 238 9 46 238 9 46 238 9 46 237 9 46 238 9 46 237 9 46 237 9 46 237 9 46 237 9 46 237 9 46 237 9 46 237 9 46 237 7 42 241 13 13 13 13 13 13 13 13 13 13 13 13 9 46 238 13 13 13 13 13 13 13 13 13 13 56 229 13 13 13 13 13 13 13 13 13 10 49 235 10 48 236 10 49 235 13 13 13 13 13 13 13 13 13 13 13 13 13 13 13 13 13 13 13 13 13 12 54 230 13 13 13 13 13 13 13 13 13 13 13 13 13 13 13 13 13 13 13 13 13 13 13 13 14 57 228 13 13 13 13 13 13 13 13 13 13 13 13 13 13 13 13 13 13 13 13 13 13 13 13 13 13 13 11 52 233 
13 13 13 13 13 13 13 13 13 13 13 13 13 13 13 13 13 13 13 13 13 13 13 13 13 13 13 13 13 13 13 13 13 13 13 13 5 38 244 13 13 13 13 13 13 5 38 244 5 38 244 5 38 245 5 38 244 13 13 13 13 13 13 5 38 244 13 13 13 13 13 13 13 13 13 13 13 13 13 13 13 13 13 13 5 38 244 13 13 13 13 13 13 13 13 13 6 39 244 5 37 245 5 38 245 5 38 245 5 38 244 5 37 245 5 38 244 5 38 244 5 38 244 5 38 244 5 38 244 5 38 244 5 38 244 5 38 244 6 39 243 5 38 244 5 38 244 5 38 244 6 39 244 6 39 244 6 39 244 5 38 244 5 38 244 5 38 244 5 38 244 5 38 244 5 38 244 5 38 244 5 38 244 5 38 245 5 38 244 5 38 244 5 38 244 5 38 244 5 38 244 6 39 243 6 40 242 6 40 242 7 42 241 8 43 240 7 43 240 7 43 240 6 41 242 6 40 243 6 39 244 7 43 240 7 41 242 6 41 242 6 40 243 6 40 242 6 40 242 7 41 242 8 43 240 7 43 240 8 43 240 7 42 241 7 43 240 7 42 241 7 42 241 7 41 242 7 41 242 7 41 242 7 41 241 7 42 241 7 42 241 7 42 241 7 42 241 7 42 241 7 41 242 8 43 240 8 43 240 7 43 240 8 43 240 7 43 240 7 43 240 7 42 241 7 42 241 7 42 241 8 44 240 7 42 241 7 41 242 7 42 241 7 42 241 9 46 237 9 46 237 9 45 238 8 44 239 8 44 239 7 42 241 7 42 241 7 42 241 8 44 239 8 44 239 8 44 239 8 43 240 8 44 239 8 44 239 8 45 238 8 45 238 9 46 238 8 45 238 9 46 237 9 46 237 9 46 237 9 46 237 9 46 237 9 46 237 9 46 237 9 46 237 9 46 237 9 46 237 9 46 238 9 46 237 9 46 237 9 46 237 9 46 237 8 45 238 9 46 238 9 46 237 9 46 237 13 13 13 13 13 13 9 46 237 9 46 237 9 46 237 13 13 13 13 13 13 13 13 13 13 13 13 13 13 13 9 46 238 9 46 238 10 48 235 13 13 13 13 13 13 10 49 235 13 13 13 13 13 13 13 13 13 13 13 13 13 13 13 13 13 13 13 13 13 13 13 13 13 13 13 14 58 227 13 13 13 13 13 13 13 13 13 13 13 13 13 13 13 13 13 13 13 13 13 13 13 13 13 13 13 13 13 13 13 13 13 13 13 13 13 13 13 13 13 13 13 13 13 13 13 13 13 13 13 13 13 13 13 13 13 13 13 13 13 13 13 13 56 229 
13 13 13 13 13 13 13 13 13 13 13 13 13 13 13 13 13 13 13 13 13 13 13 13 13 13 13 13 13 13 13 13 13 13 13 13 13 13 13 13 13 13 13 13 13 5 38 244 5 38 245 4 35 247 13 13 13 13 13 13 13 13 13 13 13 13 13 13 13 13 13 13 13 13 13 13 13 13 13 13 13 13 13 13 5 38 244 5 38 244 13 13 13 13 13 13 13 13 13 5 37 245 5 38 245 5 38 244 5 38 244 5 38 244 5 38 244 5 38 244 5 38 244 13 13 13 5 38 244 5 38 245 5 38 244 6 39 243 6 40 243 5 38 244 5 37 245 5 38 244 5 38 244 6 41 242 7 41 242 6 40 243 5 38 244 5 38 245 5 38 244 5 38 244 5 38 244 5 38 244 5 38 244 6 39 243 7 41 242 7 42 240 5 38 244 5 38 244 5 38 244 6 38 244 6 39 243 6 39 243 7 41 242 7 43 240 7 43 240 8 43 240 7 41 241 7 41 241 6 41 242 7 43 240 6 40 242 6 39 243 6 39 243 6 40 242 6 40 242 6 40 242 7 43 240 7 42 241 7 43 240 7 42 241 7 42 241 7 41 242 7 41 242 7 41 242 7 41 242 7 42 241 7 42 241 8 43 240 8 43 240 8 43 240 7 42 241 7 42 241 8 43 240 8 43 240 8 43 240 7 43 240 8 44 240 7 43 240 8 45 238 7 43 240 8 45 238 8 44 239 8 44 239 8 44 240 7 42 241 7 42 241 7 42 241 9 46 237 9 46 237 9 46 237 8 45 238 8 44 239 8 44 240 8 44 239 8 43 240 8 43 240 8 44 239 8 44 239 8 44 239 8 44 239 9 46 238 9 46 237 9 46 237 9 46 237 8 45 238 8 45 238 9 45 238 9 46 237 9 46 237 9 46 237 9 46 237 9 46 237 9 46 237 9 46 237 9 46 237 9 46 238 9 47 237 9 47 236 9 46 237 9 45 238 8 45 238 8 45 238 9 46 237 13 13 13 13 13 13 13 13 13 10 48 236 10 48 236 13 13 13 13 13 13 13 13 13 13 13 13 13 13 13 13 13 13 9 46 238 9 46 238 13 13 13 13 13 13 13 13 13 13 13 13 13 13 13 13 13 13 13 13 13 16 64 222 13 13 13 13 13 13 13 13 13 13 13 13 13 13 13 126 218 74 13 13 13 13 13 13 13 13 13 13 13 13 13 13 13 13 13 13 43 125 170 13 13 13 13 13 13 13 13 13 13 13 13 13 13 13 13 13 13 13 13 13 13 13 13 13 13 13 13 13 13 13 13 13 13 13 13 13 13 13 13 13 13 20 73 215 
13 13 13 13 13 13 13 13 13 13 13 13 13 13 13 13 13 13 13 13 13 5 37 245 13 13 13 13 13 13 13 13 13 13 13 13 13 13 13 13 13 13 5 38 244 13 13 13 5 38 245 13 13 13 13 13 13 13 13 13 13 13 13 13 13 13 13 13 13 13 13 13 6 38 244 13 13 13 13 13 13 13 13 13 5 37 245 5 38 244 13 13 13 13 13 13 13 13 13 13 13 13 5 38 244 5 38 244 5 38 244 5 38 244 13 13 13 13 13 13 5 38 244 5 38 244 5 38 245 5 38 245 5 38 245 5 37 245 5 38 244 5 38 244 5 37 245 5 38 245 5 38 244 5 38 244 5 38 244 6 40 243 5 38 245 5 38 245 6 39 244 5 38 244 5 38 244 5 38 244 5 38 244 7 41 241 8 43 240 6 40 242 6 38 244 6 38 244 6 38 244 6 38 244 6 39 244 6 39 244 6 40 243 7 42 240 7 43 240 8 44 239 8 44 239 7 42 241 7 42 241 7 42 241 7 41 242 6 41 242 6 40 243 6 40 242 6 40 242 6 41 242 7 42 241 7 41 242 8 43 240 7 42 241 7 42 241 7 41 241 7 43 240 8 43 240 8 43 240 8 43 240 8 43 240 8 43 240 7 42 241 7 42 241 7 41 241 7 41 241 8 43 240 8 43 240 8 43 240 8 43 240 8 44 240 8 43 240 7 42 241 8 43 240 8 43 240 8 44 240 8 44 240 8 44 240 7 42 241 7 42 241 7 42 241 9 46 237 9 46 237 9 46 237 8 45 238 8 44 239 7 43 240 8 44 239 8 43 240 8 43 240 8 44 239 8 44 239 9 46 237 9 46 237 9 46 237 9 46 237 9 46 238 9 46 238 8 44 239 8 45 238 9 46 237 9 46 237 9 46 237 8 45 238 9 45 238 9 45 238 9 45 238 9 46 237 8 45 238 9 45 238 9 46 237 9 46 237 9 46 238 8 45 238 8 44 239 13 13 13 13 13 13 13 13 13 8 45 238 13 13 13 10 48 236 9 47 236 13 13 13 13 13 13 13 13 13 13 13 13 13 13 13 7 42 241 9 46 238 11 51 233 13 13 13 13 13 13 13 13 13 13 13 13 13 13 13 13 13 13 13 13 13 13 13 13 13 13 13 13 13 13 13 13 13 13 13 13 13 13 13 13 13 13 13 13 13 13 13 13 12 54 231 13 13 13 13 13 13 13 13 13 13 13 13 13 13 13 13 13 13 13 13 13 13 13 13 13 13 13 13 13 13 13 13 13 13 13 13 13 13 13 13 13 13 13 13 13 13 13 13 13 13 13 18 66 220 15 60 225 
86 207 97 13 13 13 13 13 13 13 13 13 13 13 13 13 13 13 13 13 13 13 13 13 13 13 13 13 13 13 5 38 244 13 13 13 13 13 13 13 13 13 13 13 13 13 13 13 13 13 13 66 180 122 13 13 13 13 13 13 13 13 13 13 13 13 13 13 13 13 13 13 13 13 13 13 13 13 5 37 245 13 13 13 5 38 245 13 13 13 13 13 13 5 38 244 13 13 13 13 13 13 13 13 13 5 38 244 5 38 244 5 38 244 13 13 13 13 13 13 5 38 244 5 38 244 6 39 243 5 38 245 5 38 245 5 37 245 5 38 244 5 38 244 13 13 13 13 13 13 5 38 244 6 40 242 6 40 242 6 40 242 6 40 243 5 38 244 6 41 242 5 38 244 6 39 243 7 41 242 7 43 240 7 42 241 7 42 241 6 40 242 7 41 242 6 40 242 6 39 243 6 39 244 6 38 244 6 38 244 6 39 244 6 40 243 6 41 242 5 38 244 7 42 241 7 41 242 7 42 241 7 41 242 6 40 242 6 40 242 6 40 242 6 39 243 7 42 241 7 42 240 8 43 240 6 41 242 7 41 242 7 41 242 7 41 242 7 41 242 7 41 242 7 41 242 8 43 240 8 43 240 7 42 241 7 41 242 7 42 241 7 42 241 7 42 241 8 45 239 9 46 237 8 45 239 8 44 240 7 42 241 8 44 240 7 42 241 7 42 241 8 43 240 8 43 240 8 43 240 8 43 240 8 43 240 8 43 240 7 42 241 7 42 241 9 46 237 9 46 237 9 46 237 9 46 238 8 44 239 8 44 239 8 44 239 8 44 239 8 43 240 8 44 239 8 43 240 8 45 238 9 46 237 9 46 237 9 46 238 8 44 239 7 43 240 8 43 240 8 44 239 9 46 237 9 46 237 9 46 237 9 46 237 9 46 238 9 46 237 9 46 237 9 47 237 9 46 238 9 47 237 9 46 238 9 46 238 9 46 238 8 45 238 8 44 239 13 13 13 13 13 13 13 13 13 13 13 13 10 50 234 10 49 235 13 55 229 10 48 236 13 13 13 9 47 236 14 59 227 13 13 13 13 13 13 10 49 235 13 13 13 13 13 13 13 13 13 13 13 13 9 47 237 13 13 13 13 13 13 13 13 13 12 53 231 13 13 13 13 13 13 13 13 13 23 78 210 13 13 13 13 13 13 13 13 13 13 13 13 13 13 13 13 13 13 13 13 13 13 13 13 13 13 13 13 13 13 13 13 13 13 13 13 13 13 13 13 13 13 13 13 13 13 13 13 13 13 13 13 13 13 13 13 13 13 13 13 13 13 13 10 50 234 16 63 223 34 104 187 
13 13 13 13 13 13 13 13 13 13 13 13 13 13 13 13 13 13 13 13 13 13 13 13 13 13 13 13 13 13 13 13 13 13 13 13 13 13 13 13 13 13 13 13 13 13 13 13 13 13 13 13 13 13 13 13 13 6 39 244 13 13 13 13 13 13 13 13 13 13 13 13 13 13 13 13 13 13 13 13 13 5 37 245 13 13 13 5 38 244 13 13 13 13 13 13 13 13 13 13 13 13 13 13 13 5 38 245 5 38 245 13 13 13 13 13 13 13 13 13 13 13 13 13 13 13 13 13 13 5 38 244 5 38 244 5 38 244 5 38 244 13 13 13 13 13 13 7 42 241 6 39 243 6 40 242 6 39 243 6 40 242 7 41 242 7 42 241 8 43 240 7 41 242 8 43 240 7 42 241 7 43 240 7 42 241 7 42 241 6 39 243 6 40 243 6 40 243 6 40 243 6 40 242 6 39 243 6 40 243 6 40 243 6 40 242 6 40 242 7 42 241 8 44 239 7 42 241 7 42 240 7 42 241 7 42 241 7 42 241 7 41 242 7 42 241 7 42 240 8 43 240 8 44 239 7 41 242 6 40 242 6 40 243 6 40 243 7 41 242 7 41 242 7 43 240 8 43 240 8 43 240 7 42 241 7 41 242 6 40 242 7 42 241 8 44 239 8 45 239 9 46 237 9 45 238 8 45 238 7 42 241 7 42 241 7 42 241 7 42 241 7 43 240 7 42 241 7 42 241 7 42 241 7 43 240 8 44 239 7 42 241 8 44 239 8 44 239 8 44 239 9 46 237 7 43 240 7 42 241 7 41 242 8 43 240 8 43 240 8 43 240 7 43 240 8 44 239 8 44 240 9 46 238 9 46 238 9 46 238 8 43 240 7 43 240 8 43 240 9 46 237 9 46 237 9 46 237 9 46 237 8 45 238 9 46 237 9 46 238 9 48 236 10 48 236 37 111 181 10 48 236 8 45 238 9 46 238 8 44 239 7 43 240 13 13 13 13 56 229 10 49 235 13 13 13 9 46 238 13 13 13 13 13 13 8 44 239 13 13 13 9 48 236 13 13 13 13 13 13 13 13 13 13 13 13 13 13 13 11 52 232 13 13 13 10 49 235 13 13 13 13 13 13 13 13 13 13 13 13 13 56 229 12 53 231 11 50 234 13 13 13 13 13 13 13 13 13 13 13 13 13 13 13 13 13 13 13 13 13 13 13 13 13 13 13 13 13 13 13 13 13 13 13 13 18 68 219 13 13 13 13 13 13 13 13 13 13 13 13 11 50 234 13 13 13 13 13 13 13 13 13 23 79 209 13 13 13 13 13 13 13 13 13 18 68 218 17 65 221 
13 13 13 13 13 13 13 13 13 13 13 13 13 13 13 13 13 13 13 13 13 13 13 13 13 13 13 13 13 13 13 13 13 13 13 13 13 13 13 13 13 13 13 13 13 13 13 13 13 13 13 13 13 13 13 13 13 13 13 13 5 38 244 13 13 13 5 38 245 13 13 13 13 13 13 13 13 13 5 38 244 5 38 244 13 13 13 13 13 13 6 38 244 13 13 13 5 38 244 13 13 13 5 38 245 5 38 244 13 13 13 13 13 13 13 13 13 5 38 245 13 13 13 5 38 245 13 13 13 5 38 244 5 38 244 5 38 244 13 13 13 6 40 243 5 38 244 7 42 241 7 41 242 7 41 242 6 40 242 6 39 243 7 41 242 7 41 241 6 39 244 7 41 242 8 45 238 8 45 238 8 45 238 9 45 238 7 42 240 7 41 241 7 41 242 6 40 242 6 40 243 6 41 242 6 41 242 8 44 239 7 42 241 6 41 242 6 40 242 6 40 242 7 43 240 6 41 242 7 43 240 7 43 240 8 43 240 7 42 241 7 42 241 7 42 241 7 43 240 7 43 240 8 43 240 7 41 242 6 40 243 6 39 243 6 39 243 6 40 242 7 43 240 7 41 242 7 43 240 7 42 241 7 42 241 7 42 241 7 41 241 7 42 241 7 42 241 7 43 240 8 45 238 9 45 238 9 45 238 7 42 241 7 42 240 7 42 240 7 42 240 7 43 240 7 42 241 7 41 242 7 42 241 7 43 240 9 45 238 7 43 240 8 44 239 8 44 239 8 44 239 8 43 240 7 42 241 7 42 241 7 41 241 7 41 242 7 41 242 8 43 240 7 42 241 7 42 241 8 43 240 8 44 240 8 44 240 9 46 238 8 44 239 8 45 238 8 44 239 9 46 237 8 45 239 9 46 237 7 43 240 8 44 239 9 46 238 9 46 238 10 48 236 10 49 235 10 49 235 13 13 13 13 13 13 13 13 13 13 13 13 13 13 13 13 13 13 13 13 13 12 52 232 10 48 236 13 13 13 13 13 13 13 13 13 13 13 13 13 13 13 13 13 13 13 13 13 13 13 13 13 13 13 13 13 13 13 13 13 13 13 13 13 13 13 13 13 13 13 13 13 13 13 13 13 13 13 13 13 13 13 13 13 13 56 229 13 13 13 13 13 13 13 13 13 13 13 13 13 13 13 13 13 13 13 13 13 13 13 13 13 13 13 13 13 13 13 13 13 13 13 13 13 13 13 8 43 240 13 13 13 13 13 13 13 13 13 13 13 13 13 13 13 13 13 13 13 13 13 13 13 13 13 13 13 13 13 13 8 45 238 13 13 13 13 13 13 20 72 216 
13 13 13 13 13 13 13 13 13 13 13 13 13 13 13 13 13 13 13 13 13 13 13 13 13 13 13 13 13 13 5 37 245 13 13 13 13 13 13 13 13 13 13 13 13 13 13 13 13 13 13 13 13 13 13 13 13 5 38 244 13 13 13 13 13 13 13 13 13 13 13 13 5 38 244 13 13 13 5 38 245 5 38 245 5 38 244 5 38 244 13 13 13 5 38 244 13 13 13 5 38 244 9 46 237 6 40 243 7 42 241 13 13 13 6 39 243 6 38 244 5 38 245 13 13 13 13 13 13 13 13 13 5 38 244 5 38 244 6 40 243 7 43 240 6 40 243 5 38 245 7 41 242 7 41 242 7 41 242 6 39 244 6 39 244 5 38 244 6 39 243 8 43 240 8 43 240 8 43 240 8 45 238 9 46 237 9 46 237 7 43 240 7 41 242 6 40 242 6 40 242 7 42 241 8 43 240 8 43 240 7 42 241 7 42 241 7 42 241 8 44 239 8 44 239 7 42 241 7 42 241 7 42 241 7 42 241 7 43 240 8 44 239 7 43 240 7 43 240 7 43 240 9 46 237 7 41 241 6 40 242 6 40 243 6 40 243 6 41 242 7 43 240 7 43 240 7 43 240 7 43 240 7 42 241 8 43 240 8 43 240 8 44 239 7 41 242 7 42 241 7 43 240 9 45 238 9 45 238 7 42 241 7 42 240 7 42 240 7 43 240 8 43 240 8 43 240 7 42 240 7 41 242 8 45 239 8 45 239 8 44 239 8 44 239 8 44 239 8 44 239 7 43 240 7 43 240 7 42 241 6 41 242 6 40 243 6 39 244 6 40 242 6 40 243 7 41 241 7 43 240 8 45 239 9 46 238 9 46 238 9 46 237 9 47 237 9 47 237 9 46 237 8 44 239 6 39 244 13 13 13 13 13 13 9 46 237 9 47 237 10 49 235 10 48 236 10 48 236 13 13 13 13 13 13 13 13 13 9 47 237 13 13 13 7 41 242 13 13 13 13 56 229 9 47 237 9 47 237 13 13 13 13 13 13 13 13 13 13 13 13 13 13 13 13 13 13 14 57 228 13 13 13 13 13 13 9 46 237 13 13 13 13 13 13 14 58 227 13 13 13 13 13 13 9 47 237 13 13 13 13 56 229 13 13 13 13 13 13 13 13 13 28 90 200 13 13 13 13 57 228 13 13 13 13 13 13 13 13 13 13 13 13 13 13 13 13 13 13 13 13 13 13 13 13 13 13 13 13 13 13 13 13 13 13 13 13 13 13 13 13 13 13 13 13 13 13 13 13 13 13 13 13 13 13 13 13 13 13 13 13 13 13 13 13 13 13 13 13 13 
13 13 13 13 13 13 13 13 13 13 13 13 13 13 13 13 13 13 13 13 13 13 13 13 13 13 13 13 13 13 13 13 13 13 13 13 13 13 13 13 13 13 13 13 13 13 13 13 5 38 244 13 13 13 13 13 13 13 13 13 30 96 194 13 13 13 13 13 13 13 13 13 13 13 13 13 13 13 13 13 13 5 38 245 5 38 245 8 45 238 13 13 13 13 13 13 5 38 245 8 45 238 13 13 13 8 45 238 13 13 13 13 13 13 6 40 243 6 39 243 7 42 241 13 13 13 13 13 13 13 13 13 6 39 243 6 39 244 7 42 241 8 43 240 8 44 239 6 40 242 7 42 241 7 42 241 7 42 241 5 38 244 5 38 244 13 13 13 6 40 243 6 40 242 6 41 242 6 40 243 8 44 239 8 44 239 9 46 237 8 45 238 7 43 240 7 42 241 7 41 242 7 42 241 8 43 240 8 43 240 7 42 241 7 42 241 7 42 241 8 43 240 6 40 242 6 40 242 7 41 242 7 41 241 7 41 242 8 43 240 8 44 239 8 43 240 8 44 239 7 43 240 8 45 238 7 42 241 6 41 242 6 40 242 7 41 241 8 43 240 8 44 239 8 43 240 8 43 240 7 42 241 7 42 241 7 42 240 8 45 239 7 42 240 7 41 242 7 41 242 7 43 240 7 43 240 8 43 240 7 43 240 7 43 240 7 43 240 7 43 240 8 43 240 7 43 240 7 43 240 7 42 241 8 45 239 8 45 239 8 44 239 7 42 241 7 43 240 7 43 240 7 43 240 7 43 240 7 43 240 7 42 241 6 40 242 6 39 244 6 40 243 6 40 242 7 41 241 7 42 241 9 46 237 13 13 13 9 46 237 9 46 237 9 46 237 9 46 237 9 46 237 8 44 239 8 44 239 13 13 13 13 13 13 13 55 230 11 51 233 10 48 236 9 47 237 9 47 236 9 47 237 13 13 13 13 13 13 15 60 226 9 47 237 13 56 229 17 65 221 13 13 13 9 46 237 13 13 13 9 48 236 9 46 238 13 13 13 13 13 13 14 57 228 13 13 13 13 55 230 13 55 230 12 52 232 11 52 232 13 13 13 14 57 228 13 13 13 13 13 13 13 13 13 16 63 223 13 13 13 13 13 13 13 13 13 13 13 13 13 13 13 9 46 237 13 13 13 13 13 13 13 13 13 13 13 13 13 13 13 13 13 13 13 13 13 13 13 13 13 13 13 13 13 13 13 13 13 13 13 13 13 13 13 13 13 13 13 13 13 13 13 13 13 13 13 13 13 13 13 13 13 13 13 13 21 73 214 13 13 13 13 13 13 13 13 13 36 109 184 
13 13 13 13 13 13 13 13 13 13 13 13 13 13 13 13 13 13 13 13 13 13 13 13 13 13 13 13 13 13 13 13 13 13 13 13 13 13 13 13 13 13 13 13 13 13 13 13 13 13 13 13 13 13 13 13 13 5 38 245 13 13 13 13 13 13 13 13 13 9 46 237 13 13 13 13 13 13 13 13 13 5 38 245 5 38 245 13 13 13 13 13 13 13 13 13 161 228 54 7 41 242 8 44 239 9 46 237 13 13 13 7 41 242 7 41 242 8 43 240 9 46 238 13 13 13 13 13 13 13 13 13 7 41 242 6 39 244 7 41 242 6 39 244 7 41 242 6 41 242 7 41 242 7 41 242 7 41 242 6 39 244 7 41 241 9 46 237 8 43 240 7 41 242 6 41 242 6 40 243 6 41 242 6 41 242 8 44 239 7 41 242 8 43 240 8 43 240 7 43 240 7 41 242 7 41 242 7 42 241 7 42 241 7 43 240 7 43 240 8 44 239 8 44 239 7 42 241 7 41 242 7 41 241 7 41 242 7 43 240 8 43 240 7 43 240 8 44 239 8 45 238 9 46 237 9 46 237 7 41 241 7 41 241 7 43 240 8 43 240 8 44 239 8 43 240 8 43 240 7 43 240 7 43 240 8 44 239 8 45 238 8 44 239 7 43 240 7 41 241 7 42 241 7 43 240 7 43 240 7 43 240 7 43 240 7 43 240 8 43 240 7 43 240 8 43 240 8 43 240 7 42 241 8 43 240 8 43 240 8 43 240 8 44 239 8 43 240 8 43 240 7 43 240 7 43 240 7 43 240 7 42 241 7 42 241 6 39 244 6 39 243 5 38 245 8 44 239 8 44 239 9 46 237 9 46 237 9 46 237 9 47 237 9 47 237 9 46 237 9 46 237 9 46 237 13 13 13 9 48 236 9 47 237 13 55 230 13 55 229 13 55 230 9 46 237 9 47 237 9 47 237 9 46 238 13 13 13 15 59 226 15 59 226 13 56 229 13 13 13 13 13 13 13 13 13 13 13 13 10 49 235 10 49 235 13 13 13 13 13 13 13 13 13 13 13 13 13 13 13 18 67 219 18 67 219 13 13 13 13 13 13 13 13 13 15 60 226 13 13 13 13 13 13 15 61 225 13 13 13 13 13 13 12 52 232 32 100 191 13 13 13 13 13 13 13 13 13 13 13 13 13 13 13 13 13 13 13 13 13 13 13 13 13 13 13 13 13 13 13 13 13 13 13 13 13 13 13 13 13 13 13 55 229 13 13 13 13 13 13 13 13 13 13 13 13 13 13 13 13 13 13 13 13 13 13 13 13 13 13 13 13 13 13 13 13 13 19 70 216 
13 13 13 13 13 13 13 13 13 13 13 13 13 13 13 13 13 13 13 13 13 5 38 245 13 13 13 13 13 13 13 13 13 13 13 13 13 13 13 5 37 245 13 13 13 13 13 13 13 13 13 13 13 13 13 13 13 13 13 13 5 37 245 13 13 13 5 38 244 13 13 13 13 13 13 13 13 13 13 13 13 13 13 13 13 13 13 13 13 13 13 13 13 13 13 13 7 42 241 8 44 239 7 41 242 8 44 239 7 41 242 7 41 242 7 41 242 7 41 242 9 46 237 9 46 237 8 45 238 8 44 239 6 40 243 6 39 244 6 39 243 6 39 243 6 41 242 6 41 242 7 41 242 6 41 242 7 41 242 7 41 241 7 43 240 8 45 238 7 41 242 6 40 242 7 41 242 6 41 242 7 43 240 7 41 242 7 42 241 6 40 242 6 40 243 6 40 243 7 41 242 7 41 242 7 41 242 7 41 242 7 42 241 7 43 240 7 43 240 7 43 240 8 43 240 8 43 240 8 44 239 8 44 239 8 44 239 8 44 239 8 43 240 7 43 240 8 44 239 8 45 238 9 46 237 9 46 237 8 45 238 7 43 240 7 43 240 8 43 240 8 44 239 8 44 240 8 44 240 8 45 238 8 45 238 8 44 239 8 45 238 8 44 239 8 44 239 7 43 240 7 43 240 7 43 240 7 43 240 8 45 238 7 43 240 7 43 240 6 40 243 6 40 243 6 41 242 7 42 241 8 44 240 7 42 241 7 42 241 5 38 245 6 39 243 6 40 242 8 43 240 8 45 239 7 43 240 7 43 240 7 42 241 7 41 241 6 38 244 6 39 243 6 39 243 8 44 239 8 44 239 9 46 237 9 46 237 9 46 238 9 46 237 9 47 237 9 46 237 9 46 237 9 46 237 9 48 236 9 48 236 12 54 230 14 58 227 14 59 227 13 55 230 9 45 238 7 43 240 8 44 239 9 46 238 9 46 237 9 47 237 9 47 237 9 47 237 13 13 13 11 50 234 13 13 13 13 13 13 13 13 13 14 57 228 13 13 13 13 13 13 13 13 13 13 13 13 13 13 13 13 13 13 24 81 208 13 13 13 13 13 13 13 13 13 13 13 13 13 13 13 14 58 227 17 64 222 9 47 237 13 13 13 13 56 229 13 56 229 13 13 13 13 13 13 13 13 13 13 13 13 29 93 197 13 13 13 13 13 13 13 13 13 11 52 233 13 13 13 13 13 13 13 13 13 13 13 13 13 13 13 13 13 13 13 13 13 13 13 13 13 13 13 13 13 13 13 13 13 13 13 13 13 13 13 13 13 13 27 89 200 13 13 13 17 64 222 15 60 226 
13 13 13 13 13 13 13 13 13 13 13 13 13 13 13 13 13 13 13 13 13 13 13 13 13 13 13 13 13 13 13 13 13 13 13 13 13 13 13 13 13 13 13 13 13 13 13 13 13 13 13 13 13 13 13 13 13 13 13 13 13 13 13 13 13 13 13 13 13 13 13 13 13 13 13 13 13 13 13 13 13 13 13 13 13 13 13 31 98 193 13 13 13 13 13 13 9 46 237 5 38 245 5 38 245 5 38 245 5 38 245 5 38 245 6 39 243 7 41 242 8 43 240 8 45 238 7 42 241 7 42 241 6 40 243 6 39 244 5 38 244 6 39 244 6 40 243 6 40 243 6 40 243 5 38 244 6 39 244 7 41 242 8 44 239 8 45 239 8 44 239 7 41 242 7 41 242 7 41 242 8 43 240 7 42 241 7 42 241 6 40 242 5 38 244 6 40 243 7 42 241 7 42 240 7 42 240 7 41 242 7 41 242 7 41 242 7 42 240 8 43 240 8 45 238 9 46 237 9 45 238 8 44 239 8 44 239 7 42 241 7 41 241 7 41 241 7 43 240 8 45 238 8 45 238 8 45 238 7 42 241 7 43 240 7 43 240 8 43 240 8 44 240 8 44 239 7 41 241 7 42 241 7 42 241 8 44 239 8 44 239 8 44 239 8 45 238 8 44 239 8 44 239 7 41 241 7 42 241 8 43 240 8 43 240 8 43 240 7 42 241 6 39 243 6 41 242 7 41 241 7 43 240 6 40 243 6 39 243 5 38 245 6 40 243 7 42 240 8 45 238 8 44 239 7 42 241 7 42 241 7 42 241 7 42 241 6 40 242 6 40 242 6 40 242 8 44 239 9 45 238 9 46 237 9 46 237 8 44 239 9 46 237 9 47 236 10 48 236 9 47 237 9 46 237 9 47 237 9 47 237 11 51 234 9 47 237 11 51 234 19 70 217 13 13 13 13 13 13 7 41 241 7 41 241 9 46 237 9 47 237 9 47 236 9 47 237 10 49 235 11 51 233 13 13 13 11 52 233 13 13 13 13 13 13 13 13 13 13 13 13 13 13 13 13 13 13 13 13 13 13 13 13 13 13 13 16 63 223 13 13 13 10 49 235 13 13 13 13 13 13 13 13 13 13 13 13 13 13 13 13 13 13 13 13 13 9 47 236 13 13 13 13 13 13 13 13 13 13 13 13 13 13 13 13 13 13 13 13 13 13 13 13 13 13 13 13 13 13 13 13 13 13 13 13 13 13 13 35 106 186 13 56 229 13 13 13 13 13 13 13 13 13 13 13 13 13 13 13 13 13 13 13 13 13 13 13 13 13 13 13 12 53 231 15 62 224 18 68 218 
13 13 13 13 13 13 13 13 13 13 13 13 13 13 13 13 13 13 13 13 13 13 13 13 13 13 13 13 13 13 13 13 13 13 13 13 13 13 13 13 13 13 13 13 13 13 13 13 13 13 13 13 13 13 13 13 13 13 13 13 13 13 13 13 13 13 13 13 13 5 38 245 13 13 13 6 41 242 9 46 237 9 46 237 13 13 13 13 13 13 13 13 13 13 13 13 5 38 245 5 38 245 5 38 245 5 38 245 6 40 242 6 39 243 6 39 244 6 39 244 7 42 241 7 42 241 7 41 242 7 41 242 6 40 243 7 41 241 6 39 243 6 40 243 6 40 243 6 40 242 6 39 243 6 39 244 6 39 244 8 43 240 8 43 240 8 44 239 8 44 239 8 44 239 7 43 240 7 43 240 7 42 241 7 43 240 7 42 241 8 43 240 7 42 241 7 42 241 7 43 240 8 43 240 8 44 240 7 41 242 7 41 242 8 43 240 8 43 240 8 43 240 7 43 240 9 46 237 8 45 238 8 44 239 8 44 239 7 42 241 6 40 243 6 39 244 8 44 239 8 45 238 7 43 240 7 42 241 7 42 241 8 43 240 7 43 240 7 43 240 7 43 240 8 44 239 7 42 241 8 43 240 7 42 241 7 42 241 7 42 241 7 43 240 8 43 240 8 45 238 8 45 238 6 41 242 6 39 244 7 42 241 7 43 240 7 43 240 7 42 241 6 40 242 9 46 237 8 45 239 8 43 240 6 41 242 6 39 244 6 39 244 6 40 243 7 43 240 7 43 240 8 44 239 7 43 240 7 43 240 7 42 241 7 41 242 7 42 241 7 43 240 8 43 240 8 44 239 9 47 237 9 47 237 11 50 234 7 42 241 7 42 241 8 45 238 10 48 236 13 13 13 9 46 238 9 46 237 9 47 237 15 61 224 11 51 234 11 51 234 9 46 237 13 13 13 13 13 13 7 41 241 7 41 241 9 47 237 9 47 236 10 48 236 9 47 236 11 51 233 13 13 13 13 13 13 13 13 13 13 13 13 10 48 236 13 13 13 13 13 13 11 52 232 13 13 13 13 13 13 13 13 13 13 13 13 13 13 13 13 13 13 10 48 235 13 13 13 13 13 13 13 13 13 13 13 13 13 13 13 13 13 13 12 54 230 13 13 13 13 13 13 13 55 230 13 13 13 14 59 226 13 13 13 13 13 13 13 13 13 13 13 13 13 13 13 13 13 13 13 13 13 13 13 13 13 13 13 51 143 154 13 13 13 13 13 13 13 13 13 13 13 13 13 13 13 13 13 13 13 13 13 13 13 13 13 13 13 13 13 13 13 13 13 16 63 223 16 63 223 
13 13 13 13 13 13 13 13 13 13 13 13 13 13 13 13 13 13 13 13 13 13 13 13 13 13 13 13 13 13 13 13 13 13 13 13 5 38 245 13 13 13 9 46 237 13 13 13 13 13 13 5 38 245 13 13 13 9 46 237 13 13 13 13 13 13 13 13 13 13 13 13 13 13 13 13 13 13 9 46 237 9 46 237 13 13 13 13 13 13 9 46 237 6 39 243 13 13 13 5 38 245 5 38 245 5 38 245 6 40 242 6 40 243 6 39 243 6 39 243 7 41 242 7 41 242 6 40 243 6 39 243 5 38 244 6 40 243 6 39 243 6 40 242 6 40 243 6 40 242 6 39 243 6 40 243 6 39 243 8 44 239 8 44 239 8 44 239 8 45 239 8 44 239 7 41 242 7 41 242 7 41 241 9 46 238 9 46 237 8 44 239 8 44 239 8 44 239 9 46 238 8 45 238 8 45 239 7 41 242 7 41 242 7 43 240 8 43 240 8 43 240 7 42 241 7 42 241 7 42 241 8 44 239 7 42 241 7 41 242 7 41 242 6 40 243 7 41 242 8 44 239 8 43 240 7 43 240 8 43 240 8 43 240 8 43 240 8 43 240 8 43 240 8 44 239 8 44 239 7 42 241 7 42 241 7 42 241 7 41 241 6 39 244 7 42 241 7 42 241 7 42 241 5 38 244 5 38 244 6 40 242 8 43 240 8 43 240 8 44 239 7 42 241 7 42 241 7 42 241 7 42 241 6 39 243 5 38 245 6 38 244 6 39 243 6 40 242 6 40 243 8 43 240 8 43 240 7 42 241 6 40 243 6 40 242 7 42 241 7 43 240 8 44 239 9 47 237 9 47 237 9 47 237 12 53 231 15 61 225 14 58 227 8 45 238 8 45 238 13 13 13 13 13 13 6 40 243 9 46 237 12 54 231 9 46 237 9 46 238 8 45 238 8 44 239 13 13 13 7 41 242 13 13 13 12 52 232 13 13 13 12 53 231 14 58 227 12 54 231 16 63 223 13 13 13 13 13 13 7 41 242 13 13 13 13 13 13 13 13 13 13 13 13 14 58 227 13 13 13 13 13 13 13 13 13 13 13 13 13 13 13 13 13 13 13 13 13 16 62 224 13 13 13 13 13 13 13 13 13 13 13 13 13 13 13 16 63 223 13 13 13 13 13 13 13 13 13 13 13 13 13 13 13 13 13 13 13 13 13 13 13 13 13 13 13 13 13 13 13 13 13 13 13 13 13 13 13 13 13 13 13 13 13 13 13 13 13 13 13 13 13 13 13 13 13 13 13 13 13 13 13 13 13 13 13 13 13 13 13 13 13 13 13 13 13 13 16 62 223 
13 13 13 13 13 13 13 13 13 13 13 13 13 13 13 13 13 13 13 13 13 13 13 13 13 13 13 13 13 13 13 13 13 13 13 13 13 13 13 13 13 13 13 13 13 13 13 13 13 13 13 9 46 237 13 13 13 13 13 13 5 38 244 13 13 13 13 13 13 13 13 13 13 13 13 13 13 13 9 46 237 9 46 237 9 46 237 8 44 239 7 41 242 7 41 242 5 38 245 5 38 245 5 38 245 5 38 245 6 39 243 7 42 240 7 41 242 6 39 243 6 39 243 6 40 243 7 41 242 5 38 244 5 38 244 6 40 243 7 41 242 7 41 242 7 43 240 8 44 239 8 43 240 8 44 239 8 44 239 8 44 239 7 42 241 7 43 240 7 42 241 7 42 241 7 41 242 6 40 243 6 40 243 7 43 240 9 46 238 9 46 238 9 46 237 8 44 239 8 45 238 8 44 239 9 46 238 7 41 241 7 43 240 7 43 240 8 43 240 7 43 240 7 41 241 5 38 245 6 40 242 7 41 242 7 41 242 7 41 242 7 41 242 6 41 242 8 44 239 8 45 239 8 44 239 8 43 240 8 44 239 8 44 239 8 43 240 7 42 241 7 42 241 8 43 240 8 45 239 7 42 241 7 41 242 7 41 241 8 43 240 7 42 241 7 42 241 7 42 241 7 42 241 6 39 243 6 39 243 7 41 242 8 44 239 9 47 237 9 47 237 8 45 238 8 43 240 8 43 240 6 39 244 5 38 245 5 38 245 5 38 245 6 40 242 6 40 242 6 40 243 8 44 239 8 45 238 7 43 240 6 41 242 6 40 242 7 41 242 8 43 240 9 47 237 9 46 237 9 47 237 9 47 237 13 56 229 18 66 220 13 13 13 13 55 230 7 43 240 7 42 241 7 42 241 10 48 235 13 13 13 14 58 228 8 45 238 8 45 238 8 44 239 8 43 240 6 40 242 13 13 13 13 13 13 13 13 13 12 53 232 12 54 230 12 54 230 14 58 227 16 62 224 16 62 224 13 56 229 14 59 226 11 51 233 13 13 13 13 13 13 12 55 230 13 13 13 13 13 13 13 13 13 8 45 238 8 45 239 13 13 13 13 13 13 13 13 13 13 13 13 13 13 13 15 60 225 10 49 235 76 202 103 13 13 13 13 13 13 13 13 13 13 13 13 9 45 238 13 13 13 13 13 13 13 13 13 13 13 13 13 13 13 13 13 13 13 13 13 13 13 13 11 51 233 13 13 13 13 13 13 13 13 13 13 13 13 25 85 204 12 54 231 13 13 13 12 55 230 13 13 13 20 72 215 13 13 13 13 13 13 13 13 13 13 13 13 21 74 213 
13 13 13 13 13 13 13 13 13 13 13 13 13 13 13 13 13 13 13 13 13 13 13 13 13 13 13 13 13 13 13 13 13 13 13 13 13 13 13 13 13 13 13 13 13 13 13 13 13 13 13 13 13 13 13 13 13 6 39 243 9 46 237 13 13 13 5 38 245 9 46 237 13 13 13 13 13 13 8 44 239 9 46 237 9 46 237 8 44 239 7 41 242 6 39 243 6 40 242 5 38 245 5 38 245 5 38 245 5 38 245 7 41 242 5 38 245 9 46 237 6 40 243 6 40 243 7 41 242 6 40 243 6 40 243 6 40 243 7 41 242 7 41 242 7 43 240 7 42 240 8 44 239 8 44 239 8 44 239 8 43 240 7 42 241 7 43 240 7 42 241 7 41 242 6 40 243 6 40 243 6 40 243 7 43 240 8 44 239 9 46 238 9 46 237 8 45 238 8 44 239 8 44 240 8 43 240 6 40 242 7 42 241 7 42 241 7 42 241 7 42 241 6 39 243 5 38 245 6 38 244 6 40 242 7 42 241 7 42 241 8 44 239 7 42 241 8 44 239 8 44 239 9 46 238 8 44 239 8 43 240 8 43 240 8 43 240 7 41 242 6 40 243 7 42 241 7 42 241 7 42 241 7 42 241 7 42 241 7 42 240 7 42 241 7 42 241 7 42 241 7 43 240 8 44 239 8 44 239 7 42 241 8 44 239 10 48 235 10 48 236 5 38 244 5 38 244 5 38 244 6 39 244 5 38 245 5 38 245 5 38 245 6 41 242 6 40 243 6 39 243 11 51 233 11 51 233 7 43 240 6 40 242 6 40 243 7 41 242 8 44 239 13 13 13 9 47 236 9 46 237 9 46 237 12 53 232 13 13 13 11 51 233 9 46 238 9 46 238 7 42 240 9 46 238 9 46 238 9 45 238 9 46 238 9 46 238 9 46 238 8 45 238 7 43 240 13 13 13 13 13 13 13 13 13 12 53 232 13 56 229 11 50 234 7 42 241 13 13 13 14 59 226 14 59 226 13 56 229 9 45 238 12 52 232 14 57 228 17 65 222 13 13 13 13 13 13 13 13 13 13 57 228 9 46 237 9 46 237 13 13 13 17 65 222 13 13 13 13 13 13 13 13 13 13 13 13 16 63 223 13 13 13 13 13 13 13 13 13 13 13 13 13 13 13 13 13 13 13 13 13 13 13 13 13 13 13 13 13 13 13 13 13 13 13 13 13 13 13 13 13 13 13 13 13 13 13 13 13 13 13 13 56 228 13 13 13 13 13 13 13 13 13 13 13 13 13 13 13 13 13 13 13 13 13 13 13 13 13 13 13 13 13 13 13 13 13 17 64 222 
13 13 13 13 13 13 13 13 13 13 13 13 13 13 13 13 13 13 13 13 13 13 13 13 13 13 13 13 13 13 13 13 13 13 13 13 13 13 13 13 13 13 5 38 245 13 13 13 13 13 13 13 13 13 6 41 242 8 43 240 13 13 13 9 46 237 13 13 13 13 13 13 13 13 13 5 38 245 5 38 245 8 44 239 9 46 237 8 44 239 7 43 240 8 45 239 8 45 239 7 42 241 6 40 242 5 38 245 6 39 244 8 43 240 13 13 13 8 43 240 8 43 240 7 41 242 7 41 242 7 41 242 7 42 241 7 41 242 7 41 242 7 41 242 7 41 242 7 42 241 7 42 241 7 42 241 8 43 240 6 40 243 7 41 242 6 39 243 7 41 242 6 40 243 7 41 242 7 41 242 7 41 242 7 41 242 7 41 242 8 44 239 8 45 238 8 43 240 7 41 241 6 39 244 6 39 244 5 38 245 6 40 243 6 38 244 7 41 241 7 41 242 6 41 242 6 39 243 5 38 244 6 40 242 7 41 242 7 41 242 7 42 241 7 42 241 8 44 239 7 43 240 9 46 238 9 46 238 9 46 238 8 43 240 7 41 242 7 41 242 6 40 243 7 41 241 6 40 243 7 42 241 7 42 241 7 42 241 8 43 240 8 43 240 8 43 240 7 42 241 9 46 238 8 44 239 7 41 241 6 40 243 7 41 241 10 48 236 7 43 240 6 41 242 5 38 244 8 43 240 11 51 233 6 40 243 7 42 241 8 44 239 7 42 241 7 43 240 6 41 242 13 55 230 11 50 234 9 46 238 7 42 241 6 41 242 8 44 239 10 48 236 10 50 234 13 13 13 9 46 238 9 46 238 9 46 237 9 47 237 13 13 13 13 13 13 9 47 237 9 47 237 10 48 236 8 45 239 7 42 240 7 42 240 10 49 235 10 49 235 11 50 234 9 46 237 13 13 13 13 13 13 13 56 229 13 56 229 11 51 233 8 44 239 7 42 241 13 13 13 13 13 13 13 13 13 13 13 13 9 48 236 10 48 235 14 59 226 14 59 226 13 13 13 13 13 13 13 13 13 10 48 235 12 53 232 13 13 13 14 57 228 13 13 13 13 13 13 25 84 205 13 13 13 17 66 221 13 13 13 13 13 13 13 13 13 13 13 13 13 13 13 13 13 13 13 13 13 13 13 13 13 13 13 13 13 13 13 13 13 13 13 13 13 13 13 13 13 13 13 13 13 10 49 235 13 13 13 13 13 13 13 13 13 13 13 13 13 13 13 22 76 212 13 13 13 13 13 13 13 13 13 13 13 13 13 13 13 13 13 13 13 13 13 13 13 13 24 81 207 
13 13 13 13 13 13 13 13 13 9 46 237 13 13 13 13 13 13 13 13 13 13 13 13 13 13 13 13 13 13 13 13 13 5 38 245 13 13 13 13 13 13 13 13 13 13 13 13 9 46 237 13 13 13 13 13 13 13 13 13 9 46 237 13 13 13 9 46 237 13 13 13 13 13 13 5 38 245 5 38 245 13 13 13 9 46 237 8 44 239 7 42 241 7 42 241 7 42 241 7 42 241 6 40 242 6 39 244 6 40 242 6 40 243 7 42 241 7 43 240 8 45 238 7 43 240 7 41 242 7 41 242 7 41 242 7 41 242 7 41 242 7 41 242 7 41 242 7 41 242 6 41 242 7 41 241 8 43 240 8 43 240 8 43 240 6 39 243 5 38 245 6 39 243 7 41 242 7 41 242 7 41 242 7 41 242 6 39 243 6 40 242 8 45 238 8 45 238 7 42 241 7 41 242 7 41 241 6 39 243 7 41 241 6 40 242 7 41 241 7 41 242 7 41 241 7 41 242 6 39 243 6 40 242 7 42 241 7 42 241 7 42 241 8 43 240 8 43 240 8 43 240 9 46 237 9 46 237 8 43 240 7 42 241 7 42 241 7 42 241 7 42 241 8 44 239 7 42 241 8 43 240 8 44 240 8 44 240 8 45 239 7 43 240 7 43 240 7 42 241 8 44 239 7 42 240 7 41 241 6 38 244 5 38 245 5 38 245 5 38 245 5 38 245 5 38 245 8 44 239 11 50 234 9 46 238 8 45 239 7 41 242 7 42 241 10 48 236 15 60 226 12 54 230 11 50 234 9 47 237 9 48 236 8 44 239 12 52 232 9 47 237 10 48 236 13 13 13 13 13 13 9 46 238 9 46 237 17 65 221 13 13 13 13 13 13 8 44 239 9 46 237 10 48 236 9 47 237 7 42 240 7 42 240 10 49 235 13 13 13 10 49 235 9 47 236 8 45 239 9 46 238 13 56 229 13 56 229 13 56 229 6 41 242 13 13 13 7 42 241 13 13 13 13 13 13 13 13 13 13 13 13 9 47 236 10 49 235 15 60 225 13 13 13 41 120 174 13 13 13 13 13 13 18 68 219 27 88 201 11 50 234 13 13 13 13 13 13 13 13 13 22 76 211 13 13 13 18 66 220 13 13 13 13 13 13 13 13 13 13 13 13 13 13 13 13 13 13 13 13 13 13 13 13 13 13 13 13 13 13 13 13 13 13 13 13 13 13 13 23 79 209 17 65 221 13 13 13 13 13 13 13 13 13 13 13 13 13 13 13 13 13 13 13 13 13 13 13 13 13 13 13 13 13 13 13 13 13 13 13 13 13 13 13 13 13 13 24 83 206 
13 13 13 13 13 13 13 13 13 13 13 13 13 13 13 13 13 13 5 38 244 13 13 13 13 13 13 13 13 13 5 38 244 13 13 13 13 13 13 5 38 245 13 13 13 13 13 13 7 42 241 9 46 237 13 13 13 13 13 13 13 13 13 13 13 13 13 13 13 13 13 13 5 38 245 5 38 245 7 42 241 9 46 237 8 44 239 8 44 239 7 42 241 7 43 240 6 40 243 7 41 242 7 41 242 6 41 242 6 40 242 6 40 243 7 41 242 7 41 242 7 42 241 7 43 240 7 41 242 6 40 242 6 40 242 6 41 242 6 39 243 7 41 242 8 44 239 7 41 242 6 40 242 6 40 242 6 40 243 7 42 240 5 38 244 5 38 245 5 38 245 5 38 245 6 40 242 7 41 242 7 41 242 5 38 244 5 38 245 6 39 243 6 40 242 7 43 240 6 40 243 7 41 242 7 41 242 7 41 242 6 40 242 6 40 242 7 41 241 7 41 242 7 41 241 7 41 242 7 42 241 6 40 242 7 42 241 7 42 241 7 42 241 7 43 240 7 43 240 8 44 240 9 46 237 9 46 237 8 45 239 7 42 241 7 42 241 7 42 241 7 42 241 7 42 241 6 40 243 7 42 240 8 43 240 7 41 241 8 43 240 6 39 243 7 42 241 6 40 243 6 41 242 6 41 242 7 41 241 6 38 244 5 38 244 5 38 245 5 38 245 5 38 245 5 38 245 6 40 243 8 44 239 7 42 241 8 45 239 7 42 241 8 43 240 9 48 236 13 55 230 9 46 237 9 46 238 9 47 237 10 49 235 10 49 235 12 52 232 9 47 237 6 40 242 13 13 13 13 13 13 9 47 237 9 47 237 13 13 13 13 13 13 13 13 13 8 44 239 9 46 238 11 51 233 13 13 13 13 13 13 13 55 229 13 13 13 13 13 13 13 13 13 9 46 237 9 46 238 9 46 238 13 56 229 13 56 229 13 57 228 9 46 237 9 46 237 11 52 232 21 75 212 13 13 13 13 13 13 9 47 237 9 47 237 12 54 231 9 47 237 15 61 225 13 13 13 13 13 13 14 58 228 13 13 13 23 78 210 13 13 13 13 13 13 13 13 13 24 82 207 19 69 218 18 67 220 13 13 13 13 13 13 13 13 13 17 64 222 13 13 13 13 13 13 13 56 229 13 13 13 13 13 13 13 13 13 21 73 214 13 13 13 13 13 13 13 13 13 13 13 13 13 13 13 13 13 13 13 13 13 13 13 13 13 13 13 13 13 13 13 13 13 13 13 13 13 13 13 13 13 13 13 13 13 13 13 13 13 13 13 13 13 13 13 13 13 20 73 214 
232 248 13 13 13 13 13 13 13 13 13 13 13 13 13 13 13 13 13 13 13 13 13 13 13 13 13 9 46 237 13 13 13 13 13 13 13 13 13 5 38 245 5 38 245 5 38 245 5 38 245 7 42 241 5 38 245 13 13 13 13 13 13 13 13 13 5 38 245 13 13 13 13 13 13 9 46 237 7 42 241 7 42 241 7 41 242 7 41 242 5 38 245 5 38 245 5 38 245 7 42 241 7 42 241 7 41 242 6 39 244 6 40 243 6 40 243 6 40 243 7 42 241 7 42 241 6 39 243 6 39 243 5 38 245 5 38 245 5 38 245 5 38 245 7 41 242 8 44 239 6 40 242 6 40 242 5 38 245 5 38 244 5 38 245 5 38 245 5 38 245 5 38 245 6 39 244 7 41 242 6 40 243 6 38 244 5 38 245 5 38 245 5 38 244 7 43 240 7 42 241 7 41 242 7 41 241 7 41 242 7 41 242 6 39 243 6 40 243 6 40 243 6 40 243 6 38 244 8 43 240 7 41 242 8 43 240 7 41 241 9 46 237 8 45 238 8 44 240 8 44 240 9 46 238 9 46 238 8 43 240 7 42 241 7 42 241 7 43 240 7 42 241 7 42 241 7 41 242 7 42 241 7 43 240 7 42 241 9 46 237 6 39 243 6 40 243 6 40 243 6 40 243 7 41 242 9 47 237 7 43 240 6 38 244 7 41 242 7 41 242 5 38 245 5 38 245 8 44 239 9 47 236 9 47 237 8 43 240 6 39 243 7 43 240 8 45 239 11 51 234 8 45 238 8 45 238 10 50 234 10 50 234 10 49 235 9 47 237 8 45 238 9 47 237 13 13 13 10 48 236 13 13 13 13 13 13 13 13 13 13 13 13 9 46 237 9 46 237 9 45 238 9 45 238 13 13 13 10 49 235 14 57 228 14 57 228 13 13 13 13 13 13 9 46 237 9 47 237 9 47 237 11 52 232 14 57 228 13 13 13 35 106 186 9 46 237 14 58 227 21 76 212 29 93 197 13 13 13 12 53 232 9 47 237 15 60 225 8 44 239 16 63 222 13 13 13 13 13 13 13 13 13 13 13 13 13 13 13 13 13 13 13 13 13 13 13 13 13 13 13 19 69 218 18 67 220 13 13 13 13 13 13 13 13 13 13 13 13 18 67 220 13 13 13 49 141 156 13 13 13 13 13 13 13 13 13 13 13 13 13 13 13 13 13 13 13 13 13 13 13 13 13 13 13 13 13 13 13 13 13 13 13 13 13 13 13 13 13 13 13 13 13 13 13 13 13 13 13 13 13 13 13 13 13 13 13 13 13 13 13 13 13 13 13 13 13 21 74 213 
13 13 13 13 13 13 13 13 13 13 13 13 13 13 13 13 13 13 13 13 13 13 13 13 13 13 13 13 13 13 13 13 13 13 13 13 13 13 13 5 38 244 5 38 245 5 38 245 5 38 245 5 38 245 5 38 245 5 38 245 13 13 13 13 13 13 7 42 241 13 13 13 13 13 13 6 40 243 6 40 243 5 38 245 13 13 13 6 41 242 5 38 245 6 39 244 5 38 245 7 41 242 8 44 239 7 42 241 5 38 245 6 39 243 5 38 245 7 42 241 7 41 242 5 38 245 6 39 243 6 39 243 5 38 245 5 38 245 5 38 245 5 38 245 5 38 245 7 42 241 5 38 245 5 38 245 5 38 245 5 38 245 5 38 245 5 38 244 5 38 245 5 38 245 6 40 242 9 46 237 9 46 237 6 38 244 5 38 245 5 38 245 5 38 245 5 38 244 5 38 245 5 38 245 7 41 242 7 41 242 6 39 243 5 38 244 6 39 244 9 46 237 6 40 243 6 40 243 6 39 244 6 39 244 6 39 244 5 38 245 8 44 239 7 41 241 7 42 241 7 41 242 9 46 238 9 46 238 8 44 239 7 43 240 8 44 240 7 43 240 5 38 245 6 40 243 6 39 243 7 41 242 6 40 243 6 39 244 6 39 244 6 40 243 8 43 240 6 40 243 6 40 243 6 39 243 6 39 244 6 39 244 8 44 239 8 44 239 7 42 241 6 40 242 15 60 226 9 47 236 8 44 239 8 44 239 7 41 242 7 41 242 8 45 239 8 44 239 8 45 239 7 43 240 8 43 240 10 50 234 9 47 237 8 44 239 9 47 237 10 49 234 9 47 237 8 44 239 13 13 13 13 13 13 11 51 233 10 49 235 9 47 236 10 48 236 10 48 236 10 48 236 18 66 220 7 42 241 13 55 230 15 59 226 15 59 226 18 68 218 13 56 229 10 48 236 9 48 236 11 51 233 13 56 229 13 13 13 12 53 231 9 48 236 12 52 232 12 52 232 14 59 227 13 13 13 13 13 13 13 13 13 12 53 232 15 61 224 12 53 232 16 63 222 32 100 191 10 48 235 13 13 13 13 13 13 13 13 13 13 13 13 13 13 13 13 13 13 13 13 13 13 13 13 13 13 13 13 13 13 9 47 237 13 13 13 13 13 13 13 13 13 13 13 13 13 13 13 13 13 13 13 13 13 13 13 13 13 13 13 13 13 13 12 54 231 13 13 13 13 13 13 13 13 13 13 13 13 32 101 190 11 52 233 13 13 13 13 13 13 13 13 13 13 55 230 13 13 13 13 13 13 13 13 13 13 13 13 13 13 13 13 13 13 13 13 13 12 54 231 
13 13 13 13 13 13 13 13 13 5 38 245 13 13 13 13 13 13 13 13 13 5 38 245 13 13 13 13 13 13 13 13 13 13 13 13 5 38 244 5 38 244 5 38 245 5 38 245 5 38 245 5 38 245 5 38 245 5 38 245 6 39 243 7 41 242 6 39 243 5 38 245 6 40 243 5 38 245 6 40 243 6 39 243 6 39 243 7 41 241 5 38 245 5 38 245 5 38 245 9 46 237 9 46 237 7 41 242 5 38 245 5 38 244 5 38 245 8 43 240 8 44 239 8 43 240 7 41 242 6 40 242 5 38 245 5 38 245 5 38 245 5 38 245 5 38 245 5 38 245 5 38 245 5 38 245 5 38 245 5 38 245 5 38 244 6 39 244 5 38 245 5 38 245 5 38 245 8 45 238 8 44 239 6 38 244 5 38 245 5 38 245 5 38 245 5 38 245 5 38 245 5 38 245 5 38 245 6 39 243 6 41 242 5 38 244 6 39 244 6 39 244 5 38 244 5 38 245 5 38 245 5 38 245 7 41 242 5 38 245 7 42 241 7 41 242 7 42 241 7 41 242 9 46 238 9 46 238 8 44 239 7 43 240 8 44 240 8 45 238 7 42 241 5 38 245 5 38 244 7 42 241 7 41 242 6 40 242 6 40 242 9 46 237 9 46 237 9 46 237 6 39 243 5 38 244 6 39 244 10 48 236 8 44 239 7 43 240 7 41 242 7 42 241 13 13 13 11 51 233 9 47 236 9 47 236 7 41 242 7 41 242 7 41 242 9 47 236 9 47 236 8 44 239 7 41 242 10 48 236 9 48 236 9 47 237 9 48 236 10 49 235 10 48 236 7 42 241 13 13 13 13 13 13 9 47 237 11 51 233 11 51 234 13 13 13 13 13 13 37 113 180 17 65 221 17 65 221 13 56 229 13 13 13 13 13 13 14 57 228 12 53 231 11 50 234 10 48 236 9 48 236 11 51 233 11 52 232 11 52 232 11 52 232 13 56 229 14 57 228 13 56 229 13 13 13 13 13 13 13 13 13 13 13 13 13 13 13 13 13 13 13 13 13 13 13 13 13 13 13 15 61 225 13 13 13 11 50 234 13 13 13 13 13 13 13 13 13 13 13 13 13 13 13 13 13 13 13 13 13 13 13 13 13 13 13 13 13 13 14 58 227 13 13 13 13 13 13 13 13 13 11 51 233 13 13 13 13 13 13 13 13 13 13 13 13 13 13 13 13 13 13 18 68 219 13 13 13 13 13 13 13 13 13 13 13 13 13 13 13 13 13 13 13 13 13 13 55 230 13 13 13 13 13 13 13 13 13 13 13 13 13 13 13 13 13 13 18 68 218 
135 221 69 13 13 13 13 13 13 13 13 13 13 13 13 13 13 13 5 38 245 13 13 13 13 13 13 13 13 13 13 13 13 13 13 13 7 43 240 6 39 244 6 39 244 5 38 245 5 38 245 13 13 13 5 38 245 6 40 243 6 40 242 6 39 243 5 38 245 13 13 13 7 42 241 6 40 243 8 44 239 13 13 13 7 42 241 7 41 241 5 38 245 5 38 245 5 38 245 5 38 245 7 42 241 7 43 240 5 38 244 5 38 245 5 38 245 8 44 239 8 44 239 7 42 241 6 40 242 5 38 245 5 38 245 5 38 245 5 38 245 5 38 245 5 38 245 5 38 245 5 38 245 5 38 245 5 38 245 5 38 245 6 39 244 5 38 245 6 39 244 6 40 243 6 40 243 8 44 239 8 44 239 6 39 244 5 38 244 5 38 245 5 38 245 5 38 245 5 38 245 5 38 245 5 38 245 5 38 245 5 38 245 5 38 245 8 43 240 9 46 237 8 44 239 7 41 242 5 38 245 6 39 243 7 43 240 7 41 242 7 42 241 7 41 242 7 41 242 6 39 244 13 13 13 6 39 243 6 39 244 7 41 242 7 43 240 8 43 240 5 38 245 5 38 245 5 38 245 8 44 239 7 42 240 7 41 242 6 40 243 8 44 239 9 46 237 9 47 237 8 44 239 7 43 240 6 39 244 12 53 232 7 43 240 7 42 241 7 42 241 13 13 13 13 13 13 13 13 13 8 44 239 8 44 239 7 41 242 9 48 236 9 47 236 10 48 236 9 47 236 9 46 237 10 48 236 10 49 235 10 48 236 9 47 237 9 48 236 10 49 235 11 52 232 13 13 13 13 13 13 9 47 237 13 13 13 12 53 232 14 59 226 18 67 219 13 13 13 24 81 208 18 67 219 18 67 219 13 13 13 13 13 13 13 13 13 13 56 229 11 50 234 12 53 232 10 49 235 11 51 233 11 51 233 10 49 235 10 49 235 10 49 235 13 56 229 14 57 228 13 56 229 13 13 13 13 13 13 13 13 13 13 13 13 9 46 237 13 13 13 13 13 13 13 13 13 13 13 13 13 13 13 13 13 13 13 13 13 13 13 13 13 13 13 18 67 220 13 13 13 13 13 13 13 13 13 13 13 13 13 13 13 13 13 13 13 13 13 13 13 13 9 47 236 13 13 13 17 65 221 13 13 13 13 13 13 13 13 13 13 13 13 13 13 13 13 13 13 13 13 13 13 13 13 13 13 13 13 13 13 20 71 216 13 13 13 13 13 13 29 93 197 13 13 13 13 13 13 13 13 13 13 13 13 13 13 13 13 13 13 13 13 13 13 13 13 26 86 203 
141 222 65 13 13 13 13 13 13 13 13 13 13 13 13 13 13 13 13 13 13 13 13 13 13 13 13 13 13 13 13 13 13 9 46 237 6 39 244 6 39 243 13 13 13 13 13 13 5 38 245 5 38 245 6 40 243 7 42 241 8 44 239 7 42 241 5 38 245 5 38 245 7 42 241 7 42 241 7 42 241 6 39 243 6 38 244 6 38 244 5 38 245 5 38 245 5 38 245 5 38 245 5 38 244 5 38 244 5 38 244 5 38 245 5 38 245 5 38 245 5 38 245 5 38 245 5 38 245 5 38 245 5 38 245 5 38 245 5 38 245 6 39 243 5 38 245 5 38 245 5 38 245 5 38 245 7 42 241 5 38 245 5 38 245 5 38 245 5 38 245 6 40 243 6 39 244 6 39 244 5 38 245 6 39 244 6 39 244 6 39 244 5 38 245 5 38 245 5 38 245 5 38 245 5 38 244 6 39 244 6 39 244 6 40 243 6 40 243 6 40 242 7 42 241 6 41 242 7 42 241 7 42 241 8 44 239 9 46 237 8 43 240 7 41 242 7 42 241 7 41 242 7 42 241 7 42 241 6 38 244 7 42 241 5 38 245 7 43 240 5 38 245 7 43 240 7 43 240 9 46 237 9 46 237 7 41 242 7 41 242 6 40 243 9 46 237 8 44 239 13 13 13 13 13 13 12 53 232 13 13 13 7 43 240 7 42 241 8 43 240 8 45 239 13 13 13 13 13 13 9 47 237 8 45 238 12 54 230 13 13 13 11 51 233 13 55 230 12 53 231 14 58 227 10 49 234 10 49 234 9 47 236 9 47 236 10 48 236 13 56 229 11 52 232 13 13 13 13 13 13 13 13 13 13 13 13 12 53 232 11 50 234 14 58 227 29 93 197 18 67 220 18 67 220 18 67 220 13 13 13 13 13 13 22 76 211 15 62 224 11 51 233 13 55 230 11 50 234 12 53 231 11 50 234 10 49 235 10 50 234 13 55 230 13 55 230 13 56 229 13 55 229 13 13 13 14 58 227 11 51 233 13 13 13 13 13 13 13 13 13 13 13 13 15 61 225 13 13 13 11 52 232 13 13 13 13 13 13 20 73 214 22 76 211 13 13 13 13 13 13 13 13 13 13 13 13 13 13 13 13 13 13 13 13 13 13 13 13 13 13 13 13 13 13 13 13 13 13 13 13 17 65 221 16 64 222 13 13 13 13 13 13 13 13 13 14 58 227 13 13 13 13 13 13 13 13 13 13 13 13 13 13 13 13 13 13 13 13 13 13 13 13 13 13 13 13 13 13 13 13 13 13 13 13 13 13 13 13 13 13 13 13 13 13 13 13 43 126 169 
29 94 197 13 13 13 13 13 13 13 13 13 13 13 13 13 13 13 13 13 13 13 13 13 13 13 13 5 38 245 13 13 13 5 38 245 6 39 243 13 13 13 6 39 244 5 38 245 5 38 245 5 38 244 5 38 244 5 38 244 6 40 243 7 42 241 5 38 245 5 38 245 13 13 13 13 13 13 13 13 13 5 38 245 5 38 245 5 38 245 5 38 245 5 38 245 5 38 245 5 38 245 6 39 243 5 38 244 6 40 242 6 40 242 5 38 245 5 38 245 5 38 245 5 38 245 5 38 245 5 38 245 5 38 245 5 38 245 5 38 245 6 39 243 5 38 245 5 38 245 5 38 245 5 38 245 7 42 241 7 42 241 6 39 243 5 38 245 5 38 245 5 38 245 6 39 244 13 13 13 5 38 245 5 38 245 5 38 245 6 41 242 7 42 241 6 40 243 6 39 243 5 38 245 5 38 245 5 38 245 5 38 244 6 40 243 6 41 242 7 43 240 8 43 240 8 43 240 7 42 241 7 42 241 8 43 240 8 45 238 7 42 241 7 42 241 7 42 241 6 39 243 6 39 243 6 39 243 6 38 244 7 41 242 5 38 245 5 38 245 5 38 245 9 47 237 9 46 237 9 46 237 9 46 237 8 45 238 8 44 239 7 42 241 9 46 237 9 46 238 13 13 13 13 13 13 13 13 13 13 13 13 6 41 242 8 45 239 9 47 237 9 47 237 8 45 238 7 43 240 7 43 240 8 45 238 13 13 13 12 55 230 11 51 233 11 51 233 13 13 13 10 50 234 10 50 234 10 50 234 8 44 239 9 47 236 10 48 236 13 13 13 13 13 13 7 41 242 13 13 13 13 13 13 12 54 231 11 51 234 13 56 229 17 65 221 17 64 222 16 63 223 16 63 223 15 59 226 14 57 228 13 55 230 13 55 230 15 62 224 15 61 225 15 60 225 12 54 231 12 53 231 10 50 234 10 49 235 10 49 235 12 54 231 12 54 231 13 55 230 13 55 230 13 13 13 13 13 13 13 13 13 13 13 13 13 13 13 13 13 13 13 13 13 13 13 13 15 61 225 15 60 226 13 13 13 13 13 13 13 13 13 13 13 13 13 13 13 46 134 162 13 13 13 13 13 13 13 13 13 13 13 13 13 13 13 13 13 13 13 13 13 13 13 13 13 13 13 19 70 217 13 13 13 15 61 224 13 13 13 13 13 13 13 13 13 13 13 13 8 45 238 13 13 13 13 13 13 13 13 13 13 13 13 13 13 13 13 13 13 13 13 13 13 13 13 13 13 13 13 13 13 13 13 13 13 13 13 13 13 13 13 13 13 13 13 13 14 58 227 
13 13 13 13 13 13 13 13 13 13 13 13 13 13 13 5 38 245 13 13 13 13 13 13 13 13 13 13 13 13 5 38 245 5 38 245 5 38 245 54 152 147 5 38 245 5 38 245 5 38 245 5 38 245 5 38 244 5 38 245 5 38 245 5 38 245 5 38 245 5 38 245 5 38 245 13 13 13 13 13 13 5 38 245 5 38 245 5 38 245 5 38 245 5 38 245 5 38 244 6 39 243 6 39 243 6 39 244 6 40 243 6 40 243 5 38 245 5 38 245 5 38 245 5 38 245 5 38 245 5 38 245 5 38 245 7 42 241 5 38 245 7 42 241 5 38 245 5 38 245 5 38 245 5 38 245 5 38 245 13 13 13 5 38 245 5 38 245 5 38 245 5 38 245 5 38 245 13 13 13 5 38 245 5 38 244 5 38 245 7 43 240 7 42 241 7 43 240 7 41 242 7 41 242 6 39 243 5 38 245 6 40 243 7 41 242 6 41 242 6 40 242 6 41 242 6 41 242 5 38 245 6 40 243 6 39 244 5 38 244 6 39 244 6 41 242 6 41 242 6 41 242 8 44 239 9 47 236 9 47 236 7 42 241 7 41 242 6 40 243 6 39 243 9 47 237 9 46 237 9 46 237 9 46 237 9 47 236 11 52 232 10 49 235 10 49 235 9 46 237 12 54 231 8 45 239 13 13 13 13 13 13 13 57 228 9 47 237 10 50 234 8 45 238 9 46 237 8 43 240 8 44 239 8 44 239 13 13 13 13 13 13 13 55 230 13 13 13 9 45 238 9 46 238 10 48 236 13 13 13 13 13 13 9 47 236 9 47 236 13 13 13 13 56 229 13 57 228 13 55 230 13 55 230 12 54 230 13 13 13 13 13 13 17 65 221 13 13 13 12 54 230 12 54 231 12 54 231 13 56 229 13 55 230 15 62 224 18 67 220 17 64 222 15 61 225 11 50 234 13 13 13 12 53 231 13 57 228 13 55 230 13 55 230 13 55 230 13 55 230 12 54 231 13 13 13 13 13 13 13 13 13 13 13 13 13 13 13 13 13 13 13 13 13 13 13 13 16 63 223 13 57 228 13 13 13 13 13 13 13 13 13 13 13 13 13 13 13 13 13 13 13 13 13 15 61 225 13 13 13 13 13 13 13 13 13 26 86 203 13 13 13 13 13 13 13 13 13 13 13 13 13 13 13 13 13 13 14 57 228 13 13 13 13 13 13 13 13 13 13 13 13 13 13 13 13 13 13 13 13 13 13 13 13 13 13 13 13 13 13 13 13 13 13 13 13 13 13 13 13 13 13 13 13 13 13 13 13 13 13 13 13 13 13 13 13 13 32 101 190 
13 13 13 5 38 245 13 13 13 13 13 13 13 13 13 13 13 13 13 13 13 13 13 13 13 13 13 5 38 245 5 38 245 13 13 13 5 38 245 13 13 13 13 13 13 5 38 245 5 38 245 5 38 245 5 38 245 5 38 245 5 38 245 5 38 245 5 38 245 5 38 245 5 38 245 5 38 244 5 38 245 5 38 245 5 38 245 5 38 245 5 38 245 13 13 13 6 39 244 6 39 244 13 13 13 6 39 244 6 40 243 6 40 243 5 38 245 5 38 245 5 38 245 5 38 245 5 38 245 6 39 243 6 39 244 8 44 239 5 38 245 5 38 245 5 38 245 5 38 245 5 38 245 5 38 245 5 38 245 5 38 245 13 13 13 5 38 245 5 38 245 5 38 245 5 38 245 5 38 245 5 38 245 5 38 245 5 38 245 6 39 243 7 41 242 8 43 240 7 41 241 7 41 241 6 40 242 5 38 245 5 38 244 6 39 243 7 42 241 6 39 243 5 38 245 5 38 245 13 13 13 7 41 242 5 38 244 5 38 245 5 38 244 6 40 243 6 39 243 6 41 242 10 49 235 10 48 236 9 47 237 8 44 239 8 44 239 7 41 241 7 41 242 7 41 242 8 44 239 9 46 237 9 46 237 10 48 236 11 52 232 11 52 232 11 52 232 9 47 237 11 50 234 11 51 233 11 52 233 13 56 229 13 55 230 13 57 228 12 53 232 9 46 238 8 45 238 8 44 239 8 45 238 9 47 236 13 13 13 13 13 13 13 13 13 9 47 236 9 46 238 9 46 238 13 13 13 13 13 13 13 13 13 9 47 236 9 47 237 12 54 230 14 57 228 13 57 228 13 55 230 13 55 229 13 56 229 13 13 13 13 13 13 13 13 13 13 13 13 12 53 232 12 53 232 13 55 230 13 56 229 13 55 230 13 55 230 13 55 230 18 67 220 13 13 13 12 54 231 9 47 237 13 55 230 13 56 229 13 55 230 13 55 230 13 55 230 13 13 13 13 13 13 13 13 13 13 55 230 13 13 13 13 13 13 13 13 13 13 13 13 13 13 13 13 13 13 13 13 13 13 13 13 15 60 225 16 62 223 16 63 223 13 13 13 13 13 13 13 13 13 14 58 227 13 13 13 13 13 13 13 13 13 13 13 13 13 13 13 50 143 154 13 13 13 13 13 13 13 13 13 13 13 13 13 13 13 13 13 13 13 13 13 18 69 218 13 13 13 13 13 13 13 13 13 13 13 13 13 13 13 13 13 13 13 13 13 13 13 13 13 13 13 13 13 13 21 75 212 13 13 13 13 13 13 13 13 13 13 13 13 13 13 13 13 13 13 21 75 213 
5 38 245 5 38 245 13 13 13 13 13 13 5 38 245 13 13 13 13 13 13 5 38 245 13 13 13 13 13 13 13 13 13 5 38 245 5 38 245 13 13 13 13 13 13 13 13 13 5 38 245 5 38 245 5 38 245 5 38 245 5 38 245 5 38 245 5 38 245 9 46 237 5 38 245 5 38 245 5 38 245 5 38 245 5 38 245 5 38 245 13 13 13 13 13 13 13 13 13 5 38 244 5 38 244 5 38 245 5 38 245 5 38 245 13 13 13 5 38 245 5 38 245 5 38 245 5 38 245 9 46 238 5 38 245 6 40 243 5 38 245 5 38 245 5 38 245 5 38 245 5 38 245 5 38 245 5 38 245 5 38 245 5 38 245 5 38 245 5 38 245 5 38 245 5 38 245 5 38 245 5 38 245 5 38 245 6 41 242 8 44 240 6 40 242 8 43 240 7 41 242 7 41 241 7 41 242 6 39 243 6 40 242 6 39 243 7 42 241 7 42 241 7 41 242 5 38 244 5 38 244 7 43 240 5 38 245 5 38 245 5 38 245 6 40 242 6 39 243 6 40 242 10 49 235 13 55 230 11 51 233 10 50 234 9 47 237 9 47 237 9 47 237 7 41 242 6 40 243 8 44 239 7 42 241 10 49 235 11 52 232 12 54 231 12 54 231 10 48 236 10 50 234 11 52 232 13 55 229 13 55 230 13 55 230 12 53 232 14 57 228 12 52 232 12 52 232 10 48 236 9 47 237 11 51 233 9 47 237 9 46 237 9 46 237 9 48 236 9 48 236 9 48 236 13 13 13 13 13 13 13 55 229 10 50 234 10 50 234 13 56 229 14 57 228 13 56 229 12 55 230 13 56 229 13 56 229 13 13 13 13 13 13 13 13 13 18 68 219 11 52 232 13 55 230 11 52 232 13 55 230 11 52 233 11 52 232 12 53 231 13 13 13 13 13 13 9 46 237 15 61 224 13 55 230 13 55 230 13 55 230 13 55 230 13 55 230 13 55 229 27 89 201 13 13 13 13 13 13 18 67 219 13 13 13 13 13 13 13 13 13 11 51 233 13 13 13 13 13 13 13 13 13 17 64 222 16 63 223 13 13 13 13 13 13 13 13 13 13 13 13 13 13 13 9 47 236 13 13 13 13 13 13 13 13 13 12 54 230 13 13 13 13 13 13 22 78 210 13 13 13 13 13 13 13 13 13 13 13 13 13 13 13 13 13 13 13 13 13 13 13 13 13 13 13 13 13 13 13 13 13 17 66 220 13 13 13 13 13 13 13 13 13 13 13 13 13 13 13 13 13 13 71 192 112 13 13 13 13 13 13 13 13 13 13 13 13 46 133 163 
5 38 245 53 150 149 13 13 13 13 13 13 5 38 245 5 38 245 13 13 13 13 13 13 13 13 13 13 13 13 13 13 13 13 13 13 5 38 245 5 38 245 13 13 13 5 38 245 5 38 245 5 38 245 5 38 245 5 38 245 5 38 245 5 38 245 13 13 13 13 13 13 5 38 245 5 38 245 13 13 13 5 38 245 5 38 245 5 38 245 5 38 245 13 13 13 5 38 245 5 38 245 5 38 245 5 38 245 13 13 13 5 38 245 5 38 245 5 38 245 5 38 245 5 38 245 7 42 241 9 46 238 5 38 245 5 38 245 5 38 245 5 38 245 5 38 245 5 38 245 5 38 245 5 38 245 5 38 245 5 38 245 5 38 245 5 38 245 5 38 245 5 38 245 5 38 245 5 38 245 5 38 245 5 38 245 5 38 245 6 41 242 6 39 243 7 43 240 6 40 242 11 50 234 10 48 236 12 54 231 33 102 189 13 13 13 13 13 13 6 40 243 6 39 243 5 38 245 6 39 244 13 13 13 7 42 241 5 38 245 5 38 245 7 41 242 7 41 242 12 54 231 13 13 13 13 13 13 13 55 230 10 50 234 9 47 237 9 47 236 10 48 236 13 13 13 10 49 235 10 48 235 7 41 241 8 44 239 9 47 237 11 51 233 13 13 13 10 48 236 8 45 239 10 48 236 11 52 233 13 55 230 13 55 230 12 53 232 12 53 232 11 52 233 13 55 230 13 56 229 24 81 208 16 63 223 12 54 230 12 54 230 12 53 231 13 55 230 13 55 230 12 55 230 13 13 13 13 13 13 11 51 233 11 52 233 10 48 235 12 53 231 12 53 231 13 13 13 13 55 229 13 55 230 13 55 230 13 56 229 13 13 13 13 13 13 13 13 13 13 55 230 10 49 235 13 55 230 13 13 13 12 53 231 12 53 231 12 54 230 13 13 13 13 13 13 13 13 13 13 13 13 13 13 13 13 55 230 13 55 230 13 55 230 12 54 231 13 55 229 13 56 229 13 13 13 13 13 13 13 13 13 13 13 13 13 13 13 13 13 13 13 13 13 13 13 13 21 75 212 13 13 13 18 67 220 13 13 13 13 13 13 13 13 13 15 60 226 13 13 13 13 13 13 13 13 13 13 13 13 33 103 189 13 13 13 13 13 13 13 13 13 13 13 13 13 13 13 12 53 232 13 13 13 13 13 13 13 13 13 13 13 13 13 13 13 13 13 13 13 13 13 13 13 13 13 13 13 13 13 13 13 13 13 13 13 13 13 13 13 13 13 13 18 67 219 13 13 13 13 13 13 13 13 13 13 13 13 13 13 13 13 13 13 13 13 13 14 59 227 
13 13 13 13 13 13 13 13 13 5 38 245 13 13 13 13 13 13 13 13 13 13 13 13 5 38 245 5 38 245 13 13 13 5 38 245 5 38 245 5 38 245 13 13 13 13 13 13 5 38 245 5 38 245 5 38 245 5 38 245 5 38 245 13 13 13 13 13 13 13 13 13 5 38 245 13 13 13 5 38 245 13 13 13 5 38 245 8 44 239 8 44 239 5 38 245 5 38 245 5 38 245 5 38 245 13 13 13 5 38 245 5 38 245 5 38 245 5 38 245 5 38 245 7 42 241 7 42 241 6 39 244 5 38 245 13 13 13 13 13 13 5 38 245 5 38 245 5 38 245 5 38 245 5 38 245 5 38 245 5 38 245 5 38 245 5 38 245 5 38 245 5 38 245 5 38 245 6 39 244 5 38 245 5 38 245 5 38 245 7 42 241 5 38 245 7 41 242 6 39 243 12 54 231 17 66 220 17 66 220 17 66 220 13 13 13 13 13 13 8 43 240 7 42 241 7 41 242 7 41 242 13 13 13 13 13 13 5 38 245 5 38 245 7 41 242 12 54 230 13 55 230 12 54 230 13 13 13 13 13 13 10 48 236 9 47 236 10 48 236 13 13 13 13 13 13 13 13 13 10 48 235 8 45 239 10 50 234 10 50 234 11 51 233 11 51 233 11 50 234 13 13 13 7 43 240 13 13 13 13 13 13 14 57 228 10 50 234 13 56 229 12 53 232 13 55 230 12 53 232 12 53 231 13 56 229 12 54 230 12 54 230 13 55 230 13 56 229 14 58 227 13 56 229 13 13 13 13 13 13 13 55 230 12 54 230 11 51 233 10 48 235 10 49 235 13 13 13 13 13 13 13 55 230 13 55 230 11 52 233 11 52 233 13 13 13 13 13 13 13 13 13 13 55 230 13 13 13 13 13 13 13 13 13 13 55 230 13 55 230 13 13 13 13 13 13 13 13 13 13 13 13 13 13 13 13 55 230 13 55 230 13 55 230 13 55 230 13 55 230 13 56 229 13 13 13 13 13 13 12 53 232 13 13 13 13 13 13 10 49 235 20 72 215 13 13 13 13 13 13 13 13 13 13 13 13 13 13 13 13 13 13 13 13 13 13 13 13 16 64 222 13 13 13 13 13 13 13 13 13 13 13 13 10 50 234 13 13 13 44 128 167 13 13 13 13 13 13 13 13 13 13 13 13 13 13 13 13 13 13 13 13 13 13 13 13 13 13 13 13 13 13 13 13 13 13 13 13 13 13 13 13 13 13 13 13 13 13 13 13 13 13 13 13 13 13 13 13 13 13 13 13 13 13 13 13 13 13 13 13 13 13 13 13 13 13 13 19 70 216 
5 38 245 13 13 13 13 13 13 13 13 13 13 13 13 13 13 13 13 13 13 13 13 13 5 38 245 13 13 13 13 13 13 5 38 245 5 38 245 5 38 245 13 13 13 5 38 245 13 13 13 13 13 13 5 38 245 13 13 13 5 38 245 13 13 13 13 13 13 7 41 242 13 13 13 5 38 245 13 13 13 5 38 245 5 38 245 5 38 244 5 38 244 5 38 245 5 38 245 5 38 245 5 38 245 5 38 245 13 13 13 7 42 241 5 38 245 5 38 245 5 38 245 5 38 245 5 38 245 5 38 245 13 13 13 13 13 13 13 13 13 5 38 244 5 38 245 5 38 245 5 38 245 5 38 245 5 38 245 5 38 245 5 38 245 5 38 245 5 38 245 5 38 245 7 41 241 9 46 238 5 38 245 5 38 245 5 38 245 5 38 245 5 38 245 7 41 242 7 41 242 12 54 231 17 66 220 10 50 234 5 38 245 13 13 13 13 13 13 6 40 242 7 42 241 7 41 242 11 52 232 14 58 227 14 58 227 9 46 237 7 42 241 13 55 230 13 55 230 13 55 230 12 54 230 13 13 13 62 170 131 10 48 236 10 48 236 13 13 13 13 13 13 13 13 13 13 13 13 11 52 233 9 47 236 10 50 234 10 48 236 11 51 233 11 51 233 11 51 233 10 50 234 13 13 13 13 13 13 13 13 13 13 13 13 10 50 234 10 50 234 11 51 233 11 52 232 11 51 233 11 51 233 14 58 227 14 58 227 13 56 229 13 56 229 13 55 230 13 55 230 11 50 234 13 13 13 13 13 13 13 55 230 12 54 230 11 51 233 10 48 235 12 53 232 13 55 230 13 55 230 11 52 232 10 49 235 10 48 236 11 52 232 13 13 13 13 13 13 14 58 227 13 56 229 13 56 229 13 13 13 13 57 228 13 55 230 13 55 230 13 13 13 13 13 13 12 52 232 13 13 13 13 55 230 13 56 229 15 60 226 13 55 230 13 55 230 13 55 230 13 56 229 14 58 227 13 55 229 13 13 13 13 13 13 13 13 13 14 59 226 13 13 13 13 13 13 13 13 13 17 66 220 13 13 13 13 13 13 23 80 208 18 68 219 15 60 225 13 13 13 13 13 13 13 13 13 20 73 215 13 13 13 13 13 13 13 13 13 13 13 13 13 13 13 13 13 13 16 64 222 13 13 13 13 13 13 13 13 13 13 13 13 13 13 13 26 87 202 13 13 13 13 13 13 13 13 13 16 62 224 13 13 13 13 13 13 13 13 13 13 13 13 13 13 13 13 13 13 20 71 216 13 13 13 13 13 13 13 13 13 13 13 13 20 73 214 21 76 212 
5 38 245 5 38 245 13 13 13 5 38 245 13 13 13 5 38 245 13 13 13 13 13 13 13 13 13 13 13 13 13 13 13 13 13 13 13 13 13 5 38 245 13 13 13 13 13 13 5 38 245 5 38 245 5 38 245 5 38 245 13 13 13 13 13 13 13 13 13 13 13 13 5 38 244 5 38 244 5 38 245 5 38 245 5 38 245 5 38 245 5 38 245 5 38 245 5 38 245 5 38 245 5 38 245 13 13 13 10 49 235 13 13 13 5 38 245 5 38 245 5 38 245 5 38 245 5 38 245 5 38 245 5 38 244 5 38 244 6 38 244 6 38 244 5 38 245 5 38 245 5 38 245 5 38 245 5 38 245 6 40 243 7 42 241 7 42 241 5 38 245 7 41 241 9 46 238 11 52 232 13 13 13 13 13 13 5 38 245 5 38 245 5 38 245 5 38 245 6 39 243 13 13 13 13 13 13 9 48 236 6 39 244 5 38 245 13 13 13 6 40 242 7 42 241 7 42 241 10 50 234 11 52 232 13 55 230 11 51 233 9 47 236 11 51 233 13 13 13 13 55 230 9 48 236 13 55 230 9 47 237 11 52 233 13 13 13 13 13 13 13 13 13 13 13 13 20 73 215 13 13 13 13 55 230 15 62 224 15 62 224 13 56 229 10 49 235 10 49 235 10 50 234 11 52 232 13 55 230 13 13 13 13 13 13 12 53 232 12 53 232 10 49 235 10 50 234 10 50 234 11 51 233 13 55 230 22 76 212 15 61 224 14 59 226 13 56 229 13 55 230 13 55 230 14 57 228 15 61 225 14 57 228 13 55 230 14 57 228 14 57 228 13 55 230 12 53 232 12 53 232 13 13 13 12 54 231 12 53 231 12 54 231 13 55 229 13 13 13 13 13 13 13 56 229 14 58 227 13 55 230 13 57 228 13 55 230 16 63 223 13 13 13 13 13 13 13 13 13 13 13 13 15 60 225 13 56 229 14 58 227 13 55 230 13 55 230 14 57 228 15 59 226 15 59 226 13 56 229 14 57 228 13 13 13 13 13 13 13 13 13 13 13 13 13 13 13 13 13 13 13 13 13 13 13 13 13 13 13 13 13 13 18 68 219 11 51 233 13 13 13 13 13 13 11 51 233 13 13 13 13 13 13 13 13 13 13 13 13 13 13 13 13 13 13 12 54 230 14 58 227 13 13 13 13 13 13 13 13 13 44 128 167 13 13 13 15 61 225 13 13 13 13 13 13 13 13 13 13 13 13 18 69 218 19 70 217 13 13 13 13 13 13 13 13 13 13 56 229 13 13 13 13 13 13 13 13 13 10 50 234 37 111 181 13 13 13 18 66 220 
5 38 245 5 38 245 5 38 245 5 38 245 5 38 245 13 13 13 13 13 13 13 13 13 5 38 245 13 13 13 13 13 13 13 13 13 13 13 13 13 13 13 13 13 13 13 13 13 5 38 245 5 38 245 13 13 13 13 13 13 5 38 245 13 13 13 13 13 13 13 13 13 5 38 244 5 38 244 13 13 13 5 38 245 5 38 245 5 38 245 5 38 245 5 38 245 5 38 245 13 13 13 13 13 13 80 205 100 13 13 13 5 38 245 13 13 13 13 13 13 5 38 245 5 38 245 5 38 245 5 38 245 5 38 245 5 38 245 6 40 243 5 38 244 5 38 245 5 38 245 5 38 245 5 38 245 5 38 245 5 38 245 13 13 13 9 47 236 13 13 13 7 42 241 9 47 237 9 47 237 13 13 13 5 38 244 5 38 245 5 38 245 5 38 245 5 38 245 6 39 243 13 13 13 13 13 13 6 39 244 5 38 245 5 38 245 13 13 13 13 13 13 5 38 245 9 47 237 12 53 231 12 53 231 13 55 230 11 52 232 10 49 234 13 13 13 13 13 13 9 48 236 9 48 236 11 51 233 11 51 233 13 13 13 13 13 13 10 48 235 10 48 236 12 52 232 13 56 228 13 55 230 13 13 13 14 58 227 22 78 210 13 13 13 13 13 13 13 13 13 7 41 241 11 52 232 13 55 230 12 54 231 13 13 13 13 13 13 13 13 13 14 58 227 13 55 230 12 54 231 13 55 230 13 55 230 22 76 212 22 76 212 13 56 229 13 56 229 13 55 230 13 55 230 15 60 226 15 62 224 15 60 226 13 13 13 13 55 230 14 57 228 13 55 230 13 55 230 13 55 230 13 55 230 13 55 230 12 54 230 12 54 230 13 13 13 13 13 13 13 56 229 13 56 229 14 58 227 13 55 230 13 55 230 13 55 230 16 63 223 17 66 221 13 55 230 13 13 13 15 60 225 15 60 225 14 59 227 14 58 227 13 56 229 13 55 230 13 56 229 13 55 229 14 57 228 13 55 229 13 55 229 10 49 235 13 13 13 13 13 13 11 50 234 42 123 171 13 13 13 13 13 13 13 13 13 13 13 13 13 13 13 13 13 13 13 13 13 13 13 13 13 13 13 13 13 13 13 13 13 26 86 203 13 13 13 21 75 213 13 13 13 11 52 233 13 13 13 13 13 13 14 59 227 13 13 13 13 13 13 13 13 13 13 13 13 13 13 13 13 13 13 13 13 13 13 13 13 34 106 186 18 69 218 18 67 219 18 67 220 13 13 13 13 13 13 13 13 13 13 13 13 13 13 13 13 13 13 13 13 13 13 13 13 13 13 13 13 13 13 
13 13 13 5 38 245 5 38 245 5 38 245 13 13 13 5 38 245 13 13 13 13 13 13 13 13 13 13 13 13 13 13 13 5 38 245 13 13 13 13 13 13 13 13 13 13 13 13 5 38 245 13 13 13 13 13 13 13 13 13 5 38 245 47 136 161 13 13 13 13 13 13 6 39 243 6 39 243 13 13 13 13 13 13 13 13 13 5 38 245 5 38 245 5 38 245 13 13 13 13 13 13 6 40 242 6 40 243 5 38 245 5 38 245 5 38 245 5 38 245 5 38 245 5 38 245 13 13 13 13 13 13 13 13 13 5 38 245 5 38 245 5 38 245 5 38 245 5 38 245 5 38 245 5 38 245 5 38 245 5 38 245 13 13 13 13 13 13 5 38 245 5 38 245 9 47 236 13 13 13 9 46 237 6 39 243 5 38 244 5 38 245 5 38 245 5 38 245 6 39 243 13 13 13 13 13 13 9 48 236 6 39 244 9 46 237 13 13 13 13 13 13 13 13 13 11 50 234 12 53 231 13 13 13 13 13 13 11 52 232 13 13 13 13 13 13 13 13 13 11 52 232 11 52 232 13 55 230 13 55 230 13 55 230 10 48 235 9 47 237 9 47 237 14 58 227 13 55 230 13 13 13 13 13 13 13 13 13 13 13 13 12 55 230 9 47 237 9 47 236 13 13 13 13 13 13 13 13 13 11 51 233 11 52 232 13 13 13 13 13 13 15 61 224 14 58 227 13 55 230 13 55 230 13 55 230 16 63 223 15 61 224 14 59 226 14 58 227 13 55 230 15 62 224 15 61 225 15 61 225 15 60 226 13 55 230 13 55 229 14 59 226 13 55 230 13 55 230 13 55 230 13 56 229 13 55 230 13 55 230 13 13 13 13 13 13 13 13 13 13 13 13 15 61 224 13 55 229 13 55 230 13 55 230 16 62 223 18 68 218 17 66 221 14 59 226 13 55 230 13 55 230 13 55 230 20 72 215 13 13 13 13 13 13 13 55 230 13 56 229 13 56 229 14 57 228 13 13 13 13 13 13 13 13 13 13 13 13 13 13 13 13 13 13 19 70 217 18 67 219 13 13 13 22 76 212 13 13 13 13 13 13 13 13 13 13 13 13 13 13 13 13 13 13 13 13 13 13 13 13 13 13 13 28 91 199 13 13 13 13 13 13 13 13 13 13 13 13 13 13 13 13 13 13 13 13 13 13 13 13 13 13 13 13 13 13 13 13 13 13 13 13 13 13 13 13 13 13 13 13 13 16 62 224 13 13 13 13 13 13 13 13 13 13 13 13 13 13 13 13 13 13 13 13 13 13 13 13 13 13 13 13 13 13 13 13 13 40 120 174 
73 196 109 5 38 245 13 13 13 13 13 13 13 13 13 13 13 13 13 13 13 13 13 13 13 13 13 13 13 13 5 38 245 13 13 13 13 13 13 13 13 13 5 38 245 5 38 245 13 13 13 5 38 245 13 13 13 13 13 13 13 13 13 13 13 13 13 13 13 13 13 13 13 13 13 7 41 241 13 13 13 13 13 13 13 13 13 5 38 245 10 48 236 13 13 13 13 13 13 6 40 243 5 38 245 7 41 241 5 38 245 5 38 245 5 38 245 5 38 245 5 38 245 13 13 13 5 38 245 13 13 13 13 13 13 5 38 245 5 38 245 5 38 245 13 13 13 13 13 13 5 38 245 5 38 245 5 38 245 13 13 13 7 42 241 5 38 245 5 38 245 7 42 241 7 42 241 8 44 239 7 41 242 6 39 243 5 38 244 5 38 245 7 41 241 7 43 240 7 43 240 17 65 221 14 57 228 13 13 13 13 13 13 13 13 13 13 56 229 13 13 13 13 13 13 13 13 13 13 13 13 13 13 13 13 55 230 13 55 230 13 13 13 13 13 13 13 13 13 13 55 230 13 55 230 18 68 219 13 13 13 13 55 230 11 51 233 9 47 237 13 55 230 13 55 230 13 56 228 13 55 230 14 58 227 15 61 224 14 58 227 10 49 235 10 48 236 9 47 236 13 13 13 13 13 13 9 46 238 13 13 13 13 57 228 13 55 229 14 58 227 13 57 228 13 55 230 13 55 230 13 55 230 13 55 230 13 55 230 14 57 228 14 59 226 14 57 228 13 55 230 14 59 227 15 61 225 13 55 230 13 55 230 13 55 230 13 55 230 13 55 230 13 55 230 13 55 230 13 55 230 13 57 228 13 13 13 13 13 13 13 13 13 13 13 13 13 13 13 13 13 13 13 13 13 13 55 229 13 55 230 14 59 226 19 71 216 19 71 216 13 13 13 13 13 13 13 55 230 13 55 230 16 63 222 13 13 13 13 13 13 13 13 13 13 13 13 13 13 13 12 54 230 13 13 13 13 13 13 13 13 13 13 13 13 13 13 13 29 93 197 13 13 13 13 13 13 20 73 215 21 74 213 13 13 13 13 13 13 13 13 13 13 13 13 21 75 213 13 13 13 13 13 13 13 13 13 13 13 13 13 13 13 13 13 13 13 13 13 13 13 13 13 13 13 13 13 13 13 13 13 13 13 13 13 13 13 13 13 13 13 13 13 13 13 13 13 13 13 26 85 204 37 112 181 13 13 13 13 13 13 13 13 13 13 13 13 13 13 13 13 13 13 13 13 13 13 13 13 13 13 13 13 13 13 13 13 13 13 13 13 13 13 13 13 13 13 38 114 179 
5 38 245 5 38 245 13 13 13 13 13 13 13 13 13 13 13 13 5 38 245 13 13 13 13 13 13 13 13 13 13 13 13 5 38 245 13 13 13 5 38 245 5 38 245 5 38 245 13 13 13 13 13 13 13 13 13 13 13 13 13 13 13 13 13 13 13 13 13 13 13 13 13 13 13 13 13 13 13 13 13 13 13 13 13 13 13 13 13 13 6 40 243 7 42 241 13 13 13 13 13 13 13 13 13 5 38 245 5 38 245 5 38 245 5 38 245 5 38 245 12 53 232 13 13 13 13 13 13 13 13 13 13 55 230 7 41 242 5 38 245 5 38 245 13 13 13 5 38 245 5 38 245 5 38 245 5 38 245 9 46 238 5 38 245 5 38 245 5 38 244 49 140 157 13 13 13 13 13 13 7 41 242 10 48 236 13 13 13 13 13 13 16 63 223 8 44 239 34 104 187 13 13 13 21 73 214 13 13 13 13 13 13 13 55 230 13 13 13 13 13 13 13 55 230 13 13 13 13 13 13 13 13 13 13 55 230 13 55 230 9 46 237 13 13 13 13 13 13 13 55 230 13 13 13 13 13 13 13 55 230 13 13 13 13 55 230 11 52 233 10 48 236 13 55 230 13 55 230 13 55 230 14 58 227 14 58 227 14 58 227 12 54 230 10 49 235 10 49 235 12 53 231 11 52 232 13 13 13 13 13 13 13 55 230 13 57 228 12 54 231 10 49 235 13 13 13 12 54 231 12 54 231 13 55 230 13 55 230 13 55 230 14 58 227 14 57 228 15 61 224 15 61 225 15 61 225 13 55 230 13 55 230 12 54 231 13 55 230 11 52 233 13 55 230 13 56 229 14 57 228 14 59 227 14 59 226 13 13 13 13 13 13 12 53 232 13 13 13 15 62 224 11 51 233 13 55 230 13 55 229 16 63 223 19 71 216 19 69 217 13 13 13 13 13 13 13 55 230 13 55 230 17 65 221 15 61 225 13 55 230 13 13 13 13 13 13 13 13 13 13 13 13 36 109 184 13 13 13 13 13 13 13 13 13 13 13 13 13 13 13 13 13 13 15 60 225 13 13 13 13 13 13 36 109 183 19 70 217 13 13 13 13 13 13 13 13 13 15 60 225 13 13 13 13 13 13 13 13 13 13 13 13 25 83 206 13 13 13 13 13 13 13 13 13 13 13 13 13 13 13 13 13 13 13 13 13 13 13 13 13 13 13 29 92 198 25 83 206 13 13 13 13 13 13 13 55 229 13 13 13 13 13 13 13 13 13 13 13 13 13 13 13 13 13 13 13 13 13 13 13 13 13 13 13 13 13 13 27 89 200 13 13 13 13 13 13 22 78 210 
5 38 245 13 13 13 13 13 13 5 38 245 13 13 13 5 38 245 13 13 13 13 13 13 13 13 13 13 13 13 5 38 245 13 13 13 13 13 13 5 38 245 5 38 245 5 38 245 13 13 13 13 13 13 13 13 13 13 13 13 13 13 13 13 13 13 13 13 13 5 38 245 5 38 244 51 145 153 13 13 13 13 13 13 13 13 13 13 13 13 13 13 13 5 38 245 13 13 13 13 13 13 13 13 13 13 13 13 5 38 245 5 38 245 5 38 245 20 73 215 13 13 13 13 13 13 13 13 13 13 13 13 13 13 13 10 49 235 13 13 13 13 13 13 5 38 245 5 38 245 5 38 245 5 38 245 5 38 245 5 38 245 5 38 245 5 38 245 9 46 237 5 38 244 13 13 13 13 13 13 13 13 13 13 13 13 6 39 244 8 45 239 10 50 234 13 56 229 13 13 13 13 13 13 13 13 13 12 53 232 12 54 231 13 13 13 13 13 13 13 13 13 13 13 13 9 47 237 13 13 13 13 55 230 13 55 230 13 55 230 13 13 13 13 13 13 11 51 233 11 51 233 13 13 13 13 13 13 13 13 13 13 13 13 16 64 222 11 52 233 13 55 230 13 55 230 13 55 230 14 57 228 14 57 228 13 55 230 13 55 230 12 54 230 13 55 230 13 55 230 14 58 227 14 58 227 13 13 13 13 55 230 13 55 230 13 55 230 13 55 230 13 57 228 12 54 230 13 55 230 12 54 231 9 47 236 11 51 233 13 55 230 13 56 229 14 58 227 15 61 224 14 57 228 14 57 228 13 55 230 13 55 230 12 53 231 11 51 233 10 48 235 13 55 230 13 56 229 14 57 228 15 60 226 15 60 226 15 60 226 13 56 229 13 13 13 12 53 232 13 13 13 13 56 229 14 58 227 13 55 230 13 55 230 14 59 226 16 63 222 13 56 229 13 56 229 16 63 223 16 63 223 18 68 219 13 56 229 13 56 229 17 65 221 19 69 218 13 13 13 13 13 13 13 13 13 13 13 13 13 13 13 13 13 13 13 13 13 13 13 13 13 13 13 13 55 229 13 13 13 13 13 13 13 13 13 13 13 13 13 13 13 13 13 13 13 13 13 13 13 13 13 13 13 13 13 13 13 13 13 13 13 13 13 13 13 13 13 13 13 13 13 13 13 13 78 204 101 13 13 13 29 93 198 13 13 13 38 115 178 13 13 13 13 13 13 13 13 13 13 13 13 13 13 13 13 13 13 13 13 13 13 13 13 13 13 13 13 13 13 13 13 13 13 13 13 26 86 203 13 13 13 13 13 13 13 13 13 13 13 13 13 13 13 13 13 13 25 84 205 
5 38 245 13 13 13 13 13 13 13 13 13 5 38 245 13 13 13 13 13 13 13 13 13 5 38 245 13 13 13 13 13 13 13 13 13 13 13 13 13 13 13 5 38 245 13 13 13 5 38 245 13 13 13 5 38 245 13 13 13 13 13 13 13 13 13 13 13 13 5 38 245 5 38 244 5 38 244 13 13 13 13 13 13 13 13 13 13 13 13 5 38 245 13 13 13 13 13 13 13 13 13 13 13 13 13 13 13 13 13 13 5 38 245 5 38 245 13 13 13 13 13 13 13 13 13 13 13 13 13 13 13 13 13 13 40 119 175 13 13 13 13 13 13 13 13 13 7 41 242 6 39 243 5 38 245 13 13 13 13 13 13 5 38 245 13 13 13 13 13 13 17 65 222 13 13 13 13 13 13 13 13 13 13 13 13 8 45 239 7 42 241 13 56 229 13 13 13 13 55 230 13 13 13 13 13 13 13 13 13 7 42 241 24 81 208 13 13 13 15 61 224 13 13 13 13 55 230 13 55 230 13 55 230 13 55 230 13 55 230 13 13 13 13 55 230 13 55 230 12 54 230 12 54 231 10 50 234 13 13 13 13 13 13 13 13 13 10 48 236 11 52 233 13 55 230 13 57 228 13 55 230 14 57 228 14 57 228 15 62 224 18 68 219 13 55 230 18 68 219 19 69 217 13 13 13 13 55 230 13 55 230 13 55 230 13 55 230 14 57 228 13 13 13 49 140 156 13 55 230 13 55 230 13 55 230 13 56 229 13 55 230 13 55 230 14 58 227 15 61 224 14 57 228 14 57 228 13 55 230 13 55 230 13 55 230 11 52 233 14 58 227 18 67 220 18 68 218 14 58 227 15 61 224 14 59 227 15 60 225 12 53 232 12 53 232 11 50 234 10 48 236 17 64 222 14 58 227 13 55 230 13 55 230 13 55 230 14 58 227 13 56 229 13 56 229 16 63 223 16 63 223 13 13 13 13 13 13 17 65 221 17 65 221 18 67 219 17 66 220 13 13 13 13 13 13 13 13 13 12 54 231 13 13 13 13 13 13 13 13 13 13 13 13 13 13 13 13 13 13 13 13 13 13 13 13 13 13 13 13 13 13 26 86 204 13 13 13 20 72 216 13 13 13 29 94 197 13 13 13 13 13 13 13 13 13 13 13 13 13 13 13 13 13 13 13 13 13 13 13 13 13 13 13 13 13 13 42 123 172 13 13 13 13 13 13 13 13 13 13 13 13 13 13 13 13 13 13 13 13 13 16 62 224 13 13 13 13 13 13 13 13 13 13 13 13 13 13 13 13 13 13 13 13 13 13 56 229 13 13 13 13 13 13 13 13 13 18 66 220 
5 38 245 13 13 13 13 13 13 13 13 13 13 13 13 13 13 13 13 13 13 11 51 233 13 13 13 13 13 13 13 13 13 13 13 13 13 13 13 13 13 13 13 13 13 13 13 13 13 13 13 13 13 13 13 13 13 13 13 13 13 13 13 13 13 13 27 90 200 13 13 13 13 13 13 13 13 13 13 13 13 13 13 13 5 38 245 13 13 13 13 13 13 13 13 13 5 38 245 13 13 13 9 47 237 13 13 13 13 13 13 13 13 13 13 13 13 13 13 13 13 13 13 13 13 13 13 13 13 13 13 13 13 13 13 13 13 13 13 13 13 13 55 230 13 13 13 13 13 13 13 13 13 13 55 229 13 13 13 13 13 13 13 13 13 13 13 13 13 13 13 13 13 13 13 13 13 13 13 13 13 13 13 13 13 13 13 13 13 7 43 240 8 45 238 10 49 235 13 13 13 13 13 13 13 13 13 13 13 13 13 13 13 13 13 13 13 13 13 13 13 13 13 55 230 13 55 230 13 55 230 13 55 230 13 55 230 13 55 230 13 55 230 13 56 229 13 55 230 13 55 230 12 54 231 13 55 230 13 13 13 13 13 13 13 13 13 16 62 223 13 57 228 13 55 229 13 56 229 13 56 229 13 56 229 14 57 228 27 88 201 13 13 13 23 80 208 13 55 230 13 55 230 14 58 227 13 13 13 13 13 13 15 61 224 15 61 224 15 60 226 15 61 224 15 61 224 15 61 224 15 61 225 16 62 223 13 13 13 13 55 230 13 13 13 15 61 225 17 66 220 14 59 226 14 59 226 13 55 230 13 55 230 13 55 230 13 13 13 13 13 13 18 68 218 18 67 220 13 55 230 14 58 227 14 58 227 15 61 224 12 54 231 14 58 227 15 61 224 16 62 224 17 65 221 15 61 224 15 61 224 14 58 227 13 55 230 15 61 225 14 57 228 15 61 224 16 62 224 13 13 13 13 13 13 13 13 13 15 61 224 14 58 227 16 64 222 16 63 223 13 13 13 13 13 13 13 13 13 13 13 13 17 64 222 13 13 13 13 13 13 13 13 13 19 69 217 13 13 13 13 13 13 13 13 13 13 13 13 13 13 13 21 73 214 18 66 220 15 61 225 24 83 206 13 13 13 13 13 13 13 13 13 13 13 13 13 13 13 13 13 13 15 60 225 27 89 200 13 13 13 13 13 13 13 13 13 13 13 13 13 13 13 13 13 13 13 13 13 13 13 13 15 61 225 13 13 13 13 13 13 13 13 13 13 13 13 33 103 189 13 13 13 13 13 13 13 13 13 13 13 13 13 13 13 13 13 13 13 13 13 13 13 13 13 13 13 35 107 185 
5 38 245 13 13 13 13 13 13 13 13 13 13 13 13 13 13 13 13 13 13 13 13 13 5 38 245 13 13 13 5 38 245 13 13 13 13 13 13 13 13 13 13 13 13 13 13 13 13 13 13 13 13 13 13 13 13 13 13 13 13 13 13 5 38 245 13 13 13 13 13 13 13 13 13 13 13 13 13 13 13 13 13 13 13 13 13 13 13 13 13 13 13 13 13 13 13 13 13 13 13 13 13 13 13 5 38 245 13 13 13 13 13 13 13 13 13 13 13 13 13 13 13 13 13 13 13 13 13 13 13 13 13 13 13 39 117 177 13 13 13 13 13 13 13 13 13 13 13 13 13 13 13 13 13 13 13 13 13 13 13 13 5 38 245 13 13 13 13 13 13 13 55 230 13 13 13 13 13 13 13 13 13 13 13 13 13 13 13 7 41 242 13 13 13 13 13 13 13 13 13 13 13 13 13 13 13 13 13 13 13 55 230 13 13 13 13 13 13 13 13 13 13 13 13 9 47 237 13 13 13 13 13 13 13 56 229 13 13 13 13 13 13 13 56 228 15 61 224 15 61 224 13 55 230 12 54 230 13 13 13 13 13 13 15 61 224 16 62 223 15 60 225 13 57 228 14 58 227 14 59 226 14 58 227 16 63 223 16 63 223 20 72 215 13 13 13 13 55 230 13 55 230 15 61 224 13 13 13 16 63 223 15 61 224 15 61 224 15 61 225 15 61 224 15 61 224 15 61 224 15 62 224 17 66 220 13 13 13 13 13 13 13 13 13 17 66 220 14 58 227 52 147 150 13 13 13 13 13 13 13 13 13 13 55 230 13 55 230 16 62 223 24 81 207 19 70 217 13 55 229 13 13 13 13 13 13 13 13 13 12 53 231 14 58 227 16 62 224 16 63 223 19 70 217 15 61 224 15 61 224 15 61 224 15 61 224 15 61 224 14 59 226 15 61 224 15 61 224 13 13 13 13 13 13 17 65 221 15 61 224 15 61 224 16 62 224 13 13 13 13 13 13 13 13 13 13 13 13 13 13 13 13 13 13 13 13 13 13 13 13 20 72 215 13 13 13 16 64 222 13 13 13 13 13 13 13 13 13 28 90 200 21 76 212 9 46 237 13 13 13 13 13 13 35 107 185 13 13 13 21 75 212 16 64 222 13 13 13 13 13 13 13 13 13 13 13 13 13 13 13 13 13 13 13 13 13 13 13 13 13 13 13 13 13 13 13 13 13 13 13 13 16 64 222 13 13 13 13 13 13 13 13 13 13 13 13 13 13 13 13 13 13 13 13 13 21 75 213 13 13 13 13 13 13 13 13 13 13 13 13 13 13 13 13 13 13 26 85 204 
13 13 13 13 13 13 13 13 13 13 13 13 13 13 13 13 13 13 13 13 13 13 13 13 13 13 13 13 13 13 13 13 13 8 44 239 107 213 85 13 13 13 13 13 13 13 13 13 13 13 13 13 13 13 13 13 13 13 13 13 13 13 13 13 13 13 13 13 13 13 13 13 13 13 13 13 13 13 13 13 13 13 13 13 5 38 245 13 13 13 13 13 13 13 13 13 13 13 13 13 13 13 5 38 245 13 13 13 13 13 13 13 13 13 13 13 13 13 13 13 13 13 13 13 13 13 13 13 13 13 13 13 13 13 13 13 13 13 13 13 13 5 38 245 7 41 242 13 13 13 13 13 13 7 42 241 5 38 245 13 13 13 13 13 13 13 13 13 13 13 13 13 13 13 13 55 230 9 47 236 13 13 13 18 68 218 13 55 230 13 13 13 13 13 13 15 60 225 20 72 215 13 13 13 13 13 13 13 13 13 11 51 233 13 13 13 13 13 13 18 67 220 11 51 233 13 13 13 13 13 13 13 13 13 13 13 13 13 13 13 10 48 235 13 56 228 14 57 228 15 61 224 13 13 13 13 55 230 13 55 230 15 61 224 18 68 218 14 58 227 14 59 227 13 56 229 14 59 227 13 13 13 42 125 170 21 74 214 14 59 226 15 61 225 15 61 225 14 57 228 13 55 230 13 55 230 13 13 13 13 13 13 20 72 215 18 67 220 15 61 224 15 61 224 15 61 224 15 61 224 15 61 225 13 13 13 18 67 219 13 13 13 13 13 13 15 60 226 15 61 224 12 54 230 13 13 13 13 13 13 19 70 217 13 55 230 13 55 230 13 55 230 32 99 192 21 74 213 13 13 13 13 13 13 13 13 13 13 13 13 13 13 13 14 58 227 15 62 224 15 61 224 15 61 224 15 61 224 15 61 224 15 61 224 16 63 223 16 63 223 16 62 224 16 62 224 13 13 13 17 65 221 21 74 214 17 65 221 15 61 224 15 61 224 13 13 13 13 13 13 22 76 211 13 13 13 13 13 13 13 13 13 13 13 13 30 95 196 13 13 13 13 13 13 13 13 13 13 13 13 18 68 218 13 13 13 13 13 13 13 13 13 45 130 166 13 13 13 13 13 13 13 13 13 13 13 13 21 75 212 13 13 13 13 13 13 13 13 13 13 13 13 13 13 13 13 13 13 13 13 13 13 13 13 13 13 13 30 95 196 13 13 13 13 13 13 13 13 13 13 13 13 13 13 13 13 13 13 13 13 13 13 13 13 30 95 196 13 13 13 13 13 13 23 79 209 21 75 212 21 75 212 13 55 230 13 13 13 13 13 13 13 13 13 24 83 206 17 65 222 
13 13 13 13 13 13 13 13 13 13 13 13 13 13 13 13 13 13 5 38 245 13 13 13 13 13 13 13 13 13 13 13 13 9 47 237 7 41 241 13 13 13 13 13 13 13 13 13 13 13 13 13 13 13 13 13 13 13 13 13 13 13 13 13 13 13 13 13 13 13 13 13 13 13 13 13 13 13 13 13 13 13 13 13 13 13 13 13 13 13 13 13 13 13 13 13 13 13 13 13 13 13 13 13 13 13 13 13 13 13 13 13 13 13 13 13 13 13 13 13 13 13 13 13 13 13 13 13 13 13 13 13 13 13 13 13 13 13 13 13 13 13 13 13 9 46 238 13 13 13 13 13 13 13 13 13 13 13 13 13 13 13 13 13 13 13 13 13 13 13 13 13 13 13 13 13 13 13 55 230 13 55 230 13 55 230 13 13 13 13 13 13 13 55 230 13 13 13 12 54 231 9 47 236 9 47 237 13 13 13 13 13 13 13 13 13 13 13 13 13 13 13 13 55 230 9 47 237 13 13 13 13 13 13 13 55 230 13 13 13 13 13 13 14 57 228 15 61 224 15 61 224 13 55 230 13 55 230 13 55 230 15 61 224 15 59 226 13 55 230 13 56 229 15 61 224 15 62 224 16 62 224 13 13 13 21 74 214 14 59 226 14 57 228 14 57 228 13 55 230 13 55 230 13 55 230 13 13 13 18 68 219 18 68 219 18 68 219 15 61 225 15 62 224 15 61 224 15 62 224 16 62 224 16 63 223 16 62 224 14 58 227 13 55 230 14 58 227 14 57 228 15 61 224 14 59 226 18 68 219 26 87 202 19 70 217 13 55 230 13 13 13 13 13 13 13 13 13 13 13 13 13 13 13 94 209 92 13 13 13 13 55 230 13 13 13 13 13 13 15 61 224 13 55 230 15 61 224 13 13 13 13 56 229 19 70 217 19 70 217 21 75 213 13 13 13 13 13 13 22 76 211 22 77 211 20 73 215 15 61 224 15 61 224 16 64 222 13 13 13 13 13 13 13 13 13 13 13 13 13 13 13 13 13 13 13 13 13 13 13 13 13 13 13 16 63 223 13 13 13 13 13 13 13 13 13 13 13 13 13 13 13 72 194 110 62 169 132 13 13 13 13 13 13 13 56 229 13 13 13 13 13 13 13 13 13 13 13 13 13 13 13 13 13 13 15 61 225 15 61 225 13 13 13 13 13 13 13 13 13 13 13 13 20 71 216 40 118 175 13 13 13 13 13 13 13 13 13 13 13 13 27 89 200 30 95 196 13 55 229 13 13 13 20 72 215 23 79 209 23 79 209 13 13 13 13 13 13 13 13 13 26 85 204 23 80 208 23 80 208 
6 39 244 13 13 13 13 13 13 13 13 13 13 13 13 13 13 13 13 13 13 9 47 236 13 13 13 13 13 13 13 13 13 13 13 13 13 13 13 13 13 13 13 13 13 13 13 13 13 13 13 13 13 13 13 13 13 13 13 13 13 13 13 13 13 13 13 13 13 13 13 13 13 13 13 13 13 13 13 13 13 13 13 13 13 13 13 13 13 13 13 13 13 13 13 13 13 13 13 13 13 13 13 13 13 13 13 13 13 13 13 13 13 13 13 13 13 9 47 237 13 13 13 13 13 13 13 13 13 13 13 13 13 13 13 13 13 13 13 13 13 13 13 13 13 13 13 13 13 13 13 13 13 13 13 13 13 13 13 13 13 13 13 13 13 13 13 13 13 13 13 13 13 13 13 13 13 12 53 231 12 54 230 12 53 231 12 53 231 13 55 230 13 13 13 13 55 230 11 51 233 11 51 233 9 47 236 14 58 227 13 13 13 13 55 230 13 13 13 59 163 137 11 52 232 10 49 235 13 13 13 14 58 227 13 57 228 14 59 226 13 13 13 13 56 229 13 56 229 14 57 228 14 58 227 13 56 229 15 61 224 15 61 224 15 61 224 15 59 226 13 56 229 14 58 227 14 58 227 13 55 230 13 13 13 13 13 13 15 59 226 13 55 230 13 57 228 13 57 228 14 59 226 20 72 215 13 55 229 16 63 223 16 63 223 16 63 223 15 61 225 16 62 224 15 61 224 18 68 218 21 74 213 16 62 224 14 58 227 13 55 230 13 55 230 15 61 224 15 61 224 16 63 223 17 66 221 15 61 224 24 83 206 24 81 207 13 13 13 13 13 13 13 13 13 18 67 220 13 13 13 19 69 217 13 56 229 14 58 227 13 13 13 13 56 228 13 13 13 14 58 227 15 61 224 13 13 13 13 13 13 13 13 13 19 70 217 21 75 212 23 80 208 13 13 13 13 13 13 37 112 181 22 76 211 19 69 218 15 61 224 16 63 223 17 64 222 13 13 13 13 13 13 13 13 13 13 13 13 13 13 13 13 13 13 14 57 228 13 13 13 13 13 13 13 13 13 13 13 13 13 13 13 13 13 13 13 13 13 178 233 44 17 65 221 13 13 13 13 13 13 13 13 13 13 13 13 29 93 197 13 13 13 13 13 13 31 99 192 13 13 13 13 13 13 13 13 13 13 13 13 13 13 13 30 97 194 29 92 198 13 13 13 13 13 13 13 13 13 13 13 13 13 13 13 13 13 13 13 13 13 13 13 13 30 95 196 13 13 13 13 13 13 13 13 13 13 13 13 13 13 13 13 13 13 13 13 13 16 62 224 13 13 13 25 83 206 69 186 117 
13 13 13 13 13 13 13 13 13 13 13 13 13 13 13 13 13 13 13 13 13 13 13 13 13 13 13 13 13 13 13 13 13 13 13 13 13 13 13 13 13 13 5 38 245 13 13 13 13 13 13 13 13 13 13 13 13 13 13 13 13 13 13 13 13 13 13 13 13 13 13 13 13 13 13 13 13 13 13 13 13 13 13 13 13 13 13 13 13 13 13 13 13 13 13 13 13 13 13 13 13 13 13 13 13 13 13 13 13 13 13 13 13 13 13 13 13 13 13 13 13 13 13 13 13 13 13 13 13 13 13 13 13 13 13 13 13 13 13 13 13 13 13 13 13 13 13 13 13 13 16 62 224 13 13 13 13 13 13 13 13 13 13 55 230 13 13 13 13 13 13 13 13 13 11 51 233 11 52 232 9 47 237 12 53 231 13 55 230 12 54 231 15 61 224 13 55 230 11 51 233 14 58 227 46 132 163 13 13 13 13 55 230 13 13 13 14 58 227 13 13 13 11 52 232 13 13 13 13 55 230 13 13 13 13 57 228 13 13 13 13 13 13 13 13 13 9 47 237 15 60 226 13 13 13 13 13 13 13 13 13 15 61 224 15 61 224 15 61 224 14 58 227 14 58 227 13 55 230 14 58 227 14 58 227 14 58 227 13 13 13 13 55 230 13 55 230 13 55 230 14 59 226 13 13 13 13 13 13 16 63 223 16 62 224 16 62 224 15 62 224 18 68 219 18 68 219 13 13 13 16 63 223 15 61 224 13 55 230 13 55 230 13 13 13 13 13 13 15 60 225 17 64 222 16 63 222 13 13 13 20 71 216 24 81 207 24 81 207 13 13 13 13 13 13 20 72 215 22 77 210 15 61 224 15 61 224 15 60 225 14 58 227 14 59 226 11 51 233 13 13 13 76 204 102 13 13 13 13 13 13 18 67 219 13 13 13 18 67 219 18 67 219 13 13 13 13 13 13 13 13 13 13 13 13 13 13 13 15 61 224 17 64 222 13 13 13 13 13 13 13 13 13 13 13 13 13 13 13 13 13 13 13 13 13 13 13 13 24 82 206 14 58 227 13 13 13 13 13 13 13 13 13 13 13 13 30 96 195 13 13 13 13 13 13 13 13 13 19 71 216 13 13 13 13 13 13 13 13 13 32 99 192 13 13 13 13 13 13 13 13 13 28 91 199 13 13 13 13 13 13 13 13 13 13 13 13 26 86 203 13 13 13 13 13 13 13 13 13 13 13 13 13 13 13 13 13 13 13 13 13 48 136 160 13 13 13 13 13 13 13 13 13 13 13 13 13 13 13 13 13 13 13 13 13 13 13 13 13 13 13 13 13 13 26 85 204 25 83 206 
13 13 13 13 13 13 13 13 13 13 13 13 13 13 13 13 13 13 13 13 13 13 13 13 13 13 13 13 13 13 6 39 243 13 13 13 13 13 13 13 13 13 13 13 13 13 13 13 13 13 13 9 46 237 5 38 245 13 13 13 13 13 13 13 13 13 13 13 13 13 13 13 13 13 13 13 13 13 13 13 13 27 88 201 13 13 13 13 13 13 13 13 13 13 13 13 13 13 13 13 13 13 13 13 13 13 13 13 13 13 13 13 13 13 13 13 13 13 13 13 13 13 13 13 13 13 13 13 13 13 55 230 13 13 13 13 13 13 13 13 13 13 13 13 13 13 13 13 13 13 19 69 218 13 13 13 13 13 13 13 13 13 13 13 13 13 13 13 13 13 13 13 13 13 13 13 13 13 13 13 13 13 13 13 13 13 9 47 237 13 13 13 13 13 13 13 55 230 13 13 13 13 13 13 13 13 13 13 13 13 14 58 227 15 61 224 15 61 224 7 41 242 13 55 230 13 55 230 13 13 13 13 55 230 13 13 13 13 13 13 16 64 222 13 13 13 13 13 13 13 57 228 15 61 224 13 13 13 13 13 13 14 58 227 15 61 224 15 61 224 15 60 226 13 56 229 11 52 233 12 53 231 15 60 226 14 58 227 13 55 230 13 13 13 13 55 230 13 57 228 13 57 228 13 13 13 13 13 13 13 13 13 14 58 227 15 61 224 15 61 224 15 61 224 15 61 224 15 61 224 18 67 220 18 67 220 13 55 230 13 13 13 13 13 13 13 13 13 13 13 13 16 63 223 13 13 13 20 71 216 17 65 221 14 57 228 14 57 228 13 13 13 13 55 230 21 74 213 13 13 13 13 13 13 15 61 224 15 61 225 15 60 225 13 13 13 13 13 13 13 13 13 15 61 224 13 13 13 13 13 13 15 60 225 15 60 225 16 63 223 13 13 13 10 50 234 13 13 13 13 13 13 13 13 13 13 13 13 13 13 13 13 13 13 13 13 13 10 48 236 13 13 13 13 13 13 28 91 199 13 57 228 13 13 13 13 13 13 13 13 13 13 13 13 32 99 192 13 13 13 13 13 13 13 13 13 13 13 13 13 13 13 13 13 13 13 13 13 12 54 230 13 13 13 13 13 13 22 76 211 13 13 13 13 13 13 13 13 13 13 13 13 13 13 13 13 13 13 38 115 178 13 13 13 13 13 13 13 13 13 13 13 13 13 13 13 18 68 218 13 13 13 13 13 13 13 13 13 13 13 13 13 13 13 13 13 13 13 13 13 13 13 13 13 13 13 13 13 13 20 71 216 18 67 219 13 13 13 13 13 13 13 13 13 26 86 203 26 87 202 
13 13 13 13 13 13 13 13 13 5 38 245 13 13 13 13 13 13 13 13 13 13 13 13 13 13 13 13 13 13 13 13 13 13 13 13 13 13 13 13 13 13 13 13 13 13 13 13 13 13 13 13 13 13 13 13 13 13 13 13 13 13 13 13 13 13 13 13 13 13 13 13 13 13 13 13 13 13 13 13 13 13 13 13 9 47 236 13 13 13 13 13 13 13 13 13 10 48 236 13 13 13 13 13 13 13 13 13 13 13 13 13 13 13 13 55 230 13 13 13 13 55 230 27 88 202 13 13 13 13 13 13 13 13 13 13 13 13 13 13 13 13 55 230 13 13 13 13 13 13 13 13 13 13 13 13 13 13 13 50 141 156 13 13 13 13 13 13 13 13 13 13 13 13 13 13 13 13 13 13 13 13 13 13 13 13 13 13 13 13 13 13 13 13 13 13 13 13 13 13 13 13 13 13 13 13 13 10 49 235 13 13 13 15 61 224 15 61 224 47 136 160 13 55 230 13 55 230 13 55 230 13 13 13 13 13 13 13 13 13 13 13 13 15 60 226 13 13 13 14 58 227 11 52 232 13 13 13 13 13 13 13 55 230 13 55 230 13 56 229 14 57 228 13 13 13 13 55 230 13 57 228 14 59 226 14 58 227 13 55 230 13 13 13 13 13 13 13 13 13 14 58 227 13 55 230 16 62 224 14 58 227 15 61 224 15 62 224 15 62 224 15 61 224 15 61 224 15 61 224 15 61 224 18 67 220 13 13 13 13 13 13 13 13 13 13 13 13 13 57 228 15 61 224 17 64 222 13 13 13 20 73 214 17 65 221 13 13 13 13 13 13 13 13 13 19 71 216 13 13 13 13 13 13 13 13 13 13 13 13 13 13 13 13 13 13 13 13 13 13 13 13 13 13 13 35 106 186 13 13 13 15 59 226 15 61 224 13 13 13 21 74 213 13 13 13 13 13 13 13 13 13 13 13 13 15 61 224 13 13 13 13 13 13 19 71 216 13 13 13 13 13 13 13 13 13 13 56 229 13 13 13 13 13 13 13 13 13 13 13 13 13 13 13 13 13 13 13 13 13 13 13 13 13 13 13 13 13 13 13 13 13 13 13 13 13 13 13 26 87 202 13 13 13 13 13 13 13 13 13 26 87 202 13 13 13 13 13 13 13 13 13 13 13 13 13 13 13 13 13 13 13 13 13 31 99 192 24 81 207 13 13 13 13 13 13 13 13 13 13 13 13 13 13 13 25 84 205 13 13 13 13 13 13 13 13 13 13 13 13 13 13 13 13 13 13 175 232 46 19 70 217 19 70 217 13 13 13 13 13 13 13 13 13 26 87 202 25 85 204 
13 13 13 13 13 13 13 13 13 13 13 13 13 13 13 13 13 13 13 13 13 13 13 13 13 13 13 13 13 13 13 13 13 13 13 13 13 13 13 13 13 13 13 13 13 13 13 13 13 13 13 19 70 217 13 13 13 13 13 13 13 13 13 13 13 13 13 13 13 13 13 13 13 13 13 13 13 13 13 13 13 13 13 13 13 13 13 13 13 13 13 13 13 13 13 13 13 13 13 13 13 13 13 13 13 13 13 13 13 13 13 13 13 13 9 47 237 12 54 230 13 13 13 13 13 13 13 13 13 13 13 13 13 13 13 9 46 237 13 13 13 13 13 13 13 13 13 142 223 65 13 13 13 13 13 13 13 13 13 13 13 13 13 55 230 13 13 13 13 13 13 13 13 13 13 13 13 13 13 13 13 13 13 13 13 13 13 55 230 13 13 13 13 13 13 13 13 13 13 13 13 13 13 13 13 55 230 13 13 13 15 61 224 13 13 13 13 13 13 13 13 13 13 13 13 13 13 13 12 55 230 14 58 227 13 13 13 13 13 13 13 13 13 13 13 13 13 55 230 13 13 13 13 13 13 13 13 13 13 13 13 13 55 230 13 55 230 13 56 229 14 59 226 14 58 227 14 58 227 13 55 230 14 59 227 15 61 224 13 13 13 13 13 13 13 13 13 13 13 13 13 13 13 17 65 221 17 65 221 16 63 222 15 61 224 14 58 227 14 58 227 12 53 232 13 55 230 13 55 230 18 67 220 13 13 13 13 13 13 13 13 13 16 63 223 13 13 13 13 13 13 15 61 224 13 13 13 13 13 13 21 75 213 13 13 13 13 13 13 13 13 13 13 13 13 13 13 13 74 198 107 13 13 13 13 13 13 43 125 170 13 13 13 13 13 13 13 13 13 13 13 13 13 13 13 13 13 13 13 13 13 15 60 225 15 61 224 18 68 219 13 13 13 13 13 13 13 13 13 13 13 13 13 13 13 13 13 13 13 13 13 24 82 207 21 74 214 15 60 226 13 13 13 13 13 13 13 13 13 21 74 214 13 13 13 13 13 13 13 13 13 13 13 13 13 13 13 13 13 13 13 13 13 18 69 218 13 13 13 13 13 13 13 13 13 13 13 13 13 13 13 24 80 208 13 13 13 13 13 13 13 13 13 22 77 211 13 13 13 13 13 13 13 13 13 13 13 13 13 13 13 13 13 13 28 90 200 31 99 192 13 13 13 13 13 13 13 13 13 18 67 220 13 13 13 13 13 13 47 135 161 13 13 13 13 13 13 13 13 13 50 143 154 13 13 13 13 13 13 19 69 218 13 13 13 32 101 190 13 13 13 22 78 210 25 85 204 30 95 196 
13 13 13 13 13 13 13 13 13 13 13 13 13 13 13 13 13 13 13 13 13 13 13 13 13 13 13 13 13 13 13 13 13 13 13 13 13 13 13 13 13 13 13 13 13 13 13 13 13 13 13 13 13 13 13 13 13 13 13 13 13 13 13 13 13 13 13 13 13 13 13 13 13 13 13 13 13 13 13 13 13 13 13 13 13 13 13 13 13 13 13 13 13 13 13 13 13 13 13 220 245 20 13 55 230 13 13 13 13 13 13 13 13 13 13 13 13 12 54 231 13 13 13 13 13 13 13 13 13 13 13 13 13 13 13 13 13 13 13 13 13 9 48 236 13 13 13 13 13 13 13 13 13 9 48 236 13 13 13 13 13 13 13 13 13 13 13 13 13 13 13 13 13 13 13 56 229 13 13 13 7 41 241 13 13 13 13 13 13 13 55 229 13 13 13 13 13 13 13 13 13 13 13 13 13 13 13 15 61 224 13 13 13 35 108 184 13 13 13 13 13 13 13 13 13 13 13 13 13 13 13 14 59 226 14 59 226 13 13 13 13 13 13 13 13 13 13 13 13 13 13 13 13 13 13 13 13 13 13 13 13 13 13 13 13 13 13 13 13 13 15 61 224 14 58 227 13 55 230 13 55 230 14 57 228 13 13 13 13 13 13 13 13 13 10 48 236 15 61 224 15 61 224 13 13 13 17 65 221 17 65 221 13 13 13 13 13 13 13 13 13 14 58 227 13 55 230 13 13 13 13 13 13 15 61 224 13 13 13 13 13 13 16 63 222 13 13 13 13 13 13 15 61 224 13 13 13 13 13 13 13 13 13 13 13 13 13 13 13 30 95 196 15 61 224 13 13 13 13 13 13 29 92 198 21 74 213 13 13 13 13 13 13 23 79 210 41 120 174 13 13 13 13 13 13 13 13 13 10 49 235 13 13 13 22 76 212 26 87 202 13 13 13 13 13 13 13 13 13 30 96 195 36 108 184 13 13 13 13 13 13 36 110 182 24 82 207 23 80 208 13 13 13 13 13 13 12 53 231 28 91 199 28 92 198 13 13 13 13 13 13 13 13 13 13 13 13 13 13 13 13 13 13 13 13 13 13 13 13 13 13 13 13 13 13 13 13 13 13 13 13 13 13 13 13 13 13 13 13 13 19 70 217 13 13 13 13 13 13 17 66 220 13 13 13 13 13 13 13 13 13 18 67 219 29 92 198 12 53 231 13 13 13 13 13 13 13 13 13 13 13 13 13 13 13 13 13 13 13 13 13 13 13 13 13 13 13 13 13 13 13 13 13 13 13 13 13 13 13 13 13 13 13 13 13 13 13 13 13 13 13 13 13 13 26 86 203 21 75 212 
13 13 13 13 13 13 13 13 13 13 13 13 13 13 13 13 13 13 13 13 13 13 13 13 13 13 13 13 13 13 13 13 13 13 13 13 13 13 13 13 13 13 13 13 13 13 13 13 13 13 13 13 13 13 13 13 13 13 13 13 13 13 13 13 13 13 13 13 13 13 13 13 13 13 13 13 13 13 13 13 13 13 13 13 13 13 13 13 13 13 13 13 13 13 13 13 13 13 13 13 13 13 13 13 13 13 13 13 13 55 230 13 13 13 13 13 13 13 13 13 13 13 13 13 13 13 13 13 13 13 13 13 13 13 13 13 13 13 11 51 233 13 13 13 13 13 13 13 13 13 13 13 13 13 13 13 13 13 13 13 13 13 13 13 13 13 13 13 13 13 13 13 13 13 13 13 13 7 41 241 13 13 13 13 13 13 12 54 230 13 56 229 13 57 228 13 13 13 13 13 13 13 13 13 13 13 13 13 13 13 13 13 13 13 13 13 13 13 13 13 13 13 15 61 224 13 13 13 13 13 13 14 59 226 14 59 226 14 59 226 13 13 13 13 13 13 13 13 13 13 13 13 13 13 13 10 49 235 13 13 13 13 13 13 15 61 224 15 61 224 13 13 13 15 61 224 14 57 228 12 54 231 13 13 13 13 13 13 13 13 13 13 13 13 15 61 224 15 61 224 15 61 224 13 56 229 13 13 13 13 13 13 13 13 13 13 13 13 13 13 13 16 63 222 15 61 225 15 61 224 15 61 224 15 61 224 13 13 13 15 62 224 15 62 224 16 63 223 13 13 13 15 61 224 13 13 13 13 13 13 13 13 13 15 61 225 20 72 216 15 61 224 15 61 224 13 13 13 36 110 183 20 71 216 18 68 219 13 13 13 13 13 13 13 13 13 13 13 13 13 13 13 13 13 13 13 13 13 13 13 13 36 109 183 22 76 212 17 65 221 13 13 13 13 13 13 13 13 13 13 13 13 13 13 13 13 13 13 33 104 188 13 13 13 39 117 177 13 13 13 23 80 208 13 13 13 13 13 13 28 91 199 13 13 13 13 13 13 13 13 13 13 13 13 13 13 13 13 13 13 13 13 13 13 13 13 13 13 13 13 13 13 13 13 13 13 13 13 13 13 13 13 13 13 13 13 13 13 13 13 13 13 13 13 13 13 13 13 13 13 13 13 13 13 13 13 13 13 13 13 13 13 13 13 13 13 13 13 13 13 13 13 13 13 13 13 13 13 13 13 13 13 13 13 13 13 13 13 13 13 13 13 13 13 13 13 13 13 13 13 13 13 13 17 66 221 13 13 13 13 13 13 13 13 13 13 13 13 13 13 13 13 13 13 13 13 13 31 98 193 
13 13 13 13 13 13 13 13 13 13 13 13 13 13 13 13 13 13 13 13 13 13 13 13 13 13 13 13 13 13 13 13 13 13 55 230 13 13 13 13 13 13 13 13 13 13 13 13 13 13 13 13 13 13 13 13 13 13 13 13 13 13 13 13 13 13 13 13 13 13 55 230 13 13 13 13 13 13 13 13 13 13 13 13 13 13 13 13 13 13 13 13 13 13 13 13 13 13 13 13 13 13 13 55 230 13 13 13 13 13 13 13 13 13 13 13 13 13 13 13 13 13 13 13 13 13 237 250 10 13 13 13 13 13 13 14 59 227 13 55 230 9 47 237 13 13 13 13 13 13 13 55 230 13 13 13 13 13 13 13 55 230 13 13 13 13 13 13 13 13 13 13 13 13 13 13 13 13 13 13 13 13 13 13 13 13 13 55 230 13 56 229 13 57 228 14 57 228 13 13 13 13 13 13 13 13 13 13 13 13 13 13 13 13 13 13 13 13 13 13 13 13 13 13 13 13 13 13 13 55 230 13 13 13 15 60 225 14 59 226 13 55 230 13 55 230 13 13 13 24 82 207 23 80 208 19 70 217 15 61 224 15 61 224 15 61 224 13 13 13 15 61 224 13 13 13 16 62 224 13 13 13 13 13 13 13 55 230 13 13 13 32 101 191 15 61 224 13 13 13 13 13 13 13 13 13 15 61 224 19 70 217 19 70 217 27 89 201 32 99 192 11 50 234 20 72 215 17 64 222 15 61 224 13 13 13 34 104 188 15 62 224 15 62 224 20 73 214 13 13 13 13 13 13 15 61 224 13 13 13 46 133 163 13 13 13 15 61 224 15 61 224 14 58 228 13 13 13 13 13 13 13 13 13 18 68 219 15 59 226 13 13 13 13 13 13 13 13 13 13 13 13 13 13 13 13 13 13 13 13 13 13 13 13 13 13 13 13 13 13 13 13 13 13 13 13 13 13 13 13 13 13 13 13 13 13 13 13 13 13 13 13 13 13 13 13 13 13 13 13 13 13 13 13 13 13 13 13 13 13 13 13 13 13 13 13 13 13 13 13 13 13 13 13 13 13 13 13 13 13 13 13 13 13 13 13 13 13 13 13 13 13 13 13 13 35 106 186 13 13 13 25 85 204 13 13 13 40 120 174 13 13 13 13 13 13 13 13 13 13 13 13 13 13 13 13 13 13 13 13 13 13 13 13 13 13 13 13 13 13 53 149 149 13 13 13 13 13 13 13 13 13 22 77 211 13 13 13 13 13 13 13 13 13 13 13 13 13 13 13 13 13 13 13 13 13 13 13 13 13 13 13 13 13 13 13 13 13 13 13 13 13 13 13 13 13 13 44 129 167 
13 13 13 13 13 13 13 13 13 13 13 13 13 13 13 13 13 13 13 13 13 13 13 13 13 13 13 13 13 13 13 13 13 13 13 13 13 13 13 13 13 13 13 13 13 13 13 13 13 13 13 13 13 13 13 13 13 13 13 13 13 13 13 13 13 13 13 13 13 13 13 13 13 13 13 13 55 230 13 13 13 13 13 13 13 13 13 13 13 13 13 13 13 13 13 13 13 13 13 13 13 13 15 61 224 13 13 13 13 13 13 13 13 13 13 55 230 13 13 13 13 13 13 13 13 13 13 13 13 13 13 13 13 13 13 13 13 13 11 52 232 13 13 13 13 13 13 14 59 226 13 13 13 13 13 13 11 52 233 13 13 13 13 13 13 13 13 13 13 55 230 13 13 13 13 13 13 13 13 13 13 13 13 13 13 13 13 55 230 13 55 230 13 56 229 13 13 13 14 58 227 15 61 224 13 13 13 15 61 224 13 55 230 13 13 13 13 13 13 15 61 224 13 13 13 13 13 13 13 13 13 14 58 227 15 61 224 15 61 224 13 55 230 13 55 230 11 51 233 13 13 13 23 80 208 23 78 210 15 61 224 15 61 224 15 61 224 15 61 224 13 13 13 13 13 13 13 13 13 13 13 13 14 58 227 15 61 224 13 13 13 13 13 13 22 77 211 13 13 13 13 13 13 13 13 13 13 13 13 19 70 217 19 70 217 27 89 201 13 13 13 13 13 13 13 13 13 19 70 217 13 13 13 13 13 13 13 13 13 15 61 224 15 61 224 13 13 13 13 13 13 15 62 224 13 13 13 13 13 13 13 13 13 13 13 13 13 13 13 15 61 224 15 61 224 20 71 216 55 154 145 13 13 13 13 13 13 13 13 13 13 13 13 15 61 224 13 13 13 13 13 13 13 13 13 13 13 13 13 13 13 13 13 13 13 13 13 27 90 200 13 13 13 13 13 13 13 13 13 13 13 13 13 13 13 13 13 13 13 13 13 13 13 13 13 13 13 13 13 13 13 13 13 13 13 13 13 13 13 13 13 13 13 13 13 13 13 13 31 98 193 13 13 13 13 13 13 13 13 13 13 13 13 13 13 13 13 13 13 13 13 13 13 13 13 13 13 13 13 13 13 13 13 13 13 13 13 13 13 13 13 13 13 21 74 213 13 13 13 13 13 13 13 13 13 13 13 13 43 125 170 13 13 13 13 13 13 13 13 13 13 13 13 13 13 13 13 13 13 13 13 13 13 13 13 13 13 13 13 13 13 13 13 13 13 13 13 13 13 13 13 13 13 13 13 13 13 13 13 13 13 13 13 13 13 25 84 204 13 13 13 13 13 13 13 13 13 28 92 198 
133 220 69 13 13 13 13 13 13 13 13 13 13 13 13 13 13 13 13 13 13 13 13 13 13 13 13 13 13 13 13 13 13 13 13 13 13 13 13 13 13 13 13 13 13 13 13 13 13 13 13 13 13 13 13 13 13 13 13 13 13 13 13 13 13 13 13 13 13 13 13 13 13 13 13 13 13 13 13 13 13 13 13 13 13 13 13 13 13 13 13 13 13 13 13 13 13 13 13 13 13 13 13 13 13 13 13 13 67 182 121 13 13 13 13 13 13 13 13 13 13 13 13 13 13 13 13 13 13 15 61 225 13 13 13 10 49 235 13 13 13 13 13 13 13 13 13 13 13 13 14 57 228 13 55 230 13 13 13 13 13 13 13 13 13 13 55 230 13 55 230 13 55 230 13 13 13 13 13 13 13 13 13 13 13 13 13 13 13 13 13 13 13 13 13 13 13 13 13 13 13 15 61 224 23 80 208 13 13 13 13 13 13 45 130 165 13 13 13 13 13 13 13 57 228 13 13 13 13 13 13 13 55 230 13 55 230 16 62 224 13 55 230 13 13 13 13 13 13 9 46 238 13 13 13 25 84 205 20 73 214 15 61 224 15 61 224 13 13 13 15 61 224 13 13 13 13 13 13 15 61 224 15 61 224 15 61 224 13 13 13 13 13 13 13 13 13 13 13 13 13 13 13 13 13 13 13 13 13 13 13 13 13 13 13 13 13 13 13 13 13 13 13 13 13 13 13 13 13 13 25 84 205 13 13 13 13 13 13 21 75 212 15 60 225 13 13 13 13 13 13 13 13 13 15 61 224 13 13 13 13 13 13 24 83 206 13 13 13 13 13 13 20 71 216 22 77 211 13 13 13 13 13 13 13 13 13 13 13 13 13 13 13 13 13 13 13 13 13 13 13 13 13 13 13 15 61 224 13 13 13 13 13 13 13 13 13 13 13 13 13 13 13 15 59 226 13 13 13 13 13 13 13 13 13 13 13 13 13 13 13 13 13 13 13 13 13 13 13 13 32 100 192 12 55 230 13 13 13 13 13 13 13 13 13 48 137 159 25 84 205 19 69 217 13 13 13 13 56 229 40 118 176 13 13 13 13 13 13 16 62 224 13 13 13 13 13 13 13 13 13 13 13 13 44 128 168 13 13 13 13 13 13 13 13 13 13 13 13 13 13 13 13 13 13 13 13 13 13 13 13 13 13 13 44 129 167 13 13 13 13 13 13 13 13 13 13 13 13 13 13 13 13 13 13 13 13 13 13 13 13 13 13 13 13 13 13 13 13 13 13 13 13 13 13 13 13 13 13 13 13 13 13 13 13 13 13 13 13 13 13 13 13 13 13 13 13 41 121 173 
13 13 13 13 13 13 13 13 13 13 13 13 13 13 13 13 13 13 13 13 13 13 13 13 13 13 13 13 13 13 13 13 13 13 13 13 13 13 13 13 13 13 13 13 13 13 13 13 13 13 13 13 13 13 13 13 13 13 55 230 13 13 13 13 13 13 240 251 8 13 13 13 13 13 13 13 13 13 13 13 13 13 13 13 13 13 13 13 13 13 13 13 13 13 13 13 13 13 13 13 13 13 13 13 13 15 61 224 13 13 13 13 13 13 13 13 13 13 13 13 13 55 230 13 13 13 9 47 237 13 13 13 13 13 13 13 13 13 13 13 13 13 13 13 13 13 13 13 55 230 13 13 13 44 129 166 13 13 13 13 13 13 13 13 13 13 55 230 14 58 227 14 58 227 14 58 227 13 13 13 13 55 230 36 109 184 13 13 13 13 13 13 13 55 230 14 58 227 15 61 224 13 13 13 13 13 13 13 13 13 13 13 13 13 13 13 13 13 13 13 55 230 18 67 219 13 13 13 13 13 13 13 55 230 13 55 230 14 58 227 14 58 227 13 55 230 11 51 233 13 13 13 13 13 13 13 13 13 27 89 200 24 81 207 13 13 13 13 13 13 13 13 13 13 13 13 13 13 13 15 61 224 15 61 224 13 13 13 14 58 227 13 13 13 13 13 13 18 68 219 13 13 13 13 13 13 13 13 13 13 13 13 13 13 13 13 13 13 13 13 13 15 61 224 25 83 206 25 83 206 21 74 214 13 13 13 13 13 13 13 13 13 13 13 13 13 13 13 13 13 13 13 13 13 13 13 13 13 13 13 13 13 13 13 13 13 13 13 13 13 13 13 20 71 216 19 69 218 17 65 221 13 13 13 13 13 13 13 13 13 13 13 13 13 13 13 13 13 13 18 67 219 13 13 13 13 13 13 23 79 209 13 13 13 13 13 13 13 13 13 13 13 13 33 102 190 13 13 13 13 13 13 13 13 13 17 65 221 13 13 13 29 93 197 13 13 13 13 13 13 13 13 13 15 59 226 13 13 13 13 13 13 13 13 13 13 13 13 13 13 13 17 66 220 13 13 13 13 13 13 13 13 13 13 13 13 13 13 13 13 13 13 13 13 13 13 13 13 13 13 13 13 13 13 13 13 13 13 13 13 56 156 143 29 93 197 13 13 13 13 13 13 13 13 13 13 13 13 13 13 13 13 13 13 13 13 13 13 13 13 13 13 13 13 13 13 13 13 13 13 13 13 13 13 13 13 13 13 13 13 13 13 13 13 13 13 13 13 13 13 13 13 13 19 69 218 13 13 13 13 13 13 13 13 13 195 238 34 13 13 13 13 13 13 13 13 13 41 121 173 
13 13 13 13 13 13 13 13 13 13 13 13 13 13 13 13 13 13 13 13 13 13 13 13 13 13 13 13 13 13 13 13 13 13 13 13 9 47 237 13 13 13 13 13 13 13 13 13 13 13 13 13 13 13 40 119 175 40 119 175 13 13 13 13 13 13 13 13 13 13 13 13 13 13 13 13 13 13 13 13 13 13 13 13 11 51 233 15 61 224 13 13 13 13 13 13 13 13 13 13 13 13 13 13 13 13 13 13 13 13 13 13 13 13 13 13 13 13 13 13 13 13 13 13 13 13 13 13 13 13 13 13 13 13 13 13 13 13 13 55 230 13 13 13 13 13 13 13 13 13 13 13 13 13 13 13 13 13 13 13 13 13 13 55 230 13 55 230 13 55 230 14 58 227 13 55 230 13 13 13 13 13 13 13 13 13 13 13 13 13 13 13 17 66 220 14 58 227 11 52 232 13 13 13 13 13 13 13 13 13 13 55 230 50 141 156 13 13 13 13 13 13 19 69 217 105 212 85 13 13 13 13 13 13 13 55 230 13 13 13 13 13 13 15 61 225 13 13 13 9 47 237 17 66 220 22 78 210 50 142 155 13 13 13 13 13 13 15 61 224 13 13 13 15 61 224 20 71 216 20 71 216 13 13 13 13 13 13 13 13 13 13 13 13 13 13 13 13 13 13 13 13 13 13 13 13 13 13 13 13 13 13 13 13 13 13 13 13 13 13 13 13 13 13 16 62 223 16 63 223 37 112 181 13 13 13 13 13 13 15 61 224 13 13 13 13 13 13 13 13 13 13 13 13 13 13 13 13 13 13 13 13 13 13 13 13 13 13 13 13 13 13 13 13 13 18 66 220 17 66 220 15 60 226 13 13 13 13 13 13 13 13 13 13 13 13 13 13 13 13 13 13 13 13 13 13 13 13 13 13 13 13 13 13 13 13 13 13 13 13 47 134 162 13 13 13 13 13 13 13 13 13 13 13 13 13 13 13 13 13 13 13 13 13 13 13 13 13 13 13 13 13 13 13 13 13 16 62 224 13 13 13 30 97 194 13 13 13 13 13 13 13 13 13 13 13 13 13 13 13 13 13 13 13 13 13 13 13 13 13 13 13 13 13 13 13 13 13 13 13 13 13 13 13 13 13 13 13 13 13 13 13 13 13 13 13 13 13 13 13 13 13 13 13 13 13 13 13 13 13 13 13 13 13 13 13 13 13 13 13 13 13 13 13 13 13 13 13 13 13 13 13 13 13 13 13 13 13 13 13 13 13 13 13 13 13 13 13 13 13 13 13 13 13 13 13 13 13 13 13 13 13 13 13 13 13 13 13 13 13 13 13 13 13 35 107 185 29 93 197 
13 13 13 13 13 13 13 13 13 13 13 13 13 13 13 13 13 13 13 13 13 13 13 13 13 13 13 13 13 13 13 13 13 13 13 13 13 13 13 13 13 13 13 13 13 13 13 13 13 13 13 13 13 13 13 13 13 72 192 112 13 13 13 13 13 13 13 13 13 13 13 13 13 13 13 13 13 13 13 13 13 13 13 13 13 13 13 13 13 13 13 13 13 13 13 13 15 61 224 13 13 13 11 52 233 13 13 13 13 13 13 13 13 13 13 13 13 13 13 13 13 13 13 13 13 13 13 13 13 13 13 13 13 13 13 13 13 13 13 13 13 13 13 13 13 13 13 13 13 13 13 13 13 13 13 13 13 13 13 13 13 13 244 252 6 13 55 230 13 13 13 13 13 13 13 13 13 13 13 13 13 13 13 13 13 13 13 13 13 13 13 13 13 13 13 13 13 13 13 13 13 9 47 237 13 13 13 13 13 13 13 13 13 14 58 227 13 13 13 13 13 13 19 69 217 19 69 217 13 13 13 13 13 13 13 13 13 13 13 13 13 13 13 13 13 13 13 13 13 13 13 13 13 13 13 15 61 224 13 13 13 13 13 13 13 13 13 13 13 13 13 13 13 13 13 13 21 75 213 34 104 188 13 13 13 13 13 13 22 78 210 13 13 13 13 56 229 13 13 13 15 61 224 13 13 13 28 90 199 22 76 212 31 98 193 13 13 13 13 13 13 13 13 13 15 61 224 13 13 13 13 13 13 13 13 13 13 13 13 13 13 13 39 118 176 25 84 205 13 13 13 13 13 13 13 13 13 13 13 13 200 239 31 22 76 211 13 13 13 13 13 13 18 67 220 13 13 13 13 13 13 13 13 13 13 13 13 13 13 13 13 13 13 13 13 13 13 13 13 13 13 13 13 13 13 13 13 13 13 13 13 13 13 13 13 13 13 13 13 13 13 13 13 13 13 13 13 13 13 13 13 13 13 13 13 13 13 13 13 13 13 13 13 13 13 13 13 13 13 13 13 13 13 16 63 223 18 67 220 25 84 205 13 13 13 13 13 13 13 13 13 13 13 13 22 77 211 21 76 212 19 69 218 26 86 203 13 13 13 13 13 13 13 13 13 13 13 13 13 13 13 13 13 13 13 13 13 13 13 13 13 13 13 13 13 13 13 13 13 23 79 209 13 13 13 13 13 13 13 13 13 13 13 13 193 237 36 13 13 13 13 13 13 23 80 208 13 13 13 13 13 13 13 13 13 13 13 13 13 13 13 13 13 13 29 94 196 13 13 13 13 13 13 13 13 13 13 13 13 13 13 13 13 13 13 13 13 13 13 13 13 53 150 148 31 98 193 25 84 205 
13 13 13 13 13 13 13 13 13 13 13 13 13 13 13 13 13 13 13 13 13 13 13 13 13 13 13 13 13 13 13 13 13 13 13 13 13 13 13 13 13 13 13 13 13 13 13 13 13 13 13 13 13 13 13 13 13 13 13 13 13 13 13 14 58 227 13 13 13 13 13 13 13 13 13 13 13 13 13 13 13 13 13 13 13 55 230 13 13 13 13 13 13 13 13 13 13 13 13 13 13 13 13 13 13 13 13 13 13 13 13 15 61 224 13 13 13 13 13 13 13 13 13 13 13 13 13 13 13 13 13 13 13 13 13 13 13 13 13 13 13 13 13 13 13 13 13 13 13 13 13 13 13 13 13 13 13 13 13 13 13 13 13 13 13 13 13 13 13 13 13 13 13 13 13 13 13 13 13 13 13 13 13 13 13 13 13 13 13 13 13 13 9 46 237 13 13 13 13 13 13 13 13 13 13 13 13 13 13 13 13 13 13 15 61 224 13 55 230 13 13 13 13 13 13 13 55 229 13 13 13 13 13 13 13 13 13 13 55 230 14 58 227 13 13 13 13 13 13 13 13 13 13 13 13 13 13 13 13 13 13 15 61 224 13 13 13 13 13 13 13 13 13 13 13 13 18 69 218 13 13 13 13 13 13 13 13 13 13 13 13 13 13 13 13 13 13 13 13 13 13 13 13 13 13 13 13 13 13 22 76 212 15 60 226 13 13 13 13 13 13 17 65 221 13 13 13 13 13 13 13 13 13 16 63 223 13 13 13 13 13 13 13 13 13 13 13 13 13 13 13 13 13 13 13 13 13 13 13 13 13 13 13 13 13 13 13 13 13 13 13 13 13 13 13 13 13 13 13 13 13 13 13 13 13 13 13 13 13 13 35 107 185 17 65 221 13 13 13 13 13 13 39 117 177 13 13 13 13 13 13 13 13 13 13 13 13 13 13 13 13 13 13 13 13 13 13 13 13 13 13 13 13 13 13 13 13 13 13 13 13 13 13 13 18 67 220 13 13 13 13 13 13 23 80 208 13 13 13 13 13 13 32 100 191 13 13 13 12 54 230 13 13 13 97 210 90 21 76 212 21 74 213 13 13 13 13 13 13 13 13 13 13 13 13 13 13 13 13 13 13 13 13 13 13 55 229 13 13 13 13 13 13 13 13 13 13 13 13 13 13 13 13 13 13 13 13 13 13 13 13 13 13 13 13 13 13 13 13 13 13 13 13 13 13 13 13 13 13 13 13 13 13 13 13 13 13 13 13 13 13 13 13 13 13 13 13 13 13 13 13 13 13 13 13 13 13 13 13 13 13 13 13 13 13 13 13 13 13 13 13 13 13 13 38 114 179 33 103 188 
13 55 230 13 13 13 13 13 13 13 13 13 13 13 13 13 13 13 13 13 13 13 13 13 13 13 13 13 13 13 13 13 13 13 13 13 13 13 13 13 13 13 13 13 13 13 13 13 13 13 13 13 13 13 13 13 13 13 13 13 13 13 13 13 13 13 16 63 223 13 13 13 13 13 13 13 13 13 13 13 13 13 13 13 13 13 13 13 13 13 13 13 13 13 13 13 13 13 13 13 13 13 13 13 13 13 13 13 13 13 13 13 13 13 13 13 13 13 13 13 13 13 13 13 13 13 13 13 13 13 13 13 13 13 13 15 61 224 13 13 13 15 61 224 13 13 13 13 13 13 13 13 13 13 13 13 13 13 13 13 13 13 13 55 230 13 13 13 13 13 13 40 119 175 13 13 13 13 13 13 13 13 13 13 13 13 13 13 13 13 13 13 13 13 13 13 13 13 13 13 13 13 13 13 13 13 13 13 13 13 13 13 13 13 13 13 13 13 13 13 13 13 13 13 13 13 13 13 13 13 13 13 13 13 13 13 13 18 69 218 18 69 218 15 61 224 15 61 224 13 13 13 13 13 13 13 13 13 15 61 224 15 61 224 19 70 217 13 56 229 23 80 208 13 13 13 13 13 13 13 13 13 13 13 13 13 13 13 13 13 13 13 13 13 13 13 13 13 13 13 13 13 13 13 13 13 13 13 13 13 13 13 13 13 13 13 13 13 13 13 13 13 13 13 13 13 13 16 63 223 22 76 211 13 13 13 13 13 13 13 13 13 13 13 13 13 13 13 13 13 13 13 13 13 13 13 13 13 13 13 13 13 13 13 13 13 13 13 13 13 13 13 13 13 13 13 13 13 13 13 13 16 63 223 13 13 13 13 13 13 13 13 13 13 13 13 13 13 13 13 13 13 13 13 13 13 13 13 13 13 13 13 13 13 13 13 13 13 13 13 13 13 13 13 13 13 13 13 13 13 13 13 13 13 13 13 13 13 13 13 13 13 13 13 13 13 13 34 106 186 13 13 13 13 13 13 13 13 13 13 13 13 13 13 13 13 13 13 13 13 13 13 13 13 13 13 13 13 13 13 13 13 13 13 13 13 13 13 13 13 13 13 13 13 13 13 13 13 13 13 13 13 13 13 13 13 13 13 13 13 13 13 13 13 13 13 13 13 13 13 13 13 13 13 13 19 71 216 13 13 13 43 127 168 13 13 13 13 13 13 13 13 13 13 13 13 13 13 13 13 13 13 13 13 13 13 13 13 13 13 13 13 13 13 13 13 13 13 13 13 13 13 13 13 13 13 64 174 128 13 13 13 13 13 13 13 13 13 13 13 13 13 13 13 13 13 13 43 125 170 
13 13 13 13 13 13 13 13 13 13 13 13 13 13 13 13 13 13 13 13 13 13 13 13 13 13 13 13 13 13 13 13 13 53 149 149 13 13 13 13 13 13 13 13 13 13 13 13 13 13 13 13 13 13 13 13 13 13 13 13 13 13 13 13 13 13 13 13 13 13 13 13 13 13 13 13 13 13 13 13 13 44 128 167 13 13 13 13 13 13 13 13 13 13 55 230 13 13 13 13 13 13 13 13 13 13 13 13 13 13 13 13 13 13 13 13 13 13 13 13 13 55 230 13 13 13 13 13 13 13 13 13 13 13 13 13 13 13 15 61 224 13 13 13 15 61 224 14 57 228 13 13 13 13 13 13 13 13 13 13 13 13 13 13 13 13 13 13 13 13 13 13 13 13 13 13 13 13 13 13 13 13 13 13 13 13 13 13 13 13 13 13 13 13 13 13 55 230 13 13 13 13 13 13 13 13 13 13 13 13 13 13 13 13 13 13 13 13 13 13 13 13 13 13 13 13 13 13 13 13 13 13 13 13 13 13 13 23 79 209 196 238 34 13 13 13 15 61 224 13 13 13 13 13 13 15 61 224 15 61 224 19 70 217 34 105 187 13 13 13 13 13 13 13 13 13 13 13 13 13 13 13 13 13 13 13 13 13 13 13 13 13 13 13 13 13 13 13 13 13 13 13 13 13 13 13 13 13 13 13 13 13 13 13 13 13 13 13 13 13 13 13 13 13 13 13 13 27 88 201 27 88 201 13 13 13 13 13 13 13 13 13 13 13 13 13 13 13 13 13 13 18 67 220 28 91 199 13 13 13 17 66 220 13 13 13 13 13 13 13 13 13 13 13 13 13 13 13 13 13 13 13 13 13 13 13 13 13 13 13 12 53 232 13 13 13 13 13 13 13 13 13 13 13 13 13 13 13 13 13 13 13 13 13 13 13 13 13 13 13 13 13 13 13 13 13 23 79 209 13 13 13 13 13 13 13 13 13 13 13 13 13 13 13 35 107 185 13 13 13 13 13 13 13 13 13 13 13 13 13 13 13 13 13 13 13 13 13 13 13 13 13 13 13 13 13 13 13 13 13 13 13 13 29 93 197 190 237 37 13 13 13 13 13 13 13 13 13 13 13 13 13 13 13 13 13 13 13 13 13 13 13 13 13 13 13 13 13 13 13 13 13 13 13 13 13 13 13 13 13 13 14 59 226 13 13 13 13 13 13 13 13 13 13 13 13 13 13 13 13 13 13 13 13 13 23 78 210 13 13 13 13 13 13 13 13 13 13 13 13 13 13 13 13 13 13 13 13 13 13 13 13 13 13 13 13 13 13 13 13 13 13 13 13 13 13 13 37 112 181 
13 13 13 13 13 13 13 13 13 13 13 13 13 13 13 13 13 13 13 13 13 13 13 13 13 13 13 13 13 13 13 13 13 13 13 13 13 13 13 13 55 230 13 13 13 13 13 13 13 13 13 13 13 13 13 13 13 13 13 13 13 13 13 13 13 13 13 55 230 13 13 13 13 13 13 13 13 13 13 13 13 13 13 13 13 13 13 13 13 13 13 13 13 13 13 13 10 48 236 13 13 13 13 13 13 13 13 13 13 13 13 13 13 13 13 13 13 13 13 13 13 13 13 13 13 13 13 13 13 13 13 13 13 13 13 15 61 224 26 85 204 15 61 224 15 59 226 13 13 13 13 13 13 13 13 13 15 61 224 13 13 13 13 13 13 13 13 13 13 13 13 13 13 13 13 13 13 13 13 13 13 13 13 13 13 13 13 13 13 16 62 224 15 61 224 15 60 226 13 13 13 13 13 13 13 13 13 13 13 13 13 13 13 15 61 224 13 13 13 13 13 13 13 13 13 18 67 219 13 13 13 13 13 13 13 13 13 13 13 13 13 13 13 13 13 13 13 13 13 13 13 13 19 70 217 15 61 224 13 13 13 13 13 13 13 13 13 13 13 13 13 13 13 13 13 13 13 13 13 13 13 13 13 13 13 13 13 13 13 13 13 13 13 13 13 13 13 13 13 13 13 13 13 13 13 13 13 13 13 13 13 13 13 13 13 13 13 13 13 13 13 13 13 13 13 13 13 32 100 191 71 190 114 13 13 13 13 13 13 13 13 13 13 13 13 13 13 13 13 13 13 13 13 13 13 13 13 13 13 13 13 13 13 13 13 13 13 13 13 13 13 13 13 13 13 13 13 13 13 13 13 13 13 13 13 13 13 13 13 13 13 13 13 52 148 150 13 13 13 13 13 13 22 77 211 13 13 13 27 90 200 13 13 13 13 13 13 13 13 13 13 13 13 13 13 13 13 13 13 13 13 13 13 13 13 13 13 13 13 13 13 31 98 193 35 108 184 13 13 13 13 13 13 13 13 13 13 13 13 44 128 167 13 13 13 13 13 13 13 13 13 13 13 13 13 13 13 13 13 13 13 13 13 13 13 13 13 13 13 13 13 13 13 13 13 13 13 13 13 13 13 13 13 13 13 13 13 13 13 13 13 13 13 13 13 13 44 129 166 13 13 13 30 96 194 13 13 13 13 13 13 13 13 13 13 13 13 13 13 13 13 13 13 13 13 13 13 13 13 13 13 13 13 13 13 13 13 13 13 13 13 23 78 210 13 13 13 13 13 13 60 165 136 13 13 13 34 104 187 13 13 13 13 13 13 20 73 215 13 13 13 13 13 13 13 13 13 135 221 68 
13 13 13 13 13 13 13 13 13 13 13 13 13 13 13 13 13 13 13 13 13 13 13 13 13 13 13 13 13 13 13 13 13 13 13 13 13 13 13 13 13 13 13 13 13 13 13 13 13 13 13 13 13 13 13 13 13 13 13 13 13 13 13 13 13 13 13 13 13 13 13 13 13 13 13 13 13 13 13 13 13 13 13 13 13 13 13 13 13 13 13 13 13 13 13 13 13 13 13 13 13 13 13 13 13 13 13 13 13 13 13 13 13 13 13 13 13 13 13 13 13 13 13 23 79 209 13 13 13 13 13 13 13 13 13 13 13 13 13 13 13 13 55 230 15 61 224 13 13 13 13 13 13 13 13 13 13 13 13 13 13 13 13 13 13 13 13 13 13 13 13 13 13 13 13 13 13 13 13 13 13 13 13 13 13 13 15 61 224 13 13 13 15 62 224 14 58 227 13 13 13 13 13 13 12 54 230 13 13 13 13 13 13 13 13 13 13 13 13 13 13 13 13 13 13 13 13 13 13 13 13 13 13 13 23 79 209 13 13 13 13 13 13 13 13 13 13 13 13 13 13 13 13 13 13 13 13 13 13 13 13 13 13 13 13 13 13 13 13 13 13 13 13 13 13 13 13 13 13 13 13 13 38 113 180 13 13 13 13 13 13 13 13 13 13 13 13 17 66 220 13 13 13 13 13 13 13 13 13 13 13 13 13 13 13 13 13 13 13 13 13 13 13 13 13 13 13 13 13 13 13 13 13 13 13 13 13 13 13 13 13 13 51 144 153 13 13 13 13 13 13 13 13 13 13 13 13 18 67 220 13 13 13 13 13 13 13 13 13 13 13 13 13 13 13 13 13 13 13 13 13 13 13 13 13 13 13 13 13 13 13 13 13 13 13 13 13 13 13 13 13 13 13 13 13 13 13 13 13 13 13 13 13 13 13 13 13 13 13 13 13 13 13 13 13 13 13 13 13 13 13 13 13 13 13 13 13 13 13 13 13 13 13 13 13 13 13 13 13 13 13 13 13 13 13 13 13 13 13 13 13 13 13 13 13 13 13 13 13 13 13 13 13 13 23 80 208 13 13 13 13 13 13 19 69 218 13 13 13 13 13 13 13 13 13 13 13 13 13 13 13 13 13 13 13 13 13 13 13 13 37 112 181 13 13 13 13 13 13 13 13 13 13 13 13 13 13 13 25 83 206 13 13 13 13 13 13 13 13 13 13 13 13 13 13 13 13 13 13 13 13 13 13 13 13 13 13 13 13 13 13 13 13 13 13 13 13 13 13 13 13 13 13 13 13 13 13 13 13 13 13 13 13 13 13 13 13 13 13 13 13 13 13 13 58 160 139 73 197 108 
13 13 13 13 13 13 13 13 13 13 13 13 13 13 13 215 243 23 13 13 13 13 13 13 13 13 13 13 13 13 68 185 118 13 13 13 13 13 13 13 13 13 13 13 13 13 13 13 13 56 229 13 13 13 13 13 13 13 13 13 13 13 13 13 13 13 13 13 13 13 13 13 13 13 13 13 13 13 13 13 13 13 13 13 13 13 13 13 13 13 13 13 13 13 13 13 13 13 13 13 13 13 13 13 13 13 13 13 13 13 13 13 13 13 13 13 13 12 54 230 13 13 13 13 13 13 15 61 224 13 13 13 13 13 13 13 13 13 13 13 13 13 13 13 13 13 13 13 13 13 13 13 13 13 13 13 13 13 13 13 13 13 13 13 13 13 13 13 13 13 13 13 13 13 13 13 13 13 13 13 13 13 13 13 13 13 13 13 13 13 13 13 13 13 13 13 13 13 13 13 13 13 13 13 20 72 215 15 61 224 13 13 13 15 61 224 13 13 13 13 13 13 13 13 13 13 13 13 13 13 13 13 13 13 13 13 13 13 13 13 13 13 13 13 13 13 13 13 13 13 13 13 13 13 13 13 13 13 13 13 13 13 13 13 13 13 13 13 13 13 42 123 171 13 13 13 13 13 13 13 13 13 13 13 13 13 13 13 13 13 13 13 13 13 13 13 13 13 13 13 13 13 13 13 13 13 13 13 13 13 13 13 13 13 13 13 13 13 13 13 13 13 13 13 13 13 13 13 13 13 13 13 13 13 13 13 13 13 13 13 13 13 13 13 13 13 13 13 13 13 13 13 13 13 13 13 13 13 13 13 13 13 13 13 13 13 13 13 13 13 13 13 13 13 13 13 13 13 13 13 13 13 13 13 13 13 13 13 13 13 13 13 13 13 13 13 13 13 13 13 13 13 13 13 13 13 13 13 13 13 13 13 13 13 13 13 13 13 13 13 13 13 13 13 13 13 13 13 13 13 13 13 13 13 13 13 13 13 13 13 13 13 13 13 13 13 13 13 13 13 13 13 13 13 13 13 13 13 13 82 206 99 13 13 13 13 13 13 11 51 233 13 13 13 13 13 13 13 13 13 13 13 13 13 13 13 13 13 13 27 88 202 13 13 13 14 59 226 13 13 13 13 13 13 13 13 13 13 13 13 13 13 13 13 13 13 13 13 13 13 13 13 33 102 189 13 13 13 13 13 13 13 13 13 13 13 13 13 13 13 13 13 13 13 13 13 13 13 13 13 13 13 74 199 106 13 13 13 13 13 13 13 13 13 13 13 13 13 13 13 13 13 13 13 13 13 13 13 13 32 99 192 13 13 13 36 109 184 13 13 13 13 13 13 36 110 183 29 93 197 
13 13 13 13 13 13 13 13 13 13 13 13 13 13 13 13 13 13 13 13 13 13 13 13 13 13 13 13 13 13 13 13 13 13 13 13 13 13 13 13 13 13 13 13 13 13 13 13 13 13 13 13 13 13 13 13 13 13 13 13 13 13 13 13 13 13 13 13 13 13 13 13 13 13 13 13 13 13 13 13 13 13 13 13 13 13 13 13 13 13 15 61 224 13 13 13 13 13 13 15 61 224 13 13 13 13 13 13 13 13 13 13 13 13 13 13 13 13 13 13 13 13 13 13 13 13 27 90 200 13 13 13 13 13 13 13 13 13 13 13 13 13 13 13 13 13 13 13 13 13 13 13 13 13 13 13 13 13 13 15 61 224 13 13 13 13 13 13 27 88 202 13 13 13 13 13 13 13 13 13 13 13 13 13 13 13 13 13 13 13 13 13 17 66 220 13 13 13 13 13 13 13 13 13 13 13 13 13 13 13 13 13 13 13 13 13 13 55 230 13 13 13 15 61 224 13 13 13 13 13 13 13 13 13 44 128 167 13 13 13 13 13 13 13 13 13 27 89 200 13 13 13 13 13 13 13 13 13 13 13 13 13 13 13 13 13 13 13 13 13 13 13 13 13 13 13 24 83 206 13 13 13 13 13 13 13 13 13 13 13 13 26 86 203 13 13 13 13 13 13 13 13 13 13 13 13 13 13 13 13 13 13 21 75 212 13 13 13 13 13 13 13 13 13 13 13 13 13 13 13 13 13 13 13 13 13 13 13 13 13 13 13 13 13 13 13 13 13 13 13 13 13 13 13 13 13 13 13 13 13 36 110 183 13 13 13 13 13 13 13 13 13 13 13 13 13 13 13 13 13 13 13 13 13 13 13 13 13 13 13 13 13 13 13 13 13 13 13 13 13 13 13 13 13 13 13 13 13 13 13 13 13 13 13 13 13 13 13 13 13 13 13 13 13 13 13 13 13 13 13 13 13 13 13 13 13 13 13 13 13 13 13 13 13 13 13 13 13 13 13 13 13 13 13 13 13 27 88 201 62 171 130 13 13 13 13 13 13 47 135 161 13 13 13 13 13 13 13 13 13 13 13 13 13 13 13 13 13 13 13 13 13 13 13 13 13 13 13 25 83 206 13 13 13 37 111 181 13 13 13 13 13 13 13 13 13 26 87 202 44 127 168 13 13 13 13 13 13 13 13 13 13 13 13 13 13 13 13 13 13 13 13 13 13 13 13 25 84 205 13 13 13 13 13 13 13 13 13 13 13 13 13 13 13 13 13 13 13 13 13 13 13 13 13 13 13 13 13 13 13 13 13 13 13 13 13 13 13 13 13 13 13 13 13 37 111 181 30 96 194 
13 13 13 13 13 13 13 13 13 13 13 13 13 13 13 13 13 13 13 13 13 13 13 13 13 13 13 13 13 13 13 13 13 13 13 13 13 13 13 13 13 13 13 13 13 13 13 13 13 13 13 13 13 13 13 13 13 13 13 13 13 13 13 13 13 13 13 13 13 13 13 13 13 13 13 13 13 13 13 57 228 13 13 13 46 134 162 13 13 13 15 61 224 13 13 13 13 13 13 13 13 13 13 13 13 13 13 13 13 13 13 13 13 13 13 13 13 13 13 13 13 13 13 13 13 13 13 13 13 13 13 13 13 13 13 13 13 13 13 13 13 13 13 13 13 13 13 13 56 229 13 13 13 13 13 13 13 13 13 13 13 13 13 13 13 13 13 13 13 13 13 13 13 13 13 13 13 13 13 13 13 13 13 13 13 13 13 13 13 13 13 13 13 13 13 13 13 13 13 13 13 13 13 13 13 13 13 13 13 13 13 13 13 13 13 13 13 13 13 13 13 13 13 13 13 13 13 13 13 13 13 13 13 13 13 13 13 13 13 13 26 87 202 13 13 13 20 72 215 13 13 13 13 13 13 15 61 225 13 13 13 13 13 13 13 13 13 13 13 13 13 13 13 26 87 203 13 13 13 13 13 13 13 13 13 13 13 13 13 13 13 13 13 13 13 13 13 13 13 13 13 13 13 13 13 13 13 13 13 13 13 13 13 13 13 13 13 13 13 13 13 13 13 13 13 13 13 13 13 13 13 13 13 13 13 13 13 13 13 13 13 13 13 13 13 13 13 13 13 13 13 13 13 13 13 13 13 13 13 13 13 13 13 13 13 13 13 13 13 13 13 13 13 13 13 13 13 13 13 13 13 13 13 13 13 13 13 13 13 13 13 13 13 13 13 13 13 13 13 13 13 13 13 13 13 13 13 13 13 13 13 13 13 13 13 13 13 13 13 13 43 126 169 13 13 13 13 13 13 39 116 178 13 13 13 13 13 13 13 13 13 13 13 13 13 13 13 13 13 13 13 13 13 13 13 13 13 13 13 13 13 13 13 13 13 13 13 13 13 13 13 13 13 13 13 13 13 13 13 13 13 13 13 13 13 13 13 13 13 13 13 13 13 13 13 13 13 13 13 13 13 13 13 13 13 13 13 13 13 13 13 13 13 13 13 13 13 13 13 13 13 13 13 13 13 27 88 202 13 13 13 13 13 13 13 13 13 13 13 13 13 13 13 13 13 13 37 111 181 13 13 13 13 13 13 13 13 13 13 13 13 13 13 13 13 13 13 13 13 13 13 13 13 48 137 159 13 13 13 13 13 13 13 13 13 255 255 0 13 13 13 37 111 181 36 110 182 38 115 179 
13 13 13 13 13 13 13 13 13 13 13 13 13 13 13 13 13 13 13 13 13 13 13 13 13 13 13 13 13 13 13 13 13 13 13 13 13 13 13 13 13 13 13 13 13 13 13 13 13 13 13 13 13 13 13 13 13 13 13 13 13 13 13 13 13 13 13 13 13 13 13 13 13 13 13 13 13 13 13 13 13 13 13 13 13 13 13 13 13 13 13 13 13 13 13 13 13 13 13 13 13 13 13 13 13 13 13 13 13 13 13 13 13 13 15 61 224 13 13 13 13 13 13 13 13 13 13 13 13 13 13 13 13 13 13 23 79 209 13 13 13 13 13 13 13 13 13 13 13 13 13 13 13 13 13 13 13 13 13 13 13 13 13 13 13 13 13 13 13 13 13 13 13 13 13 13 13 13 13 13 13 13 13 13 13 13 13 13 13 13 13 13 13 13 13 13 13 13 13 13 13 13 13 13 13 13 13 13 13 13 13 13 13 13 13 13 13 13 13 15 61 224 13 13 13 13 13 13 13 13 13 13 13 13 13 13 13 13 13 13 13 13 13 13 13 13 13 13 13 13 13 13 13 13 13 13 13 13 13 13 13 13 13 13 13 13 13 13 13 13 13 13 13 33 102 189 13 13 13 13 13 13 13 13 13 13 13 13 13 13 13 13 13 13 13 13 13 48 137 159 13 13 13 13 13 13 13 13 13 13 13 13 13 13 13 13 13 13 13 13 13 13 13 13 13 13 13 13 13 13 21 74 213 13 13 13 13 13 13 13 13 13 13 13 13 13 13 13 13 13 13 13 13 13 13 13 13 13 13 13 13 13 13 13 13 13 13 13 13 13 13 13 13 13 13 13 13 13 13 13 13 13 13 13 13 13 13 13 13 13 13 13 13 13 13 13 13 13 13 13 13 13 13 13 13 13 13 13 13 13 13 13 13 13 13 13 13 13 13 13 13 13 13 13 13 13 13 13 13 13 13 13 13 13 13 13 13 13 13 13 13 13 13 13 13 13 13 13 13 13 13 13 13 31 99 192 13 13 13 13 13 13 13 13 13 13 13 13 148 224 61 13 13 13 13 13 13 13 13 13 13 13 13 13 13 13 13 13 13 13 13 13 13 13 13 13 13 13 13 13 13 13 13 13 13 13 13 13 13 13 13 13 13 13 13 13 13 13 13 13 13 13 13 13 13 13 13 13 13 13 13 45 130 165 13 13 13 13 13 13 13 13 13 13 13 13 13 13 13 13 13 13 13 13 13 13 13 13 13 13 13 13 13 13 13 13 13 13 13 13 13 13 13 13 13 13 13 13 13 13 13 13 13 13 13 13 13 13 13 13 13 13 13 13 13 13 13 36 109 183 
13 13 13 13 13 13 13 13 13 13 13 13 13 13 13 13 13 13 13 13 13 13 13 13 13 13 13 13 13 13 13 13 13 13 13 13 13 13 13 13 13 13 13 13 13 13 13 13 13 13 13 13 13 13 13 13 13 13 13 13 13 13 13 13 13 13 13 13 13 13 13 13 13 13 13 13 13 13 13 13 13 13 13 13 13 13 13 13 13 13 13 13 13 15 61 224 13 13 13 13 13 13 13 13 13 15 61 224 13 13 13 13 13 13 13 13 13 13 13 13 13 13 13 13 13 13 13 13 13 13 13 13 13 13 13 13 13 13 13 13 13 14 58 227 13 13 13 13 13 13 13 13 13 13 13 13 13 13 13 13 13 13 15 61 224 13 13 13 13 13 13 16 64 222 13 13 13 13 13 13 13 13 13 13 13 13 13 13 13 13 13 13 13 13 13 13 13 13 15 61 224 13 13 13 13 13 13 13 13 13 13 13 13 13 13 13 13 13 13 13 13 13 13 13 13 13 13 13 13 13 13 13 13 13 21 75 212 13 13 13 13 13 13 13 13 13 13 13 13 15 61 224 13 13 13 13 13 13 13 13 13 114 215 80 13 13 13 13 13 13 13 13 13 13 13 13 13 13 13 13 13 13 13 13 13 13 13 13 36 110 182 13 13 13 13 13 13 13 13 13 13 13 13 13 13 13 13 13 13 13 13 13 13 13 13 13 13 13 13 13 13 13 13 13 13 13 13 13 13 13 13 13 13 13 13 13 13 13 13 13 13 13 13 13 13 13 13 13 13 13 13 13 13 13 13 13 13 13 13 13 13 13 13 13 13 13 13 13 13 50 143 155 13 13 13 13 13 13 13 13 13 13 13 13 13 13 13 13 13 13 13 13 13 13 13 13 13 13 13 13 13 13 13 13 13 13 13 13 13 13 13 13 13 13 13 13 13 13 13 13 13 13 13 23 79 209 13 13 13 18 68 219 42 123 172 13 13 13 13 13 13 13 13 13 13 13 13 13 13 13 13 13 13 13 13 13 13 13 13 13 13 13 13 13 13 13 13 13 13 13 13 13 13 13 46 133 163 13 13 13 13 13 13 13 13 13 13 13 13 13 13 13 35 107 185 13 13 13 53 148 150 13 13 13 13 13 13 13 13 13 13 13 13 13 13 13 13 13 13 13 13 13 13 13 13 13 13 13 13 13 13 13 13 13 36 110 182 112 214 81 13 13 13 13 13 13 13 13 13 13 13 13 13 13 13 13 13 13 13 13 13 13 13 13 13 13 13 13 13 13 13 13 13 13 13 13 13 13 13 28 91 199 13 13 13 13 13 13 13 13 13 13 13 13 13 13 13 13 13 13 
13 13 13 13 13 13 13 13 13 13 13 13 13 13 13 13 13 13 13 13 13 13 13 13 13 13 13 13 13 13 13 13 13 13 13 13 13 13 13 13 13 13 13 13 13 13 13 13 13 13 13 13 13 13 13 13 13 13 13 13 13 13 13 13 13 13 13 13 13 13 13 13 15 61 224 13 13 13 13 13 13 13 13 13 13 13 13 13 13 13 13 13 13 13 13 13 13 13 13 13 13 13 13 13 13 13 13 13 13 13 13 13 13 13 13 13 13 13 13 13 13 13 13 13 13 13 13 13 13 13 13 13 13 13 13 13 13 13 13 13 13 13 13 13 13 13 13 13 13 13 13 13 13 13 13 13 13 13 13 13 13 13 13 13 13 13 13 13 13 13 13 13 13 13 13 13 13 13 13 13 13 13 13 13 13 13 13 13 13 13 13 13 13 13 13 13 13 13 13 13 13 13 13 13 13 13 13 15 61 224 13 13 13 13 13 13 13 13 13 13 13 13 13 13 13 13 13 13 13 13 13 13 13 13 13 13 13 13 13 13 13 13 13 13 13 13 13 13 13 36 110 183 13 13 13 13 13 13 13 13 13 13 13 13 13 13 13 13 13 13 13 13 13 13 13 13 13 13 13 13 13 13 13 13 13 13 13 13 13 13 13 13 13 13 13 13 13 13 13 13 13 13 13 251 254 3 13 13 13 13 13 13 13 13 13 13 13 13 76 203 103 13 13 13 13 13 13 13 13 13 13 13 13 13 13 13 13 13 13 13 13 13 13 13 13 13 13 13 13 13 13 13 13 13 13 13 13 13 13 13 13 13 13 13 13 13 13 13 13 13 13 13 13 13 13 13 13 13 13 13 13 13 13 13 13 13 13 13 13 13 13 13 13 13 13 13 13 13 13 13 13 13 59 164 137 13 13 13 13 13 13 13 13 13 13 13 13 13 13 13 23 79 209 13 13 13 13 13 13 13 13 13 148 224 61 13 13 13 13 13 13 13 13 13 26 87 202 13 13 13 13 13 13 13 13 13 13 13 13 13 13 13 13 13 13 13 13 13 13 13 13 13 13 13 13 13 13 13 13 13 13 13 13 13 13 13 192 237 36 13 13 13 13 13 13 13 13 13 13 13 13 13 13 13 13 13 13 13 13 13 13 13 13 13 13 13 13 13 13 13 13 13 13 13 13 13 13 13 13 13 13 13 13 13 13 13 13 13 13 13 13 13 13 13 13 13 13 13 13 13 13 13 13 13 13 13 13 13 13 13 13 22 76 212 13 13 13 13 13 13 13 13 13 13 13 13 13 13 13 43 126 169 13 13 13 13 13 13 232 248 13 13 13 13 13 13 13 62 170 131 
254 255 0 13 13 13 13 13 13 13 13 13 13 13 13 13 13 13 13 13 13 13 13 13 13 13 13 13 13 13 13 13 13 13 13 13 13 13 13 13 13 13 13 13 13 13 13 13 13 13 13 13 13 13 13 13 13 13 13 13 13 13 13 13 13 13 13 13 13 13 13 13 13 13 13 13 13 13 13 13 13 13 13 13 13 13 13 13 13 13 13 13 13 13 13 13 13 13 13 13 13 13 13 13 13 13 13 13 13 13 13 13 13 13 13 13 13 13 13 13 13 13 13 13 13 13 13 13 13 13 13 13 13 13 13 13 13 13 13 13 13 13 13 13 13 13 13 13 13 13 13 13 13 13 13 13 13 13 13 13 13 13 13 13 13 13 13 13 13 13 13 13 13 13 13 13 13 13 13 13 13 13 13 13 13 13 13 13 13 150 225 60 13 13 13 13 13 13 13 13 13 13 13 13 13 13 13 13 13 13 13 13 13 13 13 13 13 13 13 13 13 13 13 13 13 13 13 13 13 13 13 13 13 13 13 13 13 13 13 13 13 13 13 26 86 203 13 13 13 13 13 13 13 13 13 13 13 13 18 67 220 13 13 13 13 13 13 13 13 13 13 13 13 13 13 13 13 13 13 13 13 13 13 13 13 13 13 13 43 127 168 13 13 13 29 94 196 13 13 13 13 13 13 13 13 13 13 13 13 13 13 13 13 13 13 13 13 13 13 13 13 13 13 13 13 13 13 13 13 13 13 13 13 13 13 13 13 13 13 13 13 13 13 13 13 13 13 13 13 13 13 13 13 13 46 133 163 13 13 13 13 13 13 13 13 13 13 13 13 13 13 13 13 13 13 13 13 13 13 13 13 13 13 13 13 13 13 13 13 13 13 13 13 13 13 13 13 13 13 13 13 13 13 13 13 13 13 13 13 13 13 13 13 13 13 13 13 32 99 192 13 13 13 13 13 13 13 13 13 13 13 13 13 13 13 13 13 13 13 13 13 13 13 13 13 13 13 13 13 13 21 75 213 13 13 13 24 82 206 13 13 13 13 13 13 13 13 13 13 13 13 13 13 13 13 13 13 13 13 13 13 13 13 13 13 13 13 13 13 13 13 13 13 13 13 30 96 195 13 13 13 48 138 159 13 13 13 13 13 13 13 13 13 13 13 13 13 13 13 13 13 13 20 73 214 37 112 181 13 13 13 13 13 13 13 13 13 13 13 13 13 13 13 13 13 13 13 13 13 13 13 13 13 13 13 13 13 13 13 13 13 13 13 13 13 13 13 13 13 13 13 13 13 33 103 189 13 13 13 13 13 13 13 13 13 13 13 13 13 13 13 13 13 13 13 13 13 33 103 188 
13 13 13 13 13 13 13 13 13 13 13 13 13 13 13 13 13 13 13 13 13 13 13 13 13 13 13 13 13 13 13 13 13 13 13 13 13 13 13 13 13 13 13 13 13 13 13 13 13 13 13 13 13 13 13 13 13 13 13 13 15 61 224 13 13 13 15 61 224 13 13 13 13 13 13 13 13 13 13 13 13 13 13 13 13 13 13 13 13 13 13 13 13 13 13 13 13 13 13 13 13 13 13 13 13 13 13 13 13 13 13 13 13 13 13 13 13 13 13 13 13 13 13 13 13 13 13 13 13 13 13 13 13 13 13 17 66 220 13 13 13 13 13 13 13 13 13 13 13 13 13 13 13 13 13 13 13 13 13 17 66 220 13 13 13 13 13 13 13 13 13 13 13 13 13 13 13 13 13 13 13 13 13 13 13 13 13 13 13 13 13 13 13 13 13 13 13 13 13 13 13 13 13 13 13 13 13 13 13 13 13 13 13 13 13 13 13 13 13 13 13 13 13 13 13 13 13 13 13 13 13 13 13 13 13 13 13 13 13 13 13 13 13 13 13 13 13 13 13 13 13 13 59 164 136 13 13 13 13 13 13 13 13 13 13 13 13 13 13 13 13 13 13 13 13 13 13 13 13 13 13 13 13 13 13 13 13 13 13 13 13 39 115 178 13 13 13 13 13 13 13 13 13 13 13 13 13 13 13 61 167 134 13 13 13 13 13 13 13 13 13 13 13 13 13 13 13 13 13 13 13 13 13 13 13 13 13 13 13 13 13 13 13 13 13 13 13 13 13 13 13 13 13 13 13 13 13 37 111 181 13 13 13 13 13 13 13 13 13 13 13 13 13 13 13 13 13 13 13 13 13 18 66 220 13 13 13 66 181 122 13 13 13 13 13 13 13 13 13 13 13 13 13 13 13 13 13 13 13 13 13 13 13 13 45 131 164 13 13 13 13 13 13 13 13 13 13 13 13 13 13 13 13 13 13 13 13 13 13 13 13 13 13 13 13 13 13 13 13 13 13 13 13 13 13 13 13 13 13 13 13 13 13 13 13 13 13 13 13 13 13 13 13 13 13 13 13 13 13 13 13 13 13 13 13 13 13 13 13 13 13 13 13 13 13 13 13 13 13 13 13 15 61 225 13 13 13 13 13 13 13 13 13 13 13 13 13 13 13 13 13 13 13 13 13 37 112 181 74 199 106 13 13 13 13 13 13 13 13 13 13 13 13 13 13 13 13 13 13 13 13 13 13 13 13 13 13 13 13 13 13 13 13 13 13 13 13 22 77 211 13 13 13 13 13 13 13 13 13 13 13 13 13 13 13 13 13 13 41 120 174 13 13 13 35 107 185 50 142 155 
13 13 13 13 13 13 13 13 13 13 13 13 13 13 13 13 13 13 13 13 13 13 13 13 13 13 13 13 13 13 13 13 13 13 13 13 13 13 13 13 13 13 13 13 13 13 13 13 13 13 13 13 13 13 13 13 13 13 13 13 13 13 13 13 13 13 13 13 13 13 13 13 13 13 13 13 13 13 13 13 13 13 13 13 13 13 13 13 13 13 13 13 13 13 13 13 13 13 13 13 13 13 13 13 13 13 13 13 13 13 13 13 13 13 13 13 13 13 13 13 13 13 13 13 13 13 13 13 13 13 13 13 13 13 13 126 218 74 13 13 13 13 13 13 13 13 13 13 13 13 13 13 13 13 13 13 13 13 13 13 13 13 13 13 13 13 13 13 13 13 13 13 13 13 13 13 13 13 13 13 13 13 13 13 13 13 13 13 13 13 13 13 13 13 13 13 13 13 13 13 13 13 13 13 13 13 13 13 13 13 13 13 13 13 13 13 13 13 13 13 13 13 13 13 13 13 13 13 13 13 13 13 13 13 13 13 13 13 13 13 13 13 13 21 75 213 13 13 13 13 13 13 13 13 13 13 13 13 13 13 13 13 13 13 13 13 13 13 13 13 13 13 13 13 13 13 13 13 13 13 13 13 13 13 13 13 13 13 13 13 13 13 13 13 170 231 49 13 13 13 13 13 13 13 13 13 13 13 13 13 13 13 13 13 13 13 13 13 13 13 13 13 13 13 13 13 13 13 13 13 13 13 13 52 147 150 13 13 13 13 13 13 13 13 13 13 13 13 13 13 13 13 13 13 13 13 13 13 13 13 206 241 28 13 13 13 42 123 172 13 13 13 13 13 13 13 13 13 13 13 13 13 13 13 13 13 13 13 13 13 13 13 13 13 13 13 13 13 13 13 13 13 13 13 13 13 13 13 13 13 13 13 13 13 13 13 13 13 13 13 13 13 13 13 13 13 13 13 13 13 13 13 13 13 13 13 13 13 13 13 13 13 13 13 13 13 13 13 13 13 13 13 13 13 13 13 13 13 13 13 13 13 13 13 13 13 13 13 13 13 13 13 13 13 21 75 212 13 13 13 13 13 13 13 13 13 13 13 13 34 105 186 13 13 13 13 13 13 13 13 13 13 13 13 13 13 13 13 13 13 13 13 13 13 13 13 13 13 13 13 13 13 13 13 13 13 13 13 13 13 13 13 13 13 13 13 13 13 13 13 13 13 13 13 13 13 13 13 13 13 13 13 13 13 13 13 13 13 13 13 13 13 13 13 13 13 13 13 13 13 13 13 13 13 13 13 13 13 13 13 13 13 13 13 13 13 13 13 13 13 13 32 101 190 41 121 173 36 110 182 
159 227 55 13 13 13 13 13 13 13 13 13 13 13 13 13 13 13 13 13 13 13 13 13 13 13 13 13 13 13 13 13 13 13 13 13 13 13 13 13 13 13 13 13 13 13 13 13 13 13 13 13 13 13 13 13 13 13 13 13 13 13 13 13 13 13 13 13 13 13 13 13 13 13 13 13 13 13 13 13 13 13 13 13 13 13 13 13 13 13 13 13 13 13 13 13 13 13 13 13 13 13 13 13 13 13 13 13 13 13 13 13 13 13 13 13 13 13 13 13 13 13 13 13 13 13 13 13 13 13 13 13 13 13 13 13 13 13 13 13 13 13 13 13 13 13 13 13 13 13 13 13 13 13 13 13 13 13 13 13 13 13 13 13 13 13 13 13 13 13 13 13 13 13 13 13 13 13 13 13 13 13 13 13 13 13 13 13 13 13 13 13 13 13 13 13 13 13 13 13 13 13 13 13 13 13 13 13 13 13 13 13 13 13 13 13 13 13 13 13 13 13 13 13 13 13 13 13 13 13 13 19 69 218 13 13 13 13 13 13 13 13 13 13 13 13 13 13 13 13 13 13 13 13 13 13 13 13 13 13 13 13 13 13 13 13 13 13 13 13 13 13 13 13 13 13 13 13 13 13 13 13 13 13 13 13 13 13 13 13 13 13 13 13 13 13 13 13 13 13 13 13 13 13 13 13 13 13 13 13 13 13 13 13 13 13 13 13 13 13 13 13 13 13 13 13 13 13 13 13 13 13 13 13 13 13 13 13 13 13 13 13 13 13 13 13 13 13 13 13 13 13 13 13 13 13 13 13 13 13 13 13 13 13 13 13 13 13 13 13 13 13 13 13 13 13 13 13 13 13 13 13 13 13 13 13 13 13 13 13 13 13 13 13 13 13 13 13 13 13 13 13 63 172 129 13 13 13 13 13 13 13 13 13 13 13 13 13 13 13 13 13 13 13 13 13 13 13 13 26 86 204 13 13 13 13 13 13 49 139 157 13 13 13 13 13 13 13 13 13 13 13 13 13 13 13 13 13 13 13 13 13 13 13 13 13 13 13 13 13 13 13 13 13 13 13 13 13 13 13 13 13 13 13 13 13 13 13 13 13 13 13 13 13 13 13 13 13 13 13 13 13 13 13 13 13 13 13 13 13 13 13 13 13 13 13 13 13 13 13 13 13 13 13 13 13 13 13 13 13 13 13 13 13 13 13 13 13 13 13 13 13 13 22 77 211 13 13 13 13 13 13 13 13 13 13 13 13 13 13 13 13 13 13 13 13 13 13 13 13 13 13 13 13 13 13 13 13 13 13 13 13 13 13 13 13 13 13 13 13 13 53 150 148 41 121 173 41 121 173 
13 13 13 13 13 13 13 13 13 13 13 13 13 13 13 13 13 13 13 13 13 13 13 13 13 13 13 13 13 13 13 13 13 13 13 13 13 13 13 13 13 13 13 13 13 13 13 13 13 13 13 13 13 13 13 13 13 13 13 13 13 13 13 13 13 13 13 13 13 13 13 13 13 13 13 13 13 13 13 13 13 13 13 13 13 13 13 13 13 13 13 13 13 13 13 13 13 13 13 13 13 13 13 13 13 13 13 13 13 13 13 13 13 13 13 13 13 13 13 13 13 13 13 13 13 13 194 237 35 13 13 13 13 13 13 13 13 13 13 13 13 13 13 13 13 13 13 13 13 13 15 61 224 13 13 13 13 13 13 13 13 13 13 13 13 13 13 13 13 13 13 13 13 13 13 13 13 13 13 13 13 13 13 13 13 13 13 13 13 13 13 13 13 13 13 13 13 13 13 13 13 13 13 13 13 13 13 13 13 13 13 13 13 13 13 13 13 13 13 13 13 13 13 13 13 13 13 13 13 13 13 13 13 13 13 13 13 13 13 13 13 13 13 13 13 13 13 13 13 237 250 10 13 13 13 13 13 13 13 13 13 13 13 13 13 13 13 13 13 13 13 13 13 13 13 13 13 13 13 13 13 13 13 13 13 13 13 13 13 13 13 13 13 13 13 13 13 13 13 13 13 13 13 13 13 13 13 13 13 13 13 13 13 13 13 13 13 13 13 13 13 13 13 13 13 13 13 13 13 13 13 13 13 13 13 13 27 88 201 13 13 13 13 13 13 48 137 159 13 13 13 13 13 13 133 220 69 13 13 13 13 13 13 13 13 13 13 13 13 13 13 13 13 13 13 48 137 159 13 13 13 13 13 13 13 13 13 13 13 13 13 13 13 13 13 13 31 97 193 13 13 13 13 13 13 13 13 13 13 13 13 13 13 13 13 13 13 13 13 13 13 13 13 13 13 13 21 74 213 13 13 13 13 13 13 13 13 13 13 13 13 13 13 13 13 13 13 13 13 13 13 13 13 13 13 13 13 13 13 13 13 13 13 13 13 13 13 13 13 13 13 38 114 179 39 116 178 13 13 13 13 13 13 13 13 13 13 13 13 13 13 13 13 13 13 13 13 13 13 13 13 46 132 164 13 13 13 13 13 13 13 13 13 13 13 13 13 13 13 13 13 13 13 13 13 13 13 13 13 13 13 13 13 13 13 13 13 13 13 13 13 13 13 13 13 13 13 13 13 13 13 13 13 13 13 13 13 13 13 13 13 13 13 13 13 13 13 13 13 13 13 13 13 13 13 13 13 13 13 13 13 13 13 13 13 13 13 13 13 13 13 13 13 13 47 136 161 63 172 129 
13 13 13 13 13 13 13 13 13 13 13 13 13 13 13 13 13 13 13 13 13 13 13 13 13 13 13 13 13 13 13 13 13 13 13 13 13 13 13 13 13 13 13 13 13 13 13 13 13 13 13 13 13 13 13 13 13 13 13 13 13 13 13 13 13 13 13 13 13 13 13 13 13 13 13 13 13 13 13 13 13 13 13 13 13 13 13 13 13 13 13 13 13 13 13 13 13 13 13 13 13 13 13 13 13 13 13 13 13 13 13 13 13 13 13 13 13 13 13 13 13 13 13 13 13 13 13 13 13 13 13 13 13 13 13 13 13 13 13 13 13 13 13 13 13 13 13 13 13 13 15 61 224 13 13 13 13 13 13 13 13 13 13 13 13 13 13 13 92 209 93 13 13 13 13 13 13 13 13 13 16 64 222 13 13 13 13 13 13 13 13 13 13 13 13 13 13 13 13 13 13 13 13 13 13 13 13 13 13 13 13 13 13 13 13 13 13 13 13 13 13 13 13 13 13 13 13 13 13 13 13 13 13 13 13 13 13 13 13 13 13 13 13 13 13 13 13 13 13 13 13 13 13 13 13 13 13 13 13 13 13 13 13 13 13 13 13 13 13 13 50 142 155 13 13 13 13 13 13 13 13 13 13 13 13 13 13 13 13 13 13 13 13 13 13 13 13 27 88 202 13 13 13 13 13 13 13 13 13 13 13 13 13 13 13 13 13 13 13 13 13 13 13 13 13 13 13 13 13 13 13 13 13 13 13 13 13 13 13 13 13 13 13 13 13 13 13 13 13 13 13 18 67 220 13 13 13 13 13 13 13 13 13 13 13 13 13 13 13 13 13 13 13 13 13 13 13 13 13 13 13 13 13 13 13 13 13 13 13 13 13 13 13 13 13 13 13 13 13 13 13 13 13 13 13 13 13 13 13 13 13 13 13 13 13 13 13 13 13 13 13 13 13 13 13 13 13 13 13 35 108 184 13 13 13 13 13 13 13 13 13 13 13 13 13 13 13 13 13 13 13 13 13 13 13 13 13 13 13 53 149 149 13 13 13 13 13 13 13 13 13 13 13 13 13 13 13 13 13 13 13 13 13 13 13 13 13 13 13 13 13 13 13 13 13 13 13 13 13 13 13 13 13 13 13 13 13 13 13 13 13 13 13 13 13 13 13 13 13 13 13 13 13 13 13 13 13 13 13 13 13 13 13 13 13 13 13 13 13 13 13 13 13 13 13 13 13 13 13 13 13 13 13 13 13 13 13 13 13 13 13 13 13 13 13 13 13 13 13 13 13 13 13 17 65 221 13 13 13 13 13 13 13 13 13 13 13 13 13 13 13 13 13 13 13 13 13 40 119 175 
138 222 67 13 13 13 13 13 13 13 13 13 13 13 13 13 13 13 13 13 13 13 13 13 13 13 13 13 13 13 13 13 13 13 13 13 13 13 13 13 13 13 13 13 13 13 13 13 13 13 13 13 13 13 13 13 13 13 13 13 13 13 13 13 13 13 13 13 13 13 13 13 13 13 13 13 13 13 13 13 13 13 13 13 13 13 13 13 13 13 13 13 13 13 13 13 13 13 13 13 13 13 13 13 13 13 13 13 13 13 13 13 13 13 13 13 13 13 13 13 13 13 13 13 13 13 13 13 13 13 13 13 13 13 13 13 13 13 13 13 13 13 13 13 13 13 13 13 13 13 13 13 13 13 13 13 79 205 100 13 13 13 13 13 13 13 13 13 13 13 13 13 13 13 13 13 13 13 13 13 13 13 13 13 13 13 13 13 13 13 13 13 13 13 13 13 13 13 13 13 13 13 13 13 13 13 13 13 13 13 13 13 13 13 13 13 13 13 13 13 13 13 13 13 13 13 13 13 13 13 13 13 13 13 13 13 13 13 13 13 13 13 13 171 231 48 13 13 13 13 13 13 13 13 13 13 13 13 26 85 204 13 13 13 13 13 13 13 13 13 13 13 13 13 13 13 13 13 13 13 13 13 13 13 13 13 13 13 13 13 13 13 13 13 13 13 13 13 13 13 13 13 13 13 13 13 13 13 13 161 228 54 80 205 100 13 13 13 13 13 13 30 95 196 13 13 13 13 13 13 13 13 13 13 13 13 13 13 13 13 13 13 13 13 13 13 13 13 13 13 13 13 13 13 13 13 13 13 13 13 13 13 13 13 13 13 13 13 13 13 13 13 19 71 216 13 13 13 13 13 13 13 13 13 13 13 13 13 13 13 13 13 13 13 13 13 13 13 13 13 13 13 13 13 13 13 13 13 13 13 13 13 13 13 13 13 13 13 13 13 42 124 170 13 13 13 13 13 13 13 13 13 13 13 13 13 13 13 13 13 13 13 13 13 13 13 13 13 13 13 13 13 13 13 13 13 13 13 13 13 13 13 13 13 13 13 13 13 13 13 13 13 13 13 13 13 13 13 13 13 13 13 13 50 142 155 50 142 156 13 13 13 13 13 13 38 114 179 13 13 13 13 13 13 13 13 13 13 13 13 13 13 13 13 13 13 13 13 13 13 13 13 13 13 13 13 13 13 13 13 13 13 13 13 13 13 13 54 151 148 13 13 13 13 13 13 40 119 175 13 13 13 13 13 13 13 13 13 13 13 13 13 13 13 13 13 13 13 13 13 13 13 13 13 13 13 13 13 13 13 13 13 13 13 13 13 13 13 13 13 13 13 13 13 13 13 13 36 110 183 
13 13 13 13 13 13 13 13 13 13 13 13 13 13 13 13 13 13 13 13 13 13 13 13 13 13 13 13 13 13 13 13 13 13 13 13 13 13 13 13 13 13 13 13 13 13 13 13 13 13 13 13 13 13 13 13 13 13 13 13 13 13 13 13 13 13 13 13 13 13 13 13 13 13 13 13 13 13 13 13 13 13 13 13 13 13 13 13 13 13 13 13 13 13 13 13 13 13 13 13 13 13 13 13 13 13 13 13 13 13 13 13 13 13 13 13 13 13 13 13 13 13 13 13 13 13 13 13 13 13 13 13 13 13 13 13 13 13 13 13 13 13 13 13 13 13 13 13 13 13 13 13 13 13 13 13 13 13 13 13 13 13 13 13 13 13 13 13 13 13 13 13 13 13 13 13 13 13 13 13 13 13 13 13 13 13 13 13 13 13 13 13 13 13 13 13 13 13 13 13 13 13 13 13 13 13 13 13 13 13 13 13 13 206 241 28 13 13 13 13 13 13 13 13 13 13 13 13 13 13 13 13 13 13 13 13 13 13 13 13 13 13 13 13 13 13 13 13 13 13 13 13 13 13 13 13 13 13 13 13 13 13 13 13 13 13 13 13 13 13 13 13 13 13 13 13 13 13 13 13 13 13 13 13 13 13 13 13 13 13 13 13 13 13 13 13 13 29 94 196 13 13 13 13 13 13 13 13 13 13 13 13 13 13 13 13 13 13 13 13 13 13 13 13 13 13 13 13 13 13 13 13 13 13 13 13 13 13 13 13 13 13 13 13 13 13 13 13 13 13 13 13 13 13 13 13 13 13 13 13 13 13 13 13 13 13 108 213 84 13 13 13 13 13 13 13 13 13 13 13 13 13 13 13 13 13 13 13 13 13 13 13 13 13 13 13 13 13 13 13 13 13 13 13 13 13 13 13 13 13 13 13 13 13 56 157 142 13 13 13 13 13 13 13 13 13 13 13 13 13 13 13 13 13 13 13 13 13 13 13 13 13 13 13 13 13 13 13 13 13 13 13 13 138 221 67 13 13 13 49 140 157 13 13 13 13 13 13 13 13 13 64 175 127 13 13 13 13 13 13 13 13 13 13 13 13 13 13 13 13 13 13 13 13 13 13 13 13 13 13 13 13 13 13 13 13 13 13 13 13 23 80 209 13 13 13 13 13 13 160 228 55 13 13 13 49 141 156 13 13 13 13 13 13 13 13 13 13 13 13 20 72 215 13 13 13 60 166 134 13 13 13 13 13 13 13 13 13 13 13 13 13 13 13 13 13 13 13 13 13 13 13 13 13 13 13 13 13 13 13 13 13 25 85 204 13 13 13 13 13 13 13 13 13 55 154 145 75 201 105 
13 13 13 13 13 13 13 13 13 13 13 13 13 13 13 13 13 13 13 13 13 13 13 13 13 13 13 13 13 13 13 13 13 13 13 13 13 13 13 13 13 13 13 13 13 13 13 13 13 13 13 13 13 13 13 13 13 13 13 13 13 13 13 13 13 13 13 13 13 13 13 13 13 13 13 13 13 13 13 13 13 13 13 13 13 13 13 13 13 13 13 13 13 13 13 13 13 13 13 13 13 13 13 13 13 13 13 13 13 13 13 13 13 13 13 13 13 13 13 13 13 13 13 13 13 13 13 13 13 13 13 13 208 242 27 13 13 13 13 13 13 13 13 13 13 13 13 13 13 13 13 13 13 13 13 13 13 13 13 13 13 13 13 13 13 13 13 13 13 13 13 13 13 13 13 13 13 13 13 13 13 13 13 13 13 13 13 13 13 13 13 13 13 13 13 13 13 13 13 13 13 13 13 13 13 13 13 13 13 13 13 13 13 13 13 13 13 13 13 13 13 13 13 13 13 13 13 13 13 13 13 13 13 13 13 13 13 13 13 13 13 13 13 13 13 13 13 13 13 13 13 13 13 13 13 13 13 13 18 67 219 13 13 13 13 13 13 13 13 13 13 13 13 13 13 13 13 13 13 13 13 13 13 13 13 13 13 13 13 13 13 27 89 200 13 13 13 13 13 13 13 13 13 13 13 13 69 186 117 13 13 13 13 13 13 13 13 13 13 13 13 13 13 13 13 13 13 13 13 13 13 13 13 13 13 13 13 13 13 13 13 13 13 13 13 13 13 13 13 13 13 13 13 13 13 13 13 13 13 13 13 13 13 13 13 13 13 13 13 13 13 13 13 13 13 13 13 13 13 13 13 13 13 13 13 13 13 13 13 13 13 13 13 13 13 13 13 13 13 58 162 138 13 13 13 13 13 13 13 13 13 13 13 13 13 13 13 13 13 13 13 13 13 13 13 13 13 13 13 13 13 13 13 13 13 13 13 13 13 13 13 13 13 13 13 13 13 13 13 13 13 13 13 13 13 13 13 13 13 13 13 13 13 13 13 13 13 13 13 13 13 13 13 13 13 13 13 13 13 13 13 13 13 13 13 13 13 13 13 13 13 13 13 13 13 13 13 13 13 13 13 13 13 13 13 13 13 13 13 13 13 13 13 49 139 157 13 13 13 44 127 168 13 13 13 13 13 13 13 13 13 13 13 13 13 13 13 13 13 13 13 13 13 13 13 13 13 13 13 13 13 13 13 13 13 13 13 13 13 13 13 13 13 13 13 13 13 13 13 13 13 13 13 13 13 13 13 13 13 13 13 13 13 13 13 13 13 13 13 13 13 55 155 144 55 154 145 54 153 146 
13 13 13 13 13 13 13 13 13 13 13 13 13 13 13 13 13 13 13 13 13 13 13 13 13 13 13 13 13 13 13 13 13 13 13 13 13 13 13 13 13 13 13 13 13 13 13 13 13 13 13 13 13 13 13 13 13 13 13 13 13 13 13 13 13 13 13 13 13 13 13 13 13 13 13 13 13 13 13 13 13 13 13 13 13 13 13 13 13 13 13 13 13 13 13 13 13 13 13 13 13 13 13 13 13 13 13 13 13 13 13 13 13 13 13 13 13 13 13 13 13 13 13 13 13 13 13 13 13 13 13 13 13 13 13 13 13 13 13 13 13 13 13 13 13 13 13 13 13 13 13 13 13 13 13 13 13 13 13 13 13 13 13 13 13 13 13 13 13 13 13 13 13 13 13 13 13 13 13 13 13 13 13 13 13 13 13 13 13 13 13 13 13 13 13 13 13 13 13 13 13 13 13 13 13 13 13 13 13 13 13 13 13 13 13 13 13 13 13 13 13 13 13 13 13 13 13 13 13 13 13 13 13 13 13 13 13 13 13 13 13 13 13 13 13 13 13 13 13 13 13 13 13 13 13 13 13 13 13 13 13 13 13 13 13 13 13 13 13 13 13 13 13 13 13 13 13 13 13 13 13 13 13 13 13 13 13 13 13 13 13 13 13 13 13 13 13 13 13 13 13 13 13 13 13 13 13 13 13 13 13 13 13 13 13 13 13 13 13 13 13 13 13 13 13 13 13 13 13 13 13 13 13 13 13 13 13 13 13 13 13 13 13 13 13 13 13 13 13 13 13 13 13 13 13 13 13 34 104 188 13 13 13 13 13 13 13 13 13 13 13 13 13 13 13 13 13 13 13 13 13 13 13 13 13 13 13 13 13 13 13 13 13 13 13 13 13 13 13 13 13 13 13 13 13 13 13 13 13 13 13 13 13 13 13 13 13 13 13 13 13 13 13 13 13 13 13 13 13 13 13 13 24 83 206 196 238 34 13 13 13 13 13 13 13 13 13 13 13 13 13 13 13 13 13 13 13 13 13 13 13 13 13 13 13 13 13 13 13 13 13 13 13 13 13 13 13 13 13 13 13 13 13 13 13 13 13 13 13 13 13 13 13 13 13 13 13 13 13 13 13 13 13 13 13 13 13 13 13 13 13 13 13 13 13 13 13 13 13 13 13 13 13 13 13 13 13 13 13 13 13 13 13 13 13 13 13 13 13 13 13 13 13 13 13 13 13 13 13 13 13 13 13 13 13 13 13 13 13 13 13 13 13 13 13 13 13 13 13 13 13 13 13 28 91 199 13 13 13 13 13 13 13 13 13 13 13 13 13 13 13 13 13 13 53 148 150 34 104 188 
13 13 13 13 13 13 13 13 13 13 13 13 13 13 13 13 13 13 13 13 13 13 13 13 13 13 13 13 13 13 13 13 13 13 13 13 13 13 13 13 13 13 13 13 13 13 13 13 13 13 13 13 13 13 13 13 13 13 13 13 13 13 13 13 13 13 13 13 13 13 13 13 13 13 13 13 13 13 13 13 13 13 13 13 13 13 13 13 13 13 13 13 13 13 13 13 13 13 13 13 13 13 13 13 13 13 13 13 13 13 13 13 13 13 13 13 13 13 13 13 13 13 13 13 13 13 13 13 13 13 13 13 13 13 13 13 13 13 13 13 13 13 13 13 13 13 13 13 13 13 13 13 13 13 13 13 13 13 13 13 13 13 13 13 13 13 13 13 13 13 13 13 13 13 13 13 13 13 13 13 13 13 13 13 13 13 13 13 13 13 13 13 13 13 13 13 13 13 13 13 13 13 13 13 13 13 13 13 13 13 13 13 13 65 176 126 13 13 13 13 13 13 13 13 13 195 238 34 13 13 13 13 13 13 13 13 13 58 162 138 13 13 13 13 13 13 13 13 13 13 13 13 13 13 13 13 13 13 13 13 13 13 13 13 13 13 13 13 13 13 13 13 13 13 13 13 13 13 13 13 13 13 13 13 13 13 13 13 13 13 13 13 13 13 13 13 13 13 13 13 13 13 13 13 13 13 13 13 13 13 13 13 13 13 13 13 13 13 13 13 13 13 13 13 13 13 13 13 13 13 13 13 13 13 13 13 13 13 13 13 13 13 13 13 13 13 13 13 13 13 13 13 13 13 13 13 13 13 13 13 13 13 13 13 13 13 13 13 13 13 13 13 13 13 13 13 13 13 13 13 13 13 13 13 13 13 13 13 13 13 13 13 13 13 13 13 13 13 13 13 13 13 13 13 13 13 13 13 13 13 13 13 13 13 13 13 13 13 13 13 13 13 13 13 13 13 13 13 13 13 13 13 13 13 13 13 13 13 13 13 13 13 13 13 13 13 13 13 13 13 13 13 13 13 13 13 13 13 13 13 13 13 26 85 204 13 13 13 13 13 13 13 13 13 13 13 13 13 13 13 13 13 13 13 13 13 13 13 13 146 224 62 13 13 13 13 13 13 13 13 13 13 13 13 13 13 13 13 13 13 13 13 13 48 137 159 13 13 13 13 13 13 13 13 13 13 13 13 13 13 13 13 13 13 13 13 13 13 13 13 13 13 13 13 13 13 13 13 13 13 13 13 13 13 13 13 13 13 13 13 13 13 13 13 13 13 13 13 13 13 13 13 13 13 13 13 13 13 13 13 13 13 13 13 13 13 13 13 13 13 13 13 13 13 13 13 13 51 144 153 
13 13 13 13 13 13 13 13 13 13 13 13 13 13 13 13 13 13 13 13 13 13 13 13 13 13 13 13 13 13 13 13 13 13 13 13 13 13 13 13 13 13 13 13 13 13 13 13 13 13 13 13 13 13 13 13 13 13 13 13 13 13 13 13 13 13 13 13 13 13 13 13 13 13 13 13 13 13 13 13 13 13 13 13 13 13 13 13 13 13 13 13 13 13 13 13 13 13 13 13 13 13 13 13 13 13 13 13 13 13 13 13 13 13 13 13 13 13 13 13 13 13 13 13 13 13 231 248 14 58 161 139 13 13 13 13 13 13 13 13 13 13 13 13 13 13 13 13 13 13 13 13 13 13 13 13 13 13 13 13 13 13 13 13 13 13 13 13 13 13 13 13 13 13 13 13 13 13 13 13 13 13 13 13 13 13 13 13 13 13 13 13 13 13 13 13 13 13 13 13 13 13 13 13 13 13 13 13 13 13 84 206 98 70 190 114 63 172 130 13 13 13 13 13 13 13 13 13 141 222 65 13 13 13 66 179 123 66 179 123 71 190 114 13 13 13 13 13 13 13 13 13 13 13 13 13 13 13 13 13 13 13 13 13 13 13 13 13 13 13 13 13 13 13 13 13 13 13 13 13 13 13 13 13 13 13 13 13 13 13 13 13 13 13 13 13 13 13 13 13 13 13 13 13 13 13 13 13 13 13 13 13 13 13 13 13 13 13 13 13 13 13 13 13 13 13 13 13 13 13 13 13 13 13 13 13 13 13 13 13 13 13 13 13 13 13 13 13 13 13 13 13 13 13 13 13 13 13 13 13 13 13 13 13 13 13 13 13 13 13 13 13 13 13 13 13 13 13 13 13 13 13 13 13 13 13 13 13 13 13 57 159 140 56 157 142 13 13 13 13 13 13 13 13 13 13 13 13 13 13 13 13 13 13 13 13 13 13 13 13 13 13 13 13 13 13 13 13 13 13 13 13 13 13 13 13 13 13 13 13 13 13 13 13 13 13 13 13 13 13 13 13 13 13 13 13 13 13 13 13 13 13 13 13 13 74 199 106 13 13 13 13 13 13 13 13 13 13 13 13 13 13 13 13 13 13 85 206 97 86 207 97 121 217 77 13 13 13 13 13 13 13 13 13 13 13 13 13 13 13 13 13 13 13 13 13 13 13 13 13 13 13 13 13 13 13 13 13 13 13 13 13 13 13 13 13 13 13 13 13 13 13 13 13 13 13 13 13 13 13 13 13 13 13 13 13 13 13 13 13 13 13 13 13 13 13 13 69 185 118 69 186 118 71 190 114 13 13 13 13 13 13 13 13 13 13 13 13 13 13 13 13 13 13 70 188 116 62 171 130 
166 230 51 57 159 140 13 13 13 13 13 13 13 13 13 37 111 182 92 208 93 66 180 123 13 13 13 56 155 144 52 146 152 13 13 13 13 13 13 13 13 13 13 13 13 13 13 13 13 13 13 13 13 13 13 13 13 13 13 13 25 84 205 13 13 13 13 13 13 123 217 75 13 13 13 71 190 114 13 13 13 13 13 13 13 13 13 13 13 13 71 191 114 13 13 13 13 13 13 60 166 135 13 13 13 112 214 82 63 171 130 128 219 72 13 13 13 13 13 13 13 13 13 13 13 13 63 173 128 28 92 198 52 148 150 13 13 13 13 13 13 62 170 131 13 13 13 13 13 13 55 155 144 13 13 13 97 210 90 110 214 83 13 13 13 13 13 13 64 175 127 13 13 13 13 13 13 53 149 149 54 151 148 125 218 74 71 190 114 91 208 94 103 211 87 160 228 54 13 13 13 57 159 141 13 13 13 92 209 93 76 204 102 128 219 73 27 88 202 61 167 133 13 13 13 136 221 68 51 145 153 145 224 63 73 196 108 47 135 161 91 208 93 91 208 94 13 13 13 26 86 203 159 228 55 141 222 65 62 169 132 71 190 114 77 204 102 58 160 139 223 246 18 13 13 13 59 163 137 50 142 155 87 207 96 47 135 161 91 208 94 75 200 106 46 133 163 13 13 13 48 138 159 13 13 13 13 13 13 61 168 133 51 145 152 86 207 97 108 213 84 172 231 48 122 217 76 72 193 111 216 244 23 74 198 107 158 227 55 27 88 202 146 224 62 53 149 149 128 219 72 45 130 166 13 13 13 48 138 158 60 165 136 53 149 149 73 195 109 13 13 13 114 215 81 82 206 99 80 205 100 65 177 125 13 13 13 121 217 76 58 161 139 57 158 142 56 156 143 57 159 140 13 13 13 140 222 66 94 209 92 75 201 104 206 241 28 72 193 111 66 179 124 38 115 179 65 178 124 55 153 146 107 213 84 75 200 106 72 194 110 54 151 148 125 218 74 64 175 126 55 155 144 121 217 77 49 141 156 13 13 13 59 164 136 107 213 85 136 221 68 65 178 125 53 150 149 183 234 41 70 189 115 93 209 92 68 184 119 76 204 102 96 209 91 182 234 41 92 208 93 71 190 114 62 170 131 61 168 133 54 152 147 13 13 13 79 205 100 126 218 73 105 212 86 62 171 130 91 208 94 103 212 87 121 217 77 109 213 83 53 150 148 71 192 113 56 156 144 110 214 83 93 209 92 98 210 90 163 229 53 55 153 145 58 162 138 81 205 99 91 208 94 59 162 138 157 227 56 79 205 100 229 247 15 53 150 148 69 186 117 84 206 98 103 212 87 70 188 116 
